;FLAVOR:Marlin
;TIME:52150
;Filament used: 1.04025m
;Layer height: 0.12
;MINX:2.699
;MINY:12.696
;MINZ:0.12
;MAXX:52.3
;MAXY:62.304
;MAXZ:2.04
;Generated with Cura_SteamEngine 5.3.1
M105
M109 S0
M82 ;absolute extrusion mode

G92 E0
G92 E0
G1 F2700 E-5
;LAYER_COUNT:1
;LAYER:0
M107
;MESH:film_square_1mm.STL
G1 F60 E0
G1 X0.000000 Y0.000000 E0.000000
G1 X20.000000 Y0.000000 E0.120000
G1 X20.000000 Y0.120000 E20.120000
G1 X0.000000 Y0.120000 E20.240000
G1 X0.000000 Y0.240000 E40.240000
G1 X20.000000 Y0.240000 E40.360000
G1 X20.000000 Y0.360000 E60.360000
G1 X0.000000 Y0.360000 E60.480000
G1 X0.000000 Y0.480000 E80.480000
G1 X20.000000 Y0.480000 E80.600000
G1 X20.000000 Y0.600000 E100.600000
G1 X0.000000 Y0.600000 E100.720000
G1 X0.000000 Y0.720000 E120.720000
G1 X20.000000 Y0.720000 E120.840000
G1 X20.000000 Y0.840000 E140.840000
G1 X0.000000 Y0.840000 E140.960000
G1 X0.000000 Y0.960000 E160.960000
G1 X20.000000 Y0.960000 E161.080000
G1 X20.000000 Y1.080000 E181.080000
G1 X0.000000 Y1.080000 E181.200000
G1 X0.000000 Y1.200000 E201.200000
G1 X20.000000 Y1.200000 E201.320000
G1 X20.000000 Y1.320000 E221.320000
G1 X0.000000 Y1.320000 E221.440000
G1 X0.000000 Y1.440000 E241.440000
G1 X20.000000 Y1.440000 E241.560000
G1 X20.000000 Y1.560000 E261.560000
G1 X0.000000 Y1.560000 E261.680000
G1 X0.000000 Y1.680000 E281.680000
G1 X20.000000 Y1.680000 E281.800000
G1 X20.000000 Y1.800000 E301.800000
G1 X0.000000 Y1.800000 E301.920000
G1 X0.000000 Y1.920000 E321.920000
G1 X20.000000 Y1.920000 E322.040000
G1 X20.000000 Y2.040000 E342.040000
G1 X0.000000 Y2.040000 E342.160000
G1 X0.000000 Y2.160000 E362.160000
G1 X20.000000 Y2.160000 E362.280000
G1 X20.000000 Y2.280000 E382.280000
G1 X0.000000 Y2.280000 E382.400000
G1 X0.000000 Y2.400000 E402.400000
G1 X20.000000 Y2.400000 E402.520000
G1 X20.000000 Y2.520000 E422.520000
G1 X0.000000 Y2.520000 E422.640000
G1 X0.000000 Y2.640000 E442.640000
G1 X20.000000 Y2.640000 E442.760000
G1 X20.000000 Y2.760000 E462.760000
G1 X0.000000 Y2.760000 E462.880000
G1 X0.000000 Y2.880000 E482.880000
G1 X20.000000 Y2.880000 E483.000000
G1 X20.000000 Y3.000000 E503.000000
G1 X0.000000 Y3.000000 E503.120000
G1 X0.000000 Y3.120000 E523.120000
G1 X20.000000 Y3.120000 E523.240000
G1 X20.000000 Y3.240000 E543.240000
G1 X0.000000 Y3.240000 E543.360000
G1 X0.000000 Y3.360000 E563.360000
G1 X20.000000 Y3.360000 E563.480000
G1 X20.000000 Y3.480000 E583.480000
G1 X0.000000 Y3.480000 E583.600000
G1 X0.000000 Y3.600000 E603.600000
G1 X20.000000 Y3.600000 E603.720000
G1 X20.000000 Y3.720000 E623.720000
G1 X0.000000 Y3.720000 E623.840000
G1 X0.000000 Y3.840000 E643.840000
G1 X20.000000 Y3.840000 E643.960000
G1 X20.000000 Y3.960000 E663.960000
G1 X0.000000 Y3.960000 E664.080000
G1 X0.000000 Y4.080000 E684.080000
G1 X20.000000 Y4.080000 E684.200000
G1 X20.000000 Y4.200000 E704.200000
G1 X0.000000 Y4.200000 E704.320000
G1 X0.000000 Y4.320000 E724.320000
G1 X20.000000 Y4.320000 E724.440000
G1 X20.000000 Y4.440000 E744.440000
G1 X0.000000 Y4.440000 E744.560000
G1 X0.000000 Y4.560000 E764.560000
G1 X20.000000 Y4.560000 E764.680000
G1 X20.000000 Y4.680000 E784.680000
G1 X0.000000 Y4.680000 E784.800000
G1 X0.000000 Y4.800000 E804.800000
G1 X20.000000 Y4.800000 E804.920000
G1 X20.000000 Y4.920000 E824.920000
G1 X0.000000 Y4.920000 E825.040000
G1 X0.000000 Y5.040000 E845.040000
G1 X20.000000 Y5.040000 E845.160000
G1 X20.000000 Y5.160000 E865.160000
G1 X0.000000 Y5.160000 E865.280000
G1 X0.000000 Y5.280000 E885.280000
G1 X20.000000 Y5.280000 E885.400000
G1 X20.000000 Y5.400000 E905.400000
G1 X0.000000 Y5.400000 E905.520000
G1 X0.000000 Y5.520000 E925.520000
G1 X20.000000 Y5.520000 E925.640000
G1 X20.000000 Y5.640000 E945.640000
G1 X0.000000 Y5.640000 E945.760000
G1 X0.000000 Y5.760000 E965.760000
G1 X20.000000 Y5.760000 E965.880000
G1 X20.000000 Y5.880000 E985.880000
G1 X0.000000 Y5.880000 E986.000000
G1 X0.000000 Y6.000000 E1006.000000
G1 X20.000000 Y6.000000 E1006.120000
G1 X20.000000 Y6.120000 E1026.120000
G1 X0.000000 Y6.120000 E1026.240000
G1 X0.000000 Y6.240000 E1046.240000
G1 X20.000000 Y6.240000 E1046.360000
G1 X20.000000 Y6.360000 E1066.360000
G1 X0.000000 Y6.360000 E1066.480000
G1 X0.000000 Y6.480000 E1086.480000
G1 X20.000000 Y6.480000 E1086.600000
G1 X20.000000 Y6.600000 E1106.600000
G1 X0.000000 Y6.600000 E1106.720000
G1 X0.000000 Y6.720000 E1126.720000
G1 X20.000000 Y6.720000 E1126.840000
G1 X20.000000 Y6.840000 E1146.840000
G1 X0.000000 Y6.840000 E1146.960000
G1 X0.000000 Y6.960000 E1166.960000
G1 X20.000000 Y6.960000 E1167.080000
G1 X20.000000 Y7.080000 E1187.080000
G1 X0.000000 Y7.080000 E1187.200000
G1 X0.000000 Y7.200000 E1207.200000
G1 X20.000000 Y7.200000 E1207.320000
G1 X20.000000 Y7.320000 E1227.320000
G1 X0.000000 Y7.320000 E1227.440000
G1 X0.000000 Y7.440000 E1247.440000
G1 X20.000000 Y7.440000 E1247.560000
G1 X20.000000 Y7.560000 E1267.560000
G1 X0.000000 Y7.560000 E1267.680000
G1 X0.000000 Y7.680000 E1287.680000
G1 X20.000000 Y7.680000 E1287.800000
G1 X20.000000 Y7.800000 E1307.800000
G1 X0.000000 Y7.800000 E1307.920000
G1 X0.000000 Y7.920000 E1327.920000
G1 X20.000000 Y7.920000 E1328.040000
G1 X20.000000 Y8.040000 E1348.040000
G1 X0.000000 Y8.040000 E1348.160000
G1 X0.000000 Y8.160000 E1368.160000
G1 X20.000000 Y8.160000 E1368.280000
G1 X20.000000 Y8.280000 E1388.280000
G1 X0.000000 Y8.280000 E1388.400000
G1 X0.000000 Y8.400000 E1408.400000
G1 X20.000000 Y8.400000 E1408.520000
G1 X20.000000 Y8.520000 E1428.520000
G1 X0.000000 Y8.520000 E1428.640000
G1 X0.000000 Y8.640000 E1448.640000
G1 X20.000000 Y8.640000 E1448.760000
G1 X20.000000 Y8.760000 E1468.760000
G1 X0.000000 Y8.760000 E1468.880000
G1 X0.000000 Y8.880000 E1488.880000
G1 X20.000000 Y8.880000 E1489.000000
G1 X20.000000 Y9.000000 E1509.000000
G1 X0.000000 Y9.000000 E1509.120000
G1 X0.000000 Y9.120000 E1529.120000
G1 X20.000000 Y9.120000 E1529.240000
G1 X20.000000 Y9.240000 E1549.240000
G1 X0.000000 Y9.240000 E1549.360000
G1 X0.000000 Y9.360000 E1569.360000
G1 X20.000000 Y9.360000 E1569.480000
G1 X20.000000 Y9.480000 E1589.480000
G1 X0.000000 Y9.480000 E1589.600000
G1 X0.000000 Y9.600000 E1609.600000
G1 X20.000000 Y9.600000 E1609.720000
G1 X20.000000 Y9.720000 E1629.720000
G1 X0.000000 Y9.720000 E1629.840000
G1 X0.000000 Y9.840000 E1649.840000
G1 X20.000000 Y9.840000 E1649.960000
G1 X20.000000 Y9.960000 E1669.960000
G1 X0.000000 Y9.960000 E1670.080000
G1 X0.000000 Y10.080000 E1690.080000
G1 X20.000000 Y10.080000 E1690.200000
G1 X20.000000 Y10.200000 E1710.200000
G1 X0.000000 Y10.200000 E1710.320000
G1 X0.000000 Y10.320000 E1730.320000
G1 X20.000000 Y10.320000 E1730.440000
G1 X20.000000 Y10.440000 E1750.440000
G1 X0.000000 Y10.440000 E1750.560000
G1 X0.000000 Y10.560000 E1770.560000
G1 X20.000000 Y10.560000 E1770.680000
G1 X20.000000 Y10.680000 E1790.680000
G1 X0.000000 Y10.680000 E1790.800000
G1 X0.000000 Y10.800000 E1810.800000
G1 X20.000000 Y10.800000 E1810.920000
G1 X20.000000 Y10.920000 E1830.920000
G1 X0.000000 Y10.920000 E1831.040000
G1 X0.000000 Y11.040000 E1851.040000
G1 X20.000000 Y11.040000 E1851.160000
G1 X20.000000 Y11.160000 E1871.160000
G1 X0.000000 Y11.160000 E1871.280000
G1 X0.000000 Y11.280000 E1891.280000
G1 X20.000000 Y11.280000 E1891.400000
G1 X20.000000 Y11.400000 E1911.400000
G1 X0.000000 Y11.400000 E1911.520000
G1 X0.000000 Y11.520000 E1931.520000
G1 X20.000000 Y11.520000 E1931.640000
G1 X20.000000 Y11.640000 E1951.640000
G1 X0.000000 Y11.640000 E1951.760000
G1 X0.000000 Y11.760000 E1971.760000
G1 X20.000000 Y11.760000 E1971.880000
G1 X20.000000 Y11.880000 E1991.880000
G1 X0.000000 Y11.880000 E1992.000000
G1 X0.000000 Y12.000000 E2012.000000
G1 X20.000000 Y12.000000 E2012.120000
G1 X20.000000 Y12.120000 E2032.120000
G1 X0.000000 Y12.120000 E2032.240000
G1 X0.000000 Y12.240000 E2052.240000
G1 X20.000000 Y12.240000 E2052.360000
G1 X20.000000 Y12.360000 E2072.360000
G1 X0.000000 Y12.360000 E2072.480000
G1 X0.000000 Y12.480000 E2092.480000
G1 X20.000000 Y12.480000 E2092.600000
G1 X20.000000 Y12.600000 E2112.600000
G1 X0.000000 Y12.600000 E2112.720000
G1 X0.000000 Y12.720000 E2132.720000
G1 X20.000000 Y12.720000 E2132.840000
G1 X20.000000 Y12.840000 E2152.840000
G1 X0.000000 Y12.840000 E2152.960000
G1 X0.000000 Y12.960000 E2172.960000
G1 X20.000000 Y12.960000 E2173.080000
G1 X20.000000 Y13.080000 E2193.080000
G1 X0.000000 Y13.080000 E2193.200000
G1 X0.000000 Y13.200000 E2213.200000
G1 X20.000000 Y13.200000 E2213.320000
G1 X20.000000 Y13.320000 E2233.320000
G1 X0.000000 Y13.320000 E2233.440000
G1 X0.000000 Y13.440000 E2253.440000
G1 X20.000000 Y13.440000 E2253.560000
G1 X20.000000 Y13.560000 E2273.560000
G1 X0.000000 Y13.560000 E2273.680000
G1 X0.000000 Y13.680000 E2293.680000
G1 X20.000000 Y13.680000 E2293.800000
G1 X20.000000 Y13.800000 E2313.800000
G1 X0.000000 Y13.800000 E2313.920000
G1 X0.000000 Y13.920000 E2333.920000
G1 X20.000000 Y13.920000 E2334.040000
G1 X20.000000 Y14.040000 E2354.040000
G1 X0.000000 Y14.040000 E2354.160000
G1 X0.000000 Y14.160000 E2374.160000
G1 X20.000000 Y14.160000 E2374.280000
G1 X20.000000 Y14.280000 E2394.280000
G1 X0.000000 Y14.280000 E2394.400000
G1 X0.000000 Y14.400000 E2414.400000
G1 X20.000000 Y14.400000 E2414.520000
G1 X20.000000 Y14.520000 E2434.520000
G1 X0.000000 Y14.520000 E2434.640000
G1 X0.000000 Y14.640000 E2454.640000
G1 X20.000000 Y14.640000 E2454.760000
G1 X20.000000 Y14.760000 E2474.760000
G1 X0.000000 Y14.760000 E2474.880000
G1 X0.000000 Y14.880000 E2494.880000
G1 X20.000000 Y14.880000 E2495.000000
G1 X20.000000 Y15.000000 E2515.000000
G1 X0.000000 Y15.000000 E2515.120000
G1 X0.000000 Y15.120000 E2535.120000
G1 X20.000000 Y15.120000 E2535.240000
G1 X20.000000 Y15.240000 E2555.240000
G1 X0.000000 Y15.240000 E2555.360000
G1 X0.000000 Y15.360000 E2575.360000
G1 X20.000000 Y15.360000 E2575.480000
G1 X20.000000 Y15.480000 E2595.480000
G1 X0.000000 Y15.480000 E2595.600000
G1 X0.000000 Y15.600000 E2615.600000
G1 X20.000000 Y15.600000 E2615.720000
G1 X20.000000 Y15.720000 E2635.720000
G1 X0.000000 Y15.720000 E2635.840000
G1 X0.000000 Y15.840000 E2655.840000
G1 X20.000000 Y15.840000 E2655.960000
G1 X20.000000 Y15.960000 E2675.960000
G1 X0.000000 Y15.960000 E2676.080000
G1 X0.000000 Y16.080000 E2696.080000
G1 X20.000000 Y16.080000 E2696.200000
G1 X20.000000 Y16.200000 E2716.200000
G1 X0.000000 Y16.200000 E2716.320000
G1 X0.000000 Y16.320000 E2736.320000
G1 X20.000000 Y16.320000 E2736.440000
G1 X20.000000 Y16.440000 E2756.440000
G1 X0.000000 Y16.440000 E2756.560000
G1 X0.000000 Y16.560000 E2776.560000
G1 X20.000000 Y16.560000 E2776.680000
G1 X20.000000 Y16.680000 E2796.680000
G1 X0.000000 Y16.680000 E2796.800000
G1 X0.000000 Y16.800000 E2816.800000
G1 X20.000000 Y16.800000 E2816.920000
G1 X20.000000 Y16.920000 E2836.920000
G1 X0.000000 Y16.920000 E2837.040000
G1 X0.000000 Y17.040000 E2857.040000
G1 X20.000000 Y17.040000 E2857.160000
G1 X20.000000 Y17.160000 E2877.160000
G1 X0.000000 Y17.160000 E2877.280000
G1 X0.000000 Y17.280000 E2897.280000
G1 X20.000000 Y17.280000 E2897.400000
G1 X20.000000 Y17.400000 E2917.400000
G1 X0.000000 Y17.400000 E2917.520000
G1 X0.000000 Y17.520000 E2937.520000
G1 X20.000000 Y17.520000 E2937.640000
G1 X20.000000 Y17.640000 E2957.640000
G1 X0.000000 Y17.640000 E2957.760000
G1 X0.000000 Y17.760000 E2977.760000
G1 X20.000000 Y17.760000 E2977.880000
G1 X20.000000 Y17.880000 E2997.880000
G1 X0.000000 Y17.880000 E2998.000000
G1 X0.000000 Y18.000000 E3018.000000
G1 X20.000000 Y18.000000 E3018.120000
G1 X20.000000 Y18.120000 E3038.120000
G1 X0.000000 Y18.120000 E3038.240000
G1 X0.000000 Y18.240000 E3058.240000
G1 X20.000000 Y18.240000 E3058.360000
G1 X20.000000 Y18.360000 E3078.360000
G1 X0.000000 Y18.360000 E3078.480000
G1 X0.000000 Y18.480000 E3098.480000
G1 X20.000000 Y18.480000 E3098.600000
G1 X20.000000 Y18.600000 E3118.600000
G1 X0.000000 Y18.600000 E3118.720000
G1 X0.000000 Y18.720000 E3138.720000
G1 X20.000000 Y18.720000 E3138.840000
G1 X20.000000 Y18.840000 E3158.840000
G1 X0.000000 Y18.840000 E3158.960000
G1 X0.000000 Y18.960000 E3178.960000
G1 X20.000000 Y18.960000 E3179.080000
G1 X20.000000 Y19.080000 E3199.080000
G1 X0.000000 Y19.080000 E3199.200000
G1 X0.000000 Y19.200000 E3219.200000
G1 X20.000000 Y19.200000 E3219.320000
G1 X20.000000 Y19.320000 E3239.320000
G1 X0.000000 Y19.320000 E3239.440000
G1 X0.000000 Y19.440000 E3259.440000
G1 X20.000000 Y19.440000 E3259.560000
G1 X20.000000 Y19.560000 E3279.560000
G1 X0.000000 Y19.560000 E3279.680000
G1 X0.000000 Y19.680000 E3299.680000
G1 X20.000000 Y19.680000 E3299.800000
G1 X20.000000 Y19.800000 E3319.800000
G1 X0.000000 Y19.800000 E3319.920000
G1 X0.000000 Y19.920000 E3339.920000
G1 X20.000000 Y19.920000 E3340.040000
G1 X19.920000 Y20.000000 E3360.040000
G1 X19.920000 Y0.000000 E3360.160000
G1 X19.800000 Y0.000000 E3380.160000
G1 X19.800000 Y20.000000 E3380.280000
G1 X19.680000 Y20.000000 E3400.280000
G1 X19.680000 Y0.000000 E3400.400000
G1 X19.560000 Y0.000000 E3420.400000
G1 X19.560000 Y20.000000 E3420.520000
G1 X19.440000 Y20.000000 E3440.520000
G1 X19.440000 Y0.000000 E3440.640000
G1 X19.320000 Y0.000000 E3460.640000
G1 X19.320000 Y20.000000 E3460.760000
G1 X19.200000 Y20.000000 E3480.760000
G1 X19.200000 Y0.000000 E3480.880000
G1 X19.080000 Y0.000000 E3500.880000
G1 X19.080000 Y20.000000 E3501.000000
G1 X18.960000 Y20.000000 E3521.000000
G1 X18.960000 Y0.000000 E3521.120000
G1 X18.840000 Y0.000000 E3541.120000
G1 X18.840000 Y20.000000 E3541.240000
G1 X18.720000 Y20.000000 E3561.240000
G1 X18.720000 Y0.000000 E3561.360000
G1 X18.600000 Y0.000000 E3581.360000
G1 X18.600000 Y20.000000 E3581.480000
G1 X18.480000 Y20.000000 E3601.480000
G1 X18.480000 Y0.000000 E3601.600000
G1 X18.360000 Y0.000000 E3621.600000
G1 X18.360000 Y20.000000 E3621.720000
G1 X18.240000 Y20.000000 E3641.720000
G1 X18.240000 Y0.000000 E3641.840000
G1 X18.120000 Y0.000000 E3661.840000
G1 X18.120000 Y20.000000 E3661.960000
G1 X18.000000 Y20.000000 E3681.960000
G1 X18.000000 Y0.000000 E3682.080000
G1 X17.880000 Y0.000000 E3702.080000
G1 X17.880000 Y20.000000 E3702.200000
G1 X17.760000 Y20.000000 E3722.200000
G1 X17.760000 Y0.000000 E3722.320000
G1 X17.640000 Y0.000000 E3742.320000
G1 X17.640000 Y20.000000 E3742.440000
G1 X17.520000 Y20.000000 E3762.440000
G1 X17.520000 Y0.000000 E3762.560000
G1 X17.400000 Y0.000000 E3782.560000
G1 X17.400000 Y20.000000 E3782.680000
G1 X17.280000 Y20.000000 E3802.680000
G1 X17.280000 Y0.000000 E3802.800000
G1 X17.160000 Y0.000000 E3822.800000
G1 X17.160000 Y20.000000 E3822.920000
G1 X17.040000 Y20.000000 E3842.920000
G1 X17.040000 Y0.000000 E3843.040000
G1 X16.920000 Y0.000000 E3863.040000
G1 X16.920000 Y20.000000 E3863.160000
G1 X16.800000 Y20.000000 E3883.160000
G1 X16.800000 Y0.000000 E3883.280000
G1 X16.680000 Y0.000000 E3903.280000
G1 X16.680000 Y20.000000 E3903.400000
G1 X16.560000 Y20.000000 E3923.400000
G1 X16.560000 Y0.000000 E3923.520000
G1 X16.440000 Y0.000000 E3943.520000
G1 X16.440000 Y20.000000 E3943.640000
G1 X16.320000 Y20.000000 E3963.640000
G1 X16.320000 Y0.000000 E3963.760000
G1 X16.200000 Y0.000000 E3983.760000
G1 X16.200000 Y20.000000 E3983.880000
G1 X16.080000 Y20.000000 E4003.880000
G1 X16.080000 Y0.000000 E4004.000000
G1 X15.960000 Y0.000000 E4024.000000
G1 X15.960000 Y20.000000 E4024.120000
G1 X15.840000 Y20.000000 E4044.120000
G1 X15.840000 Y0.000000 E4044.240000
G1 X15.720000 Y0.000000 E4064.240000
G1 X15.720000 Y20.000000 E4064.360000
G1 X15.600000 Y20.000000 E4084.360000
G1 X15.600000 Y0.000000 E4084.480000
G1 X15.480000 Y0.000000 E4104.480000
G1 X15.480000 Y20.000000 E4104.600000
G1 X15.360000 Y20.000000 E4124.600000
G1 X15.360000 Y0.000000 E4124.720000
G1 X15.240000 Y0.000000 E4144.720000
G1 X15.240000 Y20.000000 E4144.840000
G1 X15.120000 Y20.000000 E4164.840000
G1 X15.120000 Y0.000000 E4164.960000
G1 X15.000000 Y0.000000 E4184.960000
G1 X15.000000 Y20.000000 E4185.080000
G1 X14.880000 Y20.000000 E4205.080000
G1 X14.880000 Y0.000000 E4205.200000
G1 X14.760000 Y0.000000 E4225.200000
G1 X14.760000 Y20.000000 E4225.320000
G1 X14.640000 Y20.000000 E4245.320000
G1 X14.640000 Y0.000000 E4245.440000
G1 X14.520000 Y0.000000 E4265.440000
