;FLAVOR:Marlin
;TIME:52150
;Filament used: 1.04025m
;Layer height: 0.12
;MINX:2.699
;MINY:12.696
;MINZ:0.12
;MAXX:52.3
;MAXY:62.304
;MAXZ:2.04
;Generated with Cura_SteamEngine 5.3.1
M105
M109 S0
M82 ;absolute extrusion mode
; Ender 3 Custom Start G-code
G1 F2700 E-5
;LAYER:0
;TYPE:FILL
;MESH:film_square_1mm.STL
G1 F2700 E0
G1 X0.000000 Y0.000000 E0.000000
G1 X50.000000 Y0.000000 E0.000000
G1 X50.000000 Y0.120000 E50.000000
G1 X0.000000 Y0.120000 E50.000000
G1 X0.000000 Y0.240000 E100.000000
G1 X50.000000 Y0.240000 E100.000000
G1 X50.000000 Y0.360000 E150.000000
G1 X0.000000 Y0.360000 E150.000000
G1 X0.000000 Y0.480000 E200.000000
G1 X50.000000 Y0.480000 E200.000000
G1 X50.000000 Y0.600000 E250.000000
G1 X0.000000 Y0.600000 E250.000000
G1 X0.000000 Y0.720000 E300.000000
G1 X50.000000 Y0.720000 E300.000000
G1 X50.000000 Y0.840000 E350.000000
G1 X0.000000 Y0.840000 E350.000000
G1 X0.000000 Y0.960000 E400.000000
G1 X50.000000 Y0.960000 E400.000000
G1 X50.000000 Y1.080000 E450.000000
G1 X0.000000 Y1.080000 E450.000000
G1 X0.000000 Y1.200000 E500.000000
G1 X50.000000 Y1.200000 E500.000000
G1 X50.000000 Y1.320000 E550.000000
G1 X0.000000 Y1.320000 E550.000000
G1 X0.000000 Y1.440000 E600.000000
G1 X50.000000 Y1.440000 E600.000000
G1 X50.000000 Y1.560000 E650.000000
G1 X0.000000 Y1.560000 E650.000000
G1 X0.000000 Y1.680000 E700.000000
G1 X50.000000 Y1.680000 E700.000000
G1 X50.000000 Y1.800000 E750.000000
G1 X0.000000 Y1.800000 E750.000000
G1 X0.000000 Y1.920000 E800.000000
G1 X50.000000 Y1.920000 E800.000000
G1 X50.000000 Y2.040000 E850.000000
G1 X0.000000 Y2.040000 E850.000000
G1 X0.000000 Y2.160000 E900.000000
G1 X50.000000 Y2.160000 E900.000000
G1 X50.000000 Y2.280000 E950.000000
G1 X0.000000 Y2.280000 E950.000000
G1 X0.000000 Y2.400000 E1000.000000
G1 X50.000000 Y2.400000 E1000.000000
G1 X50.000000 Y2.520000 E1050.000000
G1 X0.000000 Y2.520000 E1050.000000
G1 X0.000000 Y2.640000 E1100.000000
G1 X50.000000 Y2.640000 E1100.000000
G1 X50.000000 Y2.760000 E1150.000000
G1 X0.000000 Y2.760000 E1150.000000
G1 X0.000000 Y2.880000 E1200.000000
G1 X50.000000 Y2.880000 E1200.000000
G1 X50.000000 Y3.000000 E1250.000000
G1 X0.000000 Y3.000000 E1250.000000
G1 X0.000000 Y3.120000 E1300.000000
G1 X50.000000 Y3.120000 E1300.000000
G1 X50.000000 Y3.240000 E1350.000000
G1 X0.000000 Y3.240000 E1350.000000
G1 X0.000000 Y3.360000 E1400.000000
G1 X50.000000 Y3.360000 E1400.000000
G1 X50.000000 Y3.480000 E1450.000000
G1 X0.000000 Y3.480000 E1450.000000
G1 X0.000000 Y3.600000 E1500.000000
G1 X50.000000 Y3.600000 E1500.000000
G1 X50.000000 Y3.720000 E1550.000000
G1 X0.000000 Y3.720000 E1550.000000
G1 X0.000000 Y3.840000 E1600.000000
G1 X50.000000 Y3.840000 E1600.000000
G1 X50.000000 Y3.960000 E1650.000000
G1 X0.000000 Y3.960000 E1650.000000
G1 X0.000000 Y4.080000 E1700.000000
G1 X50.000000 Y4.080000 E1700.000000
G1 X50.000000 Y4.200000 E1750.000000
G1 X0.000000 Y4.200000 E1750.000000
G1 X0.000000 Y4.320000 E1800.000000
G1 X50.000000 Y4.320000 E1800.000000
G1 X50.000000 Y4.440000 E1850.000000
G1 X0.000000 Y4.440000 E1850.000000
G1 X0.000000 Y4.560000 E1900.000000
G1 X50.000000 Y4.560000 E1900.000000
G1 X50.000000 Y4.680000 E1950.000000
G1 X0.000000 Y4.680000 E1950.000000
G1 X0.000000 Y4.800000 E2000.000000
G1 X50.000000 Y4.800000 E2000.000000
G1 X50.000000 Y4.920000 E2050.000000
G1 X0.000000 Y4.920000 E2050.000000
G1 X0.000000 Y5.040000 E2100.000000
G1 X50.000000 Y5.040000 E2100.000000
G1 X50.000000 Y5.160000 E2150.000000
G1 X0.000000 Y5.160000 E2150.000000
G1 X0.000000 Y5.280000 E2200.000000
G1 X50.000000 Y5.280000 E2200.000000
G1 X50.000000 Y5.400000 E2250.000000
G1 X0.000000 Y5.400000 E2250.000000
G1 X0.000000 Y5.520000 E2300.000000
G1 X50.000000 Y5.520000 E2300.000000
G1 X50.000000 Y5.640000 E2350.000000
G1 X0.000000 Y5.640000 E2350.000000
G1 X0.000000 Y5.760000 E2400.000000
G1 X50.000000 Y5.760000 E2400.000000
G1 X50.000000 Y5.880000 E2450.000000
G1 X0.000000 Y5.880000 E2450.000000
G1 X0.000000 Y6.000000 E2500.000000
G1 X50.000000 Y6.000000 E2500.000000
G1 X50.000000 Y6.120000 E2550.000000
G1 X0.000000 Y6.120000 E2550.000000
G1 X0.000000 Y6.240000 E2600.000000
G1 X50.000000 Y6.240000 E2600.000000
G1 X50.000000 Y6.360000 E2650.000000
G1 X0.000000 Y6.360000 E2650.000000
G1 X0.000000 Y6.480000 E2700.000000
G1 X50.000000 Y6.480000 E2700.000000
G1 X50.000000 Y6.600000 E2750.000000
G1 X0.000000 Y6.600000 E2750.000000
G1 X0.000000 Y6.720000 E2800.000000
G1 X50.000000 Y6.720000 E2800.000000
G1 X50.000000 Y6.840000 E2850.000000
G1 X0.000000 Y6.840000 E2850.000000
G1 X0.000000 Y6.960000 E2900.000000
G1 X50.000000 Y6.960000 E2900.000000
G1 X50.000000 Y7.080000 E2950.000000
G1 X0.000000 Y7.080000 E2950.000000
G1 X0.000000 Y7.200000 E3000.000000
G1 X50.000000 Y7.200000 E3000.000000
G1 X50.000000 Y7.320000 E3050.000000
G1 X0.000000 Y7.320000 E3050.000000
G1 X0.000000 Y7.440000 E3100.000000
G1 X50.000000 Y7.440000 E3100.000000
G1 X50.000000 Y7.560000 E3150.000000
G1 X0.000000 Y7.560000 E3150.000000
G1 X0.000000 Y7.680000 E3200.000000
G1 X50.000000 Y7.680000 E3200.000000
G1 X50.000000 Y7.800000 E3250.000000
G1 X0.000000 Y7.800000 E3250.000000
G1 X0.000000 Y7.920000 E3300.000000
G1 X50.000000 Y7.920000 E3300.000000
G1 X50.000000 Y8.040000 E3350.000000
G1 X0.000000 Y8.040000 E3350.000000
G1 X0.000000 Y8.160000 E3400.000000
G1 X50.000000 Y8.160000 E3400.000000
G1 X50.000000 Y8.280000 E3450.000000
G1 X0.000000 Y8.280000 E3450.000000
G1 X0.000000 Y8.400000 E3500.000000
G1 X50.000000 Y8.400000 E3500.000000
G1 X50.000000 Y8.520000 E3550.000000
G1 X0.000000 Y8.520000 E3550.000000
G1 X0.000000 Y8.640000 E3600.000000
G1 X50.000000 Y8.640000 E3600.000000
G1 X50.000000 Y8.760000 E3650.000000
G1 X0.000000 Y8.760000 E3650.000000
G1 X0.000000 Y8.880000 E3700.000000
G1 X50.000000 Y8.880000 E3700.000000
G1 X50.000000 Y9.000000 E3750.000000
G1 X0.000000 Y9.000000 E3750.000000
G1 X0.000000 Y9.120000 E3800.000000
G1 X50.000000 Y9.120000 E3800.000000
G1 X50.000000 Y9.240000 E3850.000000
G1 X0.000000 Y9.240000 E3850.000000
G1 X0.000000 Y9.360000 E3900.000000
G1 X50.000000 Y9.360000 E3900.000000
G1 X50.000000 Y9.480000 E3950.000000
G1 X0.000000 Y9.480000 E3950.000000
G1 X0.000000 Y9.600000 E4000.000000
G1 X50.000000 Y9.600000 E4000.000000
G1 X50.000000 Y9.720000 E4050.000000
G1 X0.000000 Y9.720000 E4050.000000
G1 X0.000000 Y9.840000 E4100.000000
G1 X50.000000 Y9.840000 E4100.000000
G1 X50.000000 Y9.960000 E4150.000000
G1 X0.000000 Y9.960000 E4150.000000
G1 X0.000000 Y10.080000 E4200.000000
G1 X50.000000 Y10.080000 E4200.000000
G1 X50.000000 Y10.200000 E4250.000000
G1 X0.000000 Y10.200000 E4250.000000
G1 X0.000000 Y10.320000 E4300.000000
G1 X50.000000 Y10.320000 E4300.000000
G1 X50.000000 Y10.440000 E4350.000000
G1 X0.000000 Y10.440000 E4350.000000
G1 X0.000000 Y10.560000 E4400.000000
G1 X50.000000 Y10.560000 E4400.000000
G1 X50.000000 Y10.680000 E4450.000000
G1 X0.000000 Y10.680000 E4450.000000
G1 X0.000000 Y10.800000 E4500.000000
G1 X50.000000 Y10.800000 E4500.000000
G1 X50.000000 Y10.920000 E4550.000000
G1 X0.000000 Y10.920000 E4550.000000
G1 X0.000000 Y11.040000 E4600.000000
G1 X50.000000 Y11.040000 E4600.000000
G1 X50.000000 Y11.160000 E4650.000000
G1 X0.000000 Y11.160000 E4650.000000
G1 X0.000000 Y11.280000 E4700.000000
G1 X50.000000 Y11.280000 E4700.000000
G1 X50.000000 Y11.400000 E4750.000000
G1 X0.000000 Y11.400000 E4750.000000
G1 X0.000000 Y11.520000 E4800.000000
G1 X50.000000 Y11.520000 E4800.000000
G1 X50.000000 Y11.640000 E4850.000000
G1 X0.000000 Y11.640000 E4850.000000
G1 X0.000000 Y11.760000 E4900.000000
G1 X50.000000 Y11.760000 E4900.000000
G1 X50.000000 Y11.880000 E4950.000000
G1 X0.000000 Y11.880000 E4950.000000
G1 X0.000000 Y12.000000 E5000.000000
G1 X50.000000 Y12.000000 E5000.000000
G1 X50.000000 Y12.120000 E5050.000000
G1 X0.000000 Y12.120000 E5050.000000
G1 X0.000000 Y12.240000 E5100.000000
G1 X50.000000 Y12.240000 E5100.000000
G1 X50.000000 Y12.360000 E5150.000000
G1 X0.000000 Y12.360000 E5150.000000
G1 X0.000000 Y12.480000 E5200.000000
G1 X50.000000 Y12.480000 E5200.000000
G1 X50.000000 Y12.600000 E5250.000000
G1 X0.000000 Y12.600000 E5250.000000
G1 X0.000000 Y12.720000 E5300.000000
G1 X50.000000 Y12.720000 E5300.000000
G1 X50.000000 Y12.840000 E5350.000000
G1 X0.000000 Y12.840000 E5350.000000
G1 X0.000000 Y12.960000 E5400.000000
G1 X50.000000 Y12.960000 E5400.000000
G1 X50.000000 Y13.080000 E5450.000000
G1 X0.000000 Y13.080000 E5450.000000
G1 X0.000000 Y13.200000 E5500.000000
G1 X50.000000 Y13.200000 E5500.000000
G1 X50.000000 Y13.320000 E5550.000000
G1 X0.000000 Y13.320000 E5550.000000
G1 X0.000000 Y13.440000 E5600.000000
G1 X50.000000 Y13.440000 E5600.000000
G1 X50.000000 Y13.560000 E5650.000000
G1 X0.000000 Y13.560000 E5650.000000
G1 X0.000000 Y13.680000 E5700.000000
G1 X50.000000 Y13.680000 E5700.000000
G1 X50.000000 Y13.800000 E5750.000000
G1 X0.000000 Y13.800000 E5750.000000
G1 X0.000000 Y13.920000 E5800.000000
G1 X50.000000 Y13.920000 E5800.000000
G1 X50.000000 Y14.040000 E5850.000000
G1 X0.000000 Y14.040000 E5850.000000
G1 X0.000000 Y14.160000 E5900.000000
G1 X50.000000 Y14.160000 E5900.000000
G1 X50.000000 Y14.280000 E5950.000000
G1 X0.000000 Y14.280000 E5950.000000
G1 X0.000000 Y14.400000 E6000.000000
G1 X50.000000 Y14.400000 E6000.000000
G1 X50.000000 Y14.520000 E6050.000000
G1 X0.000000 Y14.520000 E6050.000000
G1 X0.000000 Y14.640000 E6100.000000
G1 X50.000000 Y14.640000 E6100.000000
G1 X50.000000 Y14.760000 E6150.000000
G1 X0.000000 Y14.760000 E6150.000000
G1 X0.000000 Y14.880000 E6200.000000
G1 X50.000000 Y14.880000 E6200.000000
G1 X50.000000 Y15.000000 E6250.000000
G1 X0.000000 Y15.000000 E6250.000000
G1 X0.000000 Y15.120000 E6300.000000
G1 X50.000000 Y15.120000 E6300.000000
G1 X50.000000 Y15.240000 E6350.000000
G1 X0.000000 Y15.240000 E6350.000000
G1 X0.000000 Y15.360000 E6400.000000
G1 X50.000000 Y15.360000 E6400.000000
G1 X50.000000 Y15.480000 E6450.000000
G1 X0.000000 Y15.480000 E6450.000000
G1 X0.000000 Y15.600000 E6500.000000
G1 X50.000000 Y15.600000 E6500.000000
G1 X50.000000 Y15.720000 E6550.000000
G1 X0.000000 Y15.720000 E6550.000000
G1 X0.000000 Y15.840000 E6600.000000
G1 X50.000000 Y15.840000 E6600.000000
G1 X50.000000 Y15.960000 E6650.000000
G1 X0.000000 Y15.960000 E6650.000000
G1 X0.000000 Y16.080000 E6700.000000
G1 X50.000000 Y16.080000 E6700.000000
G1 X50.000000 Y16.200000 E6750.000000
G1 X0.000000 Y16.200000 E6750.000000
G1 X0.000000 Y16.320000 E6800.000000
G1 X50.000000 Y16.320000 E6800.000000
G1 X50.000000 Y16.440000 E6850.000000
G1 X0.000000 Y16.440000 E6850.000000
G1 X0.000000 Y16.560000 E6900.000000
G1 X50.000000 Y16.560000 E6900.000000
G1 X50.000000 Y16.680000 E6950.000000
G1 X0.000000 Y16.680000 E6950.000000
G1 X0.000000 Y16.800000 E7000.000000
G1 X50.000000 Y16.800000 E7000.000000
G1 X50.000000 Y16.920000 E7050.000000
G1 X0.000000 Y16.920000 E7050.000000
G1 X0.000000 Y17.040000 E7100.000000
G1 X50.000000 Y17.040000 E7100.000000
G1 X50.000000 Y17.160000 E7150.000000
G1 X0.000000 Y17.160000 E7150.000000
G1 X0.000000 Y17.280000 E7200.000000
G1 X50.000000 Y17.280000 E7200.000000
G1 X50.000000 Y17.400000 E7250.000000
G1 X0.000000 Y17.400000 E7250.000000
G1 X0.000000 Y17.520000 E7300.000000
G1 X50.000000 Y17.520000 E7300.000000
G1 X50.000000 Y17.640000 E7350.000000
G1 X0.000000 Y17.640000 E7350.000000
G1 X0.000000 Y17.760000 E7400.000000
G1 X50.000000 Y17.760000 E7400.000000
G1 X50.000000 Y17.880000 E7450.000000
G1 X0.000000 Y17.880000 E7450.000000
G1 X0.000000 Y18.000000 E7500.000000
G1 X50.000000 Y18.000000 E7500.000000
G1 X50.000000 Y18.120000 E7550.000000
G1 X0.000000 Y18.120000 E7550.000000
G1 X0.000000 Y18.240000 E7600.000000
G1 X50.000000 Y18.240000 E7600.000000
G1 X50.000000 Y18.360000 E7650.000000
G1 X0.000000 Y18.360000 E7650.000000
G1 X0.000000 Y18.480000 E7700.000000
G1 X50.000000 Y18.480000 E7700.000000
G1 X50.000000 Y18.600000 E7750.000000
G1 X0.000000 Y18.600000 E7750.000000
G1 X0.000000 Y18.720000 E7800.000000
G1 X50.000000 Y18.720000 E7800.000000
G1 X50.000000 Y18.840000 E7850.000000
G1 X0.000000 Y18.840000 E7850.000000
G1 X0.000000 Y18.960000 E7900.000000
G1 X50.000000 Y18.960000 E7900.000000
G1 X50.000000 Y19.080000 E7950.000000
G1 X0.000000 Y19.080000 E7950.000000
G1 X0.000000 Y19.200000 E8000.000000
G1 X50.000000 Y19.200000 E8000.000000
G1 X50.000000 Y19.320000 E8050.000000
G1 X0.000000 Y19.320000 E8050.000000
G1 X0.000000 Y19.440000 E8100.000000
G1 X50.000000 Y19.440000 E8100.000000
G1 X50.000000 Y19.560000 E8150.000000
G1 X0.000000 Y19.560000 E8150.000000
G1 X0.000000 Y19.680000 E8200.000000
G1 X50.000000 Y19.680000 E8200.000000
G1 X50.000000 Y19.800000 E8250.000000
G1 X0.000000 Y19.800000 E8250.000000
G1 X0.000000 Y19.920000 E8300.000000
G1 X50.000000 Y19.920000 E8300.000000
G1 X50.000000 Y20.040000 E8350.000000
G1 X0.000000 Y20.040000 E8350.000000
G1 X0.000000 Y20.160000 E8400.000000
G1 X50.000000 Y20.160000 E8400.000000
G1 X50.000000 Y20.280000 E8450.000000
G1 X0.000000 Y20.280000 E8450.000000
G1 X0.000000 Y20.400000 E8500.000000
G1 X50.000000 Y20.400000 E8500.000000
G1 X50.000000 Y20.520000 E8550.000000
G1 X0.000000 Y20.520000 E8550.000000
G1 X0.000000 Y20.640000 E8600.000000
G1 X50.000000 Y20.640000 E8600.000000
G1 X50.000000 Y20.760000 E8650.000000
G1 X0.000000 Y20.760000 E8650.000000
G1 X0.000000 Y20.880000 E8700.000000
G1 X50.000000 Y20.880000 E8700.000000
G1 X50.000000 Y21.000000 E8750.000000
G1 X0.000000 Y21.000000 E8750.000000
G1 X0.000000 Y21.120000 E8800.000000
G1 X50.000000 Y21.120000 E8800.000000
G1 X50.000000 Y21.240000 E8850.000000
G1 X0.000000 Y21.240000 E8850.000000
G1 X0.000000 Y21.360000 E8900.000000
G1 X50.000000 Y21.360000 E8900.000000
G1 X50.000000 Y21.480000 E8950.000000
G1 X0.000000 Y21.480000 E8950.000000
G1 X0.000000 Y21.600000 E9000.000000
G1 X50.000000 Y21.600000 E9000.000000
G1 X50.000000 Y21.720000 E9050.000000
G1 X0.000000 Y21.720000 E9050.000000
G1 X0.000000 Y21.840000 E9100.000000
G1 X50.000000 Y21.840000 E9100.000000
G1 X50.000000 Y21.960000 E9150.000000
G1 X0.000000 Y21.960000 E9150.000000
G1 X0.000000 Y22.080000 E9200.000000
G1 X50.000000 Y22.080000 E9200.000000
G1 X50.000000 Y22.200000 E9250.000000
G1 X0.000000 Y22.200000 E9250.000000
G1 X0.000000 Y22.320000 E9300.000000
G1 X50.000000 Y22.320000 E9300.000000
G1 X50.000000 Y22.440000 E9350.000000
G1 X0.000000 Y22.440000 E9350.000000
G1 X0.000000 Y22.560000 E9400.000000
G1 X50.000000 Y22.560000 E9400.000000
G1 X50.000000 Y22.680000 E9450.000000
G1 X0.000000 Y22.680000 E9450.000000
G1 X0.000000 Y22.800000 E9500.000000
G1 X50.000000 Y22.800000 E9500.000000
G1 X50.000000 Y22.920000 E9550.000000
G1 X0.000000 Y22.920000 E9550.000000
G1 X0.000000 Y23.040000 E9600.000000
G1 X50.000000 Y23.040000 E9600.000000
G1 X50.000000 Y23.160000 E9650.000000
G1 X0.000000 Y23.160000 E9650.000000
G1 X0.000000 Y23.280000 E9700.000000
G1 X50.000000 Y23.280000 E9700.000000
G1 X50.000000 Y23.400000 E9750.000000
G1 X0.000000 Y23.400000 E9750.000000
G1 X0.000000 Y23.520000 E9800.000000
G1 X50.000000 Y23.520000 E9800.000000
G1 X50.000000 Y23.640000 E9850.000000
G1 X0.000000 Y23.640000 E9850.000000
G1 X0.000000 Y23.760000 E9900.000000
G1 X50.000000 Y23.760000 E9900.000000
G1 X50.000000 Y23.880000 E9950.000000
G1 X0.000000 Y23.880000 E9950.000000
G1 X0.000000 Y24.000000 E10000.000000
G1 X50.000000 Y24.000000 E10000.000000
G1 X50.000000 Y24.120000 E10050.000000
G1 X0.000000 Y24.120000 E10050.000000
G1 X0.000000 Y24.240000 E10100.000000
G1 X50.000000 Y24.240000 E10100.000000
G1 X50.000000 Y24.360000 E10150.000000
G1 X0.000000 Y24.360000 E10150.000000
G1 X0.000000 Y24.480000 E10200.000000
G1 X50.000000 Y24.480000 E10200.000000
G1 X50.000000 Y24.600000 E10250.000000
G1 X0.000000 Y24.600000 E10250.000000
G1 X0.000000 Y24.720000 E10300.000000
G1 X50.000000 Y24.720000 E10300.000000
G1 X50.000000 Y24.840000 E10350.000000
G1 X0.000000 Y24.840000 E10350.000000
G1 X0.000000 Y24.960000 E10400.000000
G1 X50.000000 Y24.960000 E10400.000000
G1 X50.000000 Y25.080000 E10450.000000
G1 X0.000000 Y25.080000 E10450.000000
G1 X0.000000 Y25.200000 E10500.000000
G1 X50.000000 Y25.200000 E10500.000000
G1 X50.000000 Y25.320000 E10550.000000
G1 X0.000000 Y25.320000 E10550.000000
G1 X0.000000 Y25.440000 E10600.000000
G1 X50.000000 Y25.440000 E10600.000000
G1 X50.000000 Y25.560000 E10650.000000
G1 X0.000000 Y25.560000 E10650.000000
G1 X0.000000 Y25.680000 E10700.000000
G1 X50.000000 Y25.680000 E10700.000000
G1 X50.000000 Y25.800000 E10750.000000
G1 X0.000000 Y25.800000 E10750.000000
G1 X0.000000 Y25.920000 E10800.000000
G1 X50.000000 Y25.920000 E10800.000000
G1 X50.000000 Y26.040000 E10850.000000
G1 X0.000000 Y26.040000 E10850.000000
G1 X0.000000 Y26.160000 E10900.000000
G1 X50.000000 Y26.160000 E10900.000000
G1 X50.000000 Y26.280000 E10950.000000
G1 X0.000000 Y26.280000 E10950.000000
G1 X0.000000 Y26.400000 E11000.000000
G1 X50.000000 Y26.400000 E11000.000000
G1 X50.000000 Y26.520000 E11050.000000
G1 X0.000000 Y26.520000 E11050.000000
G1 X0.000000 Y26.640000 E11100.000000
G1 X50.000000 Y26.640000 E11100.000000
G1 X50.000000 Y26.760000 E11150.000000
G1 X0.000000 Y26.760000 E11150.000000
G1 X0.000000 Y26.880000 E11200.000000
G1 X50.000000 Y26.880000 E11200.000000
G1 X50.000000 Y27.000000 E11250.000000
G1 X0.000000 Y27.000000 E11250.000000
G1 X0.000000 Y27.120000 E11300.000000
G1 X50.000000 Y27.120000 E11300.000000
G1 X50.000000 Y27.240000 E11350.000000
G1 X0.000000 Y27.240000 E11350.000000
G1 X0.000000 Y27.360000 E11400.000000
G1 X50.000000 Y27.360000 E11400.000000
G1 X50.000000 Y27.480000 E11450.000000
G1 X0.000000 Y27.480000 E11450.000000
G1 X0.000000 Y27.600000 E11500.000000
G1 X50.000000 Y27.600000 E11500.000000
G1 X50.000000 Y27.720000 E11550.000000
G1 X0.000000 Y27.720000 E11550.000000
G1 X0.000000 Y27.840000 E11600.000000
G1 X50.000000 Y27.840000 E11600.000000
G1 X50.000000 Y27.960000 E11650.000000
G1 X0.000000 Y27.960000 E11650.000000
G1 X0.000000 Y28.080000 E11700.000000
G1 X50.000000 Y28.080000 E11700.000000
G1 X50.000000 Y28.200000 E11750.000000
G1 X0.000000 Y28.200000 E11750.000000
G1 X0.000000 Y28.320000 E11800.000000
G1 X50.000000 Y28.320000 E11800.000000
G1 X50.000000 Y28.440000 E11850.000000
G1 X0.000000 Y28.440000 E11850.000000
G1 X0.000000 Y28.560000 E11900.000000
G1 X50.000000 Y28.560000 E11900.000000
G1 X50.000000 Y28.680000 E11950.000000
G1 X0.000000 Y28.680000 E11950.000000
G1 X0.000000 Y28.800000 E12000.000000
G1 X50.000000 Y28.800000 E12000.000000
G1 X50.000000 Y28.920000 E12050.000000
G1 X0.000000 Y28.920000 E12050.000000
G1 X0.000000 Y29.040000 E12100.000000
G1 X50.000000 Y29.040000 E12100.000000
G1 X50.000000 Y29.160000 E12150.000000
G1 X0.000000 Y29.160000 E12150.000000
G1 X0.000000 Y29.280000 E12200.000000
G1 X50.000000 Y29.280000 E12200.000000
G1 X50.000000 Y29.400000 E12250.000000
G1 X0.000000 Y29.400000 E12250.000000
G1 X0.000000 Y29.520000 E12300.000000
G1 X50.000000 Y29.520000 E12300.000000
G1 X50.000000 Y29.640000 E12350.000000
G1 X0.000000 Y29.640000 E12350.000000
G1 X0.000000 Y29.760000 E12400.000000
G1 X50.000000 Y29.760000 E12400.000000
G1 X50.000000 Y29.880000 E12450.000000
G1 X0.000000 Y29.880000 E12450.000000
G1 X0.000000 Y30.000000 E12500.000000
G1 X50.000000 Y30.000000 E12500.000000
G1 X50.000000 Y30.120000 E12550.000000
G1 X0.000000 Y30.120000 E12550.000000
G1 X0.000000 Y30.240000 E12600.000000
G1 X50.000000 Y30.240000 E12600.000000
G1 X50.000000 Y30.360000 E12650.000000
G1 X0.000000 Y30.360000 E12650.000000
G1 X0.000000 Y30.480000 E12700.000000
G1 X50.000000 Y30.480000 E12700.000000
G1 X50.000000 Y30.600000 E12750.000000
G1 X0.000000 Y30.600000 E12750.000000
G1 X0.000000 Y30.720000 E12800.000000
G1 X50.000000 Y30.720000 E12800.000000
G1 X50.000000 Y30.840000 E12850.000000
G1 X0.000000 Y30.840000 E12850.000000
G1 X0.000000 Y30.960000 E12900.000000
G1 X50.000000 Y30.960000 E12900.000000
G1 X50.000000 Y31.080000 E12950.000000
G1 X0.000000 Y31.080000 E12950.000000
G1 X0.000000 Y31.200000 E13000.000000
G1 X50.000000 Y31.200000 E13000.000000
G1 X50.000000 Y31.320000 E13050.000000
G1 X0.000000 Y31.320000 E13050.000000
G1 X0.000000 Y31.440000 E13100.000000
G1 X50.000000 Y31.440000 E13100.000000
G1 X50.000000 Y31.560000 E13150.000000
G1 X0.000000 Y31.560000 E13150.000000
G1 X0.000000 Y31.680000 E13200.000000
G1 X50.000000 Y31.680000 E13200.000000
G1 X50.000000 Y31.800000 E13250.000000
G1 X0.000000 Y31.800000 E13250.000000
G1 X0.000000 Y31.920000 E13300.000000
G1 X50.000000 Y31.920000 E13300.000000
G1 X50.000000 Y32.040000 E13350.000000
G1 X0.000000 Y32.040000 E13350.000000
G1 X0.000000 Y32.160000 E13400.000000
G1 X50.000000 Y32.160000 E13400.000000
G1 X50.000000 Y32.280000 E13450.000000
G1 X0.000000 Y32.280000 E13450.000000
G1 X0.000000 Y32.400000 E13500.000000
G1 X50.000000 Y32.400000 E13500.000000
G1 X50.000000 Y32.520000 E13550.000000
G1 X0.000000 Y32.520000 E13550.000000
G1 X0.000000 Y32.640000 E13600.000000
G1 X50.000000 Y32.640000 E13600.000000
G1 X50.000000 Y32.760000 E13650.000000
G1 X0.000000 Y32.760000 E13650.000000
G1 X0.000000 Y32.880000 E13700.000000
G1 X50.000000 Y32.880000 E13700.000000
G1 X50.000000 Y33.000000 E13750.000000
G1 X0.000000 Y33.000000 E13750.000000
G1 X0.000000 Y33.120000 E13800.000000
G1 X50.000000 Y33.120000 E13800.000000
G1 X50.000000 Y33.240000 E13850.000000
G1 X0.000000 Y33.240000 E13850.000000
G1 X0.000000 Y33.360000 E13900.000000
G1 X50.000000 Y33.360000 E13900.000000
G1 X50.000000 Y33.480000 E13950.000000
G1 X0.000000 Y33.480000 E13950.000000
G1 X0.000000 Y33.600000 E14000.000000
G1 X50.000000 Y33.600000 E14000.000000
G1 X50.000000 Y33.720000 E14050.000000
G1 X0.000000 Y33.720000 E14050.000000
G1 X0.000000 Y33.840000 E14100.000000
G1 X50.000000 Y33.840000 E14100.000000
G1 X50.000000 Y33.960000 E14150.000000
G1 X0.000000 Y33.960000 E14150.000000
G1 X0.000000 Y34.080000 E14200.000000
G1 X50.000000 Y34.080000 E14200.000000
G1 X50.000000 Y34.200000 E14250.000000
G1 X0.000000 Y34.200000 E14250.000000
G1 X0.000000 Y34.320000 E14300.000000
G1 X50.000000 Y34.320000 E14300.000000
G1 X50.000000 Y34.440000 E14350.000000
G1 X0.000000 Y34.440000 E14350.000000
G1 X0.000000 Y34.560000 E14400.000000
G1 X50.000000 Y34.560000 E14400.000000
G1 X50.000000 Y34.680000 E14450.000000
G1 X0.000000 Y34.680000 E14450.000000
G1 X0.000000 Y34.800000 E14500.000000
G1 X50.000000 Y34.800000 E14500.000000
G1 X50.000000 Y34.920000 E14550.000000
G1 X0.000000 Y34.920000 E14550.000000
G1 X0.000000 Y35.040000 E14600.000000
G1 X50.000000 Y35.040000 E14600.000000
G1 X50.000000 Y35.160000 E14650.000000
G1 X0.000000 Y35.160000 E14650.000000
G1 X0.000000 Y35.280000 E14700.000000
G1 X50.000000 Y35.280000 E14700.000000
G1 X50.000000 Y35.400000 E14750.000000
G1 X0.000000 Y35.400000 E14750.000000
G1 X0.000000 Y35.520000 E14800.000000
G1 X50.000000 Y35.520000 E14800.000000
G1 X50.000000 Y35.640000 E14850.000000
G1 X0.000000 Y35.640000 E14850.000000
G1 X0.000000 Y35.760000 E14900.000000
G1 X50.000000 Y35.760000 E14900.000000
G1 X50.000000 Y35.880000 E14950.000000
G1 X0.000000 Y35.880000 E14950.000000
G1 X0.000000 Y36.000000 E15000.000000
G1 X50.000000 Y36.000000 E15000.000000
G1 X50.000000 Y36.120000 E15050.000000
G1 X0.000000 Y36.120000 E15050.000000
G1 X0.000000 Y36.240000 E15100.000000
G1 X50.000000 Y36.240000 E15100.000000
G1 X50.000000 Y36.360000 E15150.000000
G1 X0.000000 Y36.360000 E15150.000000
G1 X0.000000 Y36.480000 E15200.000000
G1 X50.000000 Y36.480000 E15200.000000
G1 X50.000000 Y36.600000 E15250.000000
G1 X0.000000 Y36.600000 E15250.000000
G1 X0.000000 Y36.720000 E15300.000000
G1 X50.000000 Y36.720000 E15300.000000
G1 X50.000000 Y36.840000 E15350.000000
G1 X0.000000 Y36.840000 E15350.000000
G1 X0.000000 Y36.960000 E15400.000000
G1 X50.000000 Y36.960000 E15400.000000
G1 X50.000000 Y37.080000 E15450.000000
G1 X0.000000 Y37.080000 E15450.000000
G1 X0.000000 Y37.200000 E15500.000000
G1 X50.000000 Y37.200000 E15500.000000
G1 X50.000000 Y37.320000 E15550.000000
G1 X0.000000 Y37.320000 E15550.000000
G1 X0.000000 Y37.440000 E15600.000000
G1 X50.000000 Y37.440000 E15600.000000
G1 X50.000000 Y37.560000 E15650.000000
G1 X0.000000 Y37.560000 E15650.000000
G1 X0.000000 Y37.680000 E15700.000000
G1 X50.000000 Y37.680000 E15700.000000
G1 X50.000000 Y37.800000 E15750.000000
G1 X0.000000 Y37.800000 E15750.000000
G1 X0.000000 Y37.920000 E15800.000000
G1 X50.000000 Y37.920000 E15800.000000
G1 X50.000000 Y38.040000 E15850.000000
G1 X0.000000 Y38.040000 E15850.000000
G1 X0.000000 Y38.160000 E15900.000000
G1 X50.000000 Y38.160000 E15900.000000
G1 X50.000000 Y38.280000 E15950.000000
G1 X0.000000 Y38.280000 E15950.000000
G1 X0.000000 Y38.400000 E16000.000000
G1 X50.000000 Y38.400000 E16000.000000
G1 X50.000000 Y38.520000 E16050.000000
G1 X0.000000 Y38.520000 E16050.000000
G1 X0.000000 Y38.640000 E16100.000000
G1 X50.000000 Y38.640000 E16100.000000
G1 X50.000000 Y38.760000 E16150.000000
G1 X0.000000 Y38.760000 E16150.000000
G1 X0.000000 Y38.880000 E16200.000000
G1 X50.000000 Y38.880000 E16200.000000
G1 X50.000000 Y39.000000 E16250.000000
G1 X0.000000 Y39.000000 E16250.000000
G1 X0.000000 Y39.120000 E16300.000000
G1 X50.000000 Y39.120000 E16300.000000
G1 X50.000000 Y39.240000 E16350.000000
G1 X0.000000 Y39.240000 E16350.000000
G1 X0.000000 Y39.360000 E16400.000000
G1 X50.000000 Y39.360000 E16400.000000
G1 X50.000000 Y39.480000 E16450.000000
G1 X0.000000 Y39.480000 E16450.000000
G1 X0.000000 Y39.600000 E16500.000000
G1 X50.000000 Y39.600000 E16500.000000
G1 X50.000000 Y39.720000 E16550.000000
G1 X0.000000 Y39.720000 E16550.000000
G1 X0.000000 Y39.840000 E16600.000000
G1 X50.000000 Y39.840000 E16600.000000
G1 X50.000000 Y39.960000 E16650.000000
G1 X0.000000 Y39.960000 E16650.000000
G1 X0.000000 Y40.080000 E16700.000000
G1 X50.000000 Y40.080000 E16700.000000
G1 X50.000000 Y40.200000 E16750.000000
G1 X0.000000 Y40.200000 E16750.000000
G1 X0.000000 Y40.320000 E16800.000000
G1 X50.000000 Y40.320000 E16800.000000
G1 X50.000000 Y40.440000 E16850.000000
G1 X0.000000 Y40.440000 E16850.000000
G1 X0.000000 Y40.560000 E16900.000000
G1 X50.000000 Y40.560000 E16900.000000
G1 X50.000000 Y40.680000 E16950.000000
G1 X0.000000 Y40.680000 E16950.000000
G1 X0.000000 Y40.800000 E17000.000000
G1 X50.000000 Y40.800000 E17000.000000
G1 X50.000000 Y40.920000 E17050.000000
G1 X0.000000 Y40.920000 E17050.000000
G1 X0.000000 Y41.040000 E17100.000000
G1 X50.000000 Y41.040000 E17100.000000
G1 X50.000000 Y41.160000 E17150.000000
G1 X0.000000 Y41.160000 E17150.000000
G1 X0.000000 Y41.280000 E17200.000000
G1 X50.000000 Y41.280000 E17200.000000
G1 X50.000000 Y41.400000 E17250.000000
G1 X0.000000 Y41.400000 E17250.000000
G1 X0.000000 Y41.520000 E17300.000000
G1 X50.000000 Y41.520000 E17300.000000
G1 X50.000000 Y41.640000 E17350.000000
G1 X0.000000 Y41.640000 E17350.000000
G1 X0.000000 Y41.760000 E17400.000000
G1 X50.000000 Y41.760000 E17400.000000
G1 X50.000000 Y41.880000 E17450.000000
G1 X0.000000 Y41.880000 E17450.000000
G1 X0.000000 Y42.000000 E17500.000000
G1 X50.000000 Y42.000000 E17500.000000
G1 X50.000000 Y42.120000 E17550.000000
G1 X0.000000 Y42.120000 E17550.000000
G1 X0.000000 Y42.240000 E17600.000000
G1 X50.000000 Y42.240000 E17600.000000
G1 X50.000000 Y42.360000 E17650.000000
G1 X0.000000 Y42.360000 E17650.000000
G1 X0.000000 Y42.480000 E17700.000000
G1 X50.000000 Y42.480000 E17700.000000
G1 X50.000000 Y42.600000 E17750.000000
G1 X0.000000 Y42.600000 E17750.000000
G1 X0.000000 Y42.720000 E17800.000000
G1 X50.000000 Y42.720000 E17800.000000
G1 X50.000000 Y42.840000 E17850.000000
G1 X0.000000 Y42.840000 E17850.000000
G1 X0.000000 Y42.960000 E17900.000000
G1 X50.000000 Y42.960000 E17900.000000
G1 X50.000000 Y43.080000 E17950.000000
G1 X0.000000 Y43.080000 E17950.000000
G1 X0.000000 Y43.200000 E18000.000000
G1 X50.000000 Y43.200000 E18000.000000
G1 X50.000000 Y43.320000 E18050.000000
G1 X0.000000 Y43.320000 E18050.000000
G1 X0.000000 Y43.440000 E18100.000000
G1 X50.000000 Y43.440000 E18100.000000
G1 X50.000000 Y43.560000 E18150.000000
G1 X0.000000 Y43.560000 E18150.000000
G1 X0.000000 Y43.680000 E18200.000000
G1 X50.000000 Y43.680000 E18200.000000
G1 X50.000000 Y43.800000 E18250.000000
G1 X0.000000 Y43.800000 E18250.000000
G1 X0.000000 Y43.920000 E18300.000000
G1 X50.000000 Y43.920000 E18300.000000
G1 X50.000000 Y44.040000 E18350.000000
G1 X0.000000 Y44.040000 E18350.000000
G1 X0.000000 Y44.160000 E18400.000000
G1 X50.000000 Y44.160000 E18400.000000
G1 X50.000000 Y44.280000 E18450.000000
G1 X0.000000 Y44.280000 E18450.000000
G1 X0.000000 Y44.400000 E18500.000000
G1 X50.000000 Y44.400000 E18500.000000
G1 X50.000000 Y44.520000 E18550.000000
G1 X0.000000 Y44.520000 E18550.000000
G1 X0.000000 Y44.640000 E18600.000000
G1 X50.000000 Y44.640000 E18600.000000
G1 X50.000000 Y44.760000 E18650.000000
G1 X0.000000 Y44.760000 E18650.000000
G1 X0.000000 Y44.880000 E18700.000000
G1 X50.000000 Y44.880000 E18700.000000
G1 X50.000000 Y45.000000 E18750.000000
G1 X0.000000 Y45.000000 E18750.000000
G1 X0.000000 Y45.120000 E18800.000000
G1 X50.000000 Y45.120000 E18800.000000
G1 X50.000000 Y45.240000 E18850.000000
G1 X0.000000 Y45.240000 E18850.000000
G1 X0.000000 Y45.360000 E18900.000000
G1 X50.000000 Y45.360000 E18900.000000
G1 X50.000000 Y45.480000 E18950.000000
G1 X0.000000 Y45.480000 E18950.000000
G1 X0.000000 Y45.600000 E19000.000000
G1 X50.000000 Y45.600000 E19000.000000
G1 X50.000000 Y45.720000 E19050.000000
G1 X0.000000 Y45.720000 E19050.000000
G1 X0.000000 Y45.840000 E19100.000000
G1 X50.000000 Y45.840000 E19100.000000
G1 X50.000000 Y45.960000 E19150.000000
G1 X0.000000 Y45.960000 E19150.000000
G1 X0.000000 Y46.080000 E19200.000000
G1 X50.000000 Y46.080000 E19200.000000
G1 X50.000000 Y46.200000 E19250.000000
G1 X0.000000 Y46.200000 E19250.000000
G1 X0.000000 Y46.320000 E19300.000000
G1 X50.000000 Y46.320000 E19300.000000
G1 X50.000000 Y46.440000 E19350.000000
G1 X0.000000 Y46.440000 E19350.000000
G1 X0.000000 Y46.560000 E19400.000000
G1 X50.000000 Y46.560000 E19400.000000
G1 X50.000000 Y46.680000 E19450.000000
G1 X0.000000 Y46.680000 E19450.000000
G1 X0.000000 Y46.800000 E19500.000000
G1 X50.000000 Y46.800000 E19500.000000
G1 X50.000000 Y46.920000 E19550.000000
G1 X0.000000 Y46.920000 E19550.000000
G1 X0.000000 Y47.040000 E19600.000000
G1 X50.000000 Y47.040000 E19600.000000
G1 X50.000000 Y47.160000 E19650.000000
G1 X0.000000 Y47.160000 E19650.000000
G1 X0.000000 Y47.280000 E19700.000000
G1 X50.000000 Y47.280000 E19700.000000
G1 X50.000000 Y47.400000 E19750.000000
G1 X0.000000 Y47.400000 E19750.000000
G1 X0.000000 Y47.520000 E19800.000000
G1 X50.000000 Y47.520000 E19800.000000
G1 X50.000000 Y47.640000 E19850.000000
G1 X0.000000 Y47.640000 E19850.000000
G1 X0.000000 Y47.760000 E19900.000000
G1 X50.000000 Y47.760000 E19900.000000
G1 X50.000000 Y47.880000 E19950.000000
G1 X0.000000 Y47.880000 E19950.000000
G1 X0.000000 Y48.000000 E20000.000000
G1 X50.000000 Y48.000000 E20000.000000
G1 X50.000000 Y48.120000 E20050.000000
G1 X0.000000 Y48.120000 E20050.000000
G1 X0.000000 Y48.240000 E20100.000000
G1 X50.000000 Y48.240000 E20100.000000
G1 X50.000000 Y48.360000 E20150.000000
G1 X0.000000 Y48.360000 E20150.000000
G1 X0.000000 Y48.480000 E20200.000000
G1 X50.000000 Y48.480000 E20200.000000
G1 X50.000000 Y48.600000 E20250.000000
G1 X0.000000 Y48.600000 E20250.000000
G1 X0.000000 Y48.720000 E20300.000000
G1 X50.000000 Y48.720000 E20300.000000
G1 X50.000000 Y48.840000 E20350.000000
G1 X0.000000 Y48.840000 E20350.000000
G1 X0.000000 Y48.960000 E20400.000000
G1 X50.000000 Y48.960000 E20400.000000
G1 X50.000000 Y49.080000 E20450.000000
G1 X0.000000 Y49.080000 E20450.000000
G1 X0.000000 Y49.200000 E20500.000000
G1 X50.000000 Y49.200000 E20500.000000
G1 X50.000000 Y49.320000 E20550.000000
G1 X0.000000 Y49.320000 E20550.000000
G1 X0.000000 Y49.440000 E20600.000000
G1 X50.000000 Y49.440000 E20600.000000
G1 X50.000000 Y49.560000 E20650.000000
G1 X0.000000 Y49.560000 E20650.000000
G1 X0.000000 Y49.680000 E20700.000000
G1 X50.000000 Y49.680000 E20700.000000
G1 X50.000000 Y49.800000 E20750.000000
G1 X0.000000 Y49.800000 E20750.000000
G1 X0.000000 Y49.920000 E20800.000000
G1 X50.000000 Y49.920000 E20800.000000
G1 X50.000000 Y0.000000 E20850.000000
G1 X0.000000 Y0.000000 E20850.000000
G1 X0.000000 Y0.120000 E20900.000000
G1 X50.000000 Y0.120000 E20900.000000
G1 X50.000000 Y0.240000 E20950.000000
G1 X0.000000 Y0.240000 E20950.000000
G1 X0.000000 Y0.360000 E21000.000000
G1 X50.000000 Y0.360000 E21000.000000
G1 X50.000000 Y0.480000 E21050.000000
G1 X0.000000 Y0.480000 E21050.000000
G1 X0.000000 Y0.600000 E21100.000000
G1 X50.000000 Y0.600000 E21100.000000
G1 X50.000000 Y0.720000 E21150.000000
G1 X0.000000 Y0.720000 E21150.000000
G1 X0.000000 Y0.840000 E21200.000000
G1 X50.000000 Y0.840000 E21200.000000
G1 X50.000000 Y0.960000 E21250.000000
G1 X0.000000 Y0.960000 E21250.000000
G1 X0.000000 Y1.080000 E21300.000000
G1 X50.000000 Y1.080000 E21300.000000
G1 X50.000000 Y1.200000 E21350.000000
G1 X0.000000 Y1.200000 E21350.000000
G1 X0.000000 Y1.320000 E21400.000000
G1 X50.000000 Y1.320000 E21400.000000
G1 X50.000000 Y1.440000 E21450.000000
G1 X0.000000 Y1.440000 E21450.000000
G1 X0.000000 Y1.560000 E21500.000000
G1 X50.000000 Y1.560000 E21500.000000
G1 X50.000000 Y1.680000 E21550.000000
G1 X0.000000 Y1.680000 E21550.000000
G1 X0.000000 Y1.800000 E21600.000000
G1 X50.000000 Y1.800000 E21600.000000
G1 X50.000000 Y1.920000 E21650.000000
G1 X0.000000 Y1.920000 E21650.000000
G1 X0.000000 Y2.040000 E21700.000000
G1 X50.000000 Y2.040000 E21700.000000
G1 X50.000000 Y2.160000 E21750.000000
G1 X0.000000 Y2.160000 E21750.000000
G1 X0.000000 Y2.280000 E21800.000000
G1 X50.000000 Y2.280000 E21800.000000
G1 X50.000000 Y2.400000 E21850.000000
G1 X0.000000 Y2.400000 E21850.000000
G1 X0.000000 Y2.520000 E21900.000000
G1 X50.000000 Y2.520000 E21900.000000
G1 X50.000000 Y2.640000 E21950.000000
G1 X0.000000 Y2.640000 E21950.000000
G1 X0.000000 Y2.760000 E22000.000000
G1 X50.000000 Y2.760000 E22000.000000
G1 X50.000000 Y2.880000 E22050.000000
G1 X0.000000 Y2.880000 E22050.000000
G1 X0.000000 Y3.000000 E22100.000000
G1 X50.000000 Y3.000000 E22100.000000
G1 X50.000000 Y3.120000 E22150.000000
G1 X0.000000 Y3.120000 E22150.000000
G1 X0.000000 Y3.240000 E22200.000000
G1 X50.000000 Y3.240000 E22200.000000
G1 X50.000000 Y3.360000 E22250.000000
G1 X0.000000 Y3.360000 E22250.000000
G1 X0.000000 Y3.480000 E22300.000000
G1 X50.000000 Y3.480000 E22300.000000
G1 X50.000000 Y3.600000 E22350.000000
G1 X0.000000 Y3.600000 E22350.000000
G1 X0.000000 Y3.720000 E22400.000000
G1 X50.000000 Y3.720000 E22400.000000
G1 X50.000000 Y3.840000 E22450.000000
G1 X0.000000 Y3.840000 E22450.000000
G1 X0.000000 Y3.960000 E22500.000000
G1 X50.000000 Y3.960000 E22500.000000
G1 X50.000000 Y4.080000 E22550.000000
G1 X0.000000 Y4.080000 E22550.000000
G1 X0.000000 Y4.200000 E22600.000000
G1 X50.000000 Y4.200000 E22600.000000
G1 X50.000000 Y4.320000 E22650.000000
G1 X0.000000 Y4.320000 E22650.000000
G1 X0.000000 Y4.440000 E22700.000000
G1 X50.000000 Y4.440000 E22700.000000
G1 X50.000000 Y4.560000 E22750.000000
G1 X0.000000 Y4.560000 E22750.000000
G1 X0.000000 Y4.680000 E22800.000000
G1 X50.000000 Y4.680000 E22800.000000
G1 X50.000000 Y4.800000 E22850.000000
G1 X0.000000 Y4.800000 E22850.000000
G1 X0.000000 Y4.920000 E22900.000000
G1 X50.000000 Y4.920000 E22900.000000
G1 X50.000000 Y5.040000 E22950.000000
G1 X0.000000 Y5.040000 E22950.000000
G1 X0.000000 Y5.160000 E23000.000000
G1 X50.000000 Y5.160000 E23000.000000
G1 X50.000000 Y5.280000 E23050.000000
G1 X0.000000 Y5.280000 E23050.000000
G1 X0.000000 Y5.400000 E23100.000000
G1 X50.000000 Y5.400000 E23100.000000
G1 X50.000000 Y5.520000 E23150.000000
G1 X0.000000 Y5.520000 E23150.000000
G1 X0.000000 Y5.640000 E23200.000000
G1 X50.000000 Y5.640000 E23200.000000
G1 X50.000000 Y5.760000 E23250.000000
G1 X0.000000 Y5.760000 E23250.000000
G1 X0.000000 Y5.880000 E23300.000000
G1 X50.000000 Y5.880000 E23300.000000
G1 X50.000000 Y6.000000 E23350.000000
G1 X0.000000 Y6.000000 E23350.000000
G1 X0.000000 Y6.120000 E23400.000000
G1 X50.000000 Y6.120000 E23400.000000
G1 X50.000000 Y6.240000 E23450.000000
G1 X0.000000 Y6.240000 E23450.000000
G1 X0.000000 Y6.360000 E23500.000000
G1 X50.000000 Y6.360000 E23500.000000
G1 X50.000000 Y6.480000 E23550.000000
G1 X0.000000 Y6.480000 E23550.000000
G1 X0.000000 Y6.600000 E23600.000000
G1 X50.000000 Y6.600000 E23600.000000
G1 X50.000000 Y6.720000 E23650.000000
G1 X0.000000 Y6.720000 E23650.000000
G1 X0.000000 Y6.840000 E23700.000000
G1 X50.000000 Y6.840000 E23700.000000
G1 X50.000000 Y6.960000 E23750.000000
G1 X0.000000 Y6.960000 E23750.000000
G1 X0.000000 Y7.080000 E23800.000000
G1 X50.000000 Y7.080000 E23800.000000
G1 X50.000000 Y7.200000 E23850.000000
G1 X0.000000 Y7.200000 E23850.000000
G1 X0.000000 Y7.320000 E23900.000000
G1 X50.000000 Y7.320000 E23900.000000
G1 X50.000000 Y7.440000 E23950.000000
G1 X0.000000 Y7.440000 E23950.000000
G1 X0.000000 Y7.560000 E24000.000000
G1 X50.000000 Y7.560000 E24000.000000
G1 X50.000000 Y7.680000 E24050.000000
G1 X0.000000 Y7.680000 E24050.000000
G1 X0.000000 Y7.800000 E24100.000000
G1 X50.000000 Y7.800000 E24100.000000
G1 X50.000000 Y7.920000 E24150.000000
G1 X0.000000 Y7.920000 E24150.000000
G1 X0.000000 Y8.040000 E24200.000000
G1 X50.000000 Y8.040000 E24200.000000
G1 X50.000000 Y8.160000 E24250.000000
G1 X0.000000 Y8.160000 E24250.000000
G1 X0.000000 Y8.280000 E24300.000000
G1 X50.000000 Y8.280000 E24300.000000
G1 X50.000000 Y8.400000 E24350.000000
G1 X0.000000 Y8.400000 E24350.000000
G1 X0.000000 Y8.520000 E24400.000000
G1 X50.000000 Y8.520000 E24400.000000
G1 X50.000000 Y8.640000 E24450.000000
G1 X0.000000 Y8.640000 E24450.000000
G1 X0.000000 Y8.760000 E24500.000000
G1 X50.000000 Y8.760000 E24500.000000
G1 X50.000000 Y8.880000 E24550.000000
G1 X0.000000 Y8.880000 E24550.000000
G1 X0.000000 Y9.000000 E24600.000000
G1 X50.000000 Y9.000000 E24600.000000
G1 X50.000000 Y9.120000 E24650.000000
G1 X0.000000 Y9.120000 E24650.000000
G1 X0.000000 Y9.240000 E24700.000000
G1 X50.000000 Y9.240000 E24700.000000
G1 X50.000000 Y9.360000 E24750.000000
G1 X0.000000 Y9.360000 E24750.000000
G1 X0.000000 Y9.480000 E24800.000000
G1 X50.000000 Y9.480000 E24800.000000
G1 X50.000000 Y9.600000 E24850.000000
G1 X0.000000 Y9.600000 E24850.000000
G1 X0.000000 Y9.720000 E24900.000000
G1 X50.000000 Y9.720000 E24900.000000
G1 X50.000000 Y9.840000 E24950.000000
G1 X0.000000 Y9.840000 E24950.000000
G1 X0.000000 Y9.960000 E25000.000000
G1 X50.000000 Y9.960000 E25000.000000
G1 X50.000000 Y10.080000 E25050.000000
G1 X0.000000 Y10.080000 E25050.000000
G1 X0.000000 Y10.200000 E25100.000000
G1 X50.000000 Y10.200000 E25100.000000
G1 X50.000000 Y10.320000 E25150.000000
G1 X0.000000 Y10.320000 E25150.000000
G1 X0.000000 Y10.440000 E25200.000000
G1 X50.000000 Y10.440000 E25200.000000
G1 X50.000000 Y10.560000 E25250.000000
G1 X0.000000 Y10.560000 E25250.000000
G1 X0.000000 Y10.680000 E25300.000000
G1 X50.000000 Y10.680000 E25300.000000
G1 X50.000000 Y10.800000 E25350.000000
G1 X0.000000 Y10.800000 E25350.000000
G1 X0.000000 Y10.920000 E25400.000000
G1 X50.000000 Y10.920000 E25400.000000
G1 X50.000000 Y11.040000 E25450.000000
G1 X0.000000 Y11.040000 E25450.000000
G1 X0.000000 Y11.160000 E25500.000000
G1 X50.000000 Y11.160000 E25500.000000
G1 X50.000000 Y11.280000 E25550.000000
G1 X0.000000 Y11.280000 E25550.000000
G1 X0.000000 Y11.400000 E25600.000000
G1 X50.000000 Y11.400000 E25600.000000
G1 X50.000000 Y11.520000 E25650.000000
G1 X0.000000 Y11.520000 E25650.000000
G1 X0.000000 Y11.640000 E25700.000000
G1 X50.000000 Y11.640000 E25700.000000
G1 X50.000000 Y11.760000 E25750.000000
G1 X0.000000 Y11.760000 E25750.000000
G1 X0.000000 Y11.880000 E25800.000000
G1 X50.000000 Y11.880000 E25800.000000
G1 X50.000000 Y12.000000 E25850.000000
G1 X0.000000 Y12.000000 E25850.000000
G1 X0.000000 Y12.120000 E25900.000000
G1 X50.000000 Y12.120000 E25900.000000
G1 X50.000000 Y12.240000 E25950.000000
G1 X0.000000 Y12.240000 E25950.000000
G1 X0.000000 Y12.360000 E26000.000000
G1 X50.000000 Y12.360000 E26000.000000
G1 X50.000000 Y12.480000 E26050.000000
G1 X0.000000 Y12.480000 E26050.000000
G1 X0.000000 Y12.600000 E26100.000000
G1 X50.000000 Y12.600000 E26100.000000
G1 X50.000000 Y12.720000 E26150.000000
G1 X0.000000 Y12.720000 E26150.000000
G1 X0.000000 Y12.840000 E26200.000000
G1 X50.000000 Y12.840000 E26200.000000
G1 X50.000000 Y12.960000 E26250.000000
G1 X0.000000 Y12.960000 E26250.000000
G1 X0.000000 Y13.080000 E26300.000000
G1 X50.000000 Y13.080000 E26300.000000
G1 X50.000000 Y13.200000 E26350.000000
G1 X0.000000 Y13.200000 E26350.000000
G1 X0.000000 Y13.320000 E26400.000000
G1 X50.000000 Y13.320000 E26400.000000
G1 X50.000000 Y13.440000 E26450.000000
G1 X0.000000 Y13.440000 E26450.000000
G1 X0.000000 Y13.560000 E26500.000000
G1 X50.000000 Y13.560000 E26500.000000
G1 X50.000000 Y13.680000 E26550.000000
G1 X0.000000 Y13.680000 E26550.000000
G1 X0.000000 Y13.800000 E26600.000000
G1 X50.000000 Y13.800000 E26600.000000
G1 X50.000000 Y13.920000 E26650.000000
G1 X0.000000 Y13.920000 E26650.000000
G1 X0.000000 Y14.040000 E26700.000000
G1 X50.000000 Y14.040000 E26700.000000
G1 X50.000000 Y14.160000 E26750.000000
G1 X0.000000 Y14.160000 E26750.000000
G1 X0.000000 Y14.280000 E26800.000000
G1 X50.000000 Y14.280000 E26800.000000
G1 X50.000000 Y14.400000 E26850.000000
G1 X0.000000 Y14.400000 E26850.000000
G1 X0.000000 Y14.520000 E26900.000000
G1 X50.000000 Y14.520000 E26900.000000
G1 X50.000000 Y14.640000 E26950.000000
G1 X0.000000 Y14.640000 E26950.000000
G1 X0.000000 Y14.760000 E27000.000000
G1 X50.000000 Y14.760000 E27000.000000
G1 X50.000000 Y14.880000 E27050.000000
G1 X0.000000 Y14.880000 E27050.000000
G1 X0.000000 Y15.000000 E27100.000000
G1 X50.000000 Y15.000000 E27100.000000
G1 X50.000000 Y15.120000 E27150.000000
G1 X0.000000 Y15.120000 E27150.000000
G1 X0.000000 Y15.240000 E27200.000000
G1 X50.000000 Y15.240000 E27200.000000
G1 X50.000000 Y15.360000 E27250.000000
G1 X0.000000 Y15.360000 E27250.000000
G1 X0.000000 Y15.480000 E27300.000000
G1 X50.000000 Y15.480000 E27300.000000
G1 X50.000000 Y15.600000 E27350.000000
G1 X0.000000 Y15.600000 E27350.000000
G1 X0.000000 Y15.720000 E27400.000000
G1 X50.000000 Y15.720000 E27400.000000
G1 X50.000000 Y15.840000 E27450.000000
G1 X0.000000 Y15.840000 E27450.000000
G1 X0.000000 Y15.960000 E27500.000000
G1 X50.000000 Y15.960000 E27500.000000
G1 X50.000000 Y16.080000 E27550.000000
G1 X0.000000 Y16.080000 E27550.000000
G1 X0.000000 Y16.200000 E27600.000000
G1 X50.000000 Y16.200000 E27600.000000
G1 X50.000000 Y16.320000 E27650.000000
G1 X0.000000 Y16.320000 E27650.000000
G1 X0.000000 Y16.440000 E27700.000000
G1 X50.000000 Y16.440000 E27700.000000
G1 X50.000000 Y16.560000 E27750.000000
G1 X0.000000 Y16.560000 E27750.000000
G1 X0.000000 Y16.680000 E27800.000000
G1 X50.000000 Y16.680000 E27800.000000
G1 X50.000000 Y16.800000 E27850.000000
G1 X0.000000 Y16.800000 E27850.000000
G1 X0.000000 Y16.920000 E27900.000000
G1 X50.000000 Y16.920000 E27900.000000
G1 X50.000000 Y17.040000 E27950.000000
G1 X0.000000 Y17.040000 E27950.000000
G1 X0.000000 Y17.160000 E28000.000000
G1 X50.000000 Y17.160000 E28000.000000
G1 X50.000000 Y17.280000 E28050.000000
G1 X0.000000 Y17.280000 E28050.000000
G1 X0.000000 Y17.400000 E28100.000000
G1 X50.000000 Y17.400000 E28100.000000
G1 X50.000000 Y17.520000 E28150.000000
G1 X0.000000 Y17.520000 E28150.000000
G1 X0.000000 Y17.640000 E28200.000000
G1 X50.000000 Y17.640000 E28200.000000
G1 X50.000000 Y17.760000 E28250.000000
G1 X0.000000 Y17.760000 E28250.000000
G1 X0.000000 Y17.880000 E28300.000000
G1 X50.000000 Y17.880000 E28300.000000
G1 X50.000000 Y18.000000 E28350.000000
G1 X0.000000 Y18.000000 E28350.000000
G1 X0.000000 Y18.120000 E28400.000000
G1 X50.000000 Y18.120000 E28400.000000
G1 X50.000000 Y18.240000 E28450.000000
G1 X0.000000 Y18.240000 E28450.000000
G1 X0.000000 Y18.360000 E28500.000000
G1 X50.000000 Y18.360000 E28500.000000
G1 X50.000000 Y18.480000 E28550.000000
G1 X0.000000 Y18.480000 E28550.000000
G1 X0.000000 Y18.600000 E28600.000000
G1 X50.000000 Y18.600000 E28600.000000
G1 X50.000000 Y18.720000 E28650.000000
G1 X0.000000 Y18.720000 E28650.000000
G1 X0.000000 Y18.840000 E28700.000000
G1 X50.000000 Y18.840000 E28700.000000
G1 X50.000000 Y18.960000 E28750.000000
G1 X0.000000 Y18.960000 E28750.000000
G1 X0.000000 Y19.080000 E28800.000000
G1 X50.000000 Y19.080000 E28800.000000
G1 X50.000000 Y19.200000 E28850.000000
G1 X0.000000 Y19.200000 E28850.000000
G1 X0.000000 Y19.320000 E28900.000000
G1 X50.000000 Y19.320000 E28900.000000
G1 X50.000000 Y19.440000 E28950.000000
G1 X0.000000 Y19.440000 E28950.000000
G1 X0.000000 Y19.560000 E29000.000000
G1 X50.000000 Y19.560000 E29000.000000
G1 X50.000000 Y19.680000 E29050.000000
G1 X0.000000 Y19.680000 E29050.000000
G1 X0.000000 Y19.800000 E29100.000000
G1 X50.000000 Y19.800000 E29100.000000
G1 X50.000000 Y19.920000 E29150.000000
G1 X0.000000 Y19.920000 E29150.000000
G1 X0.000000 Y20.040000 E29200.000000
G1 X50.000000 Y20.040000 E29200.000000
G1 X50.000000 Y20.160000 E29250.000000
G1 X0.000000 Y20.160000 E29250.000000
G1 X0.000000 Y20.280000 E29300.000000
G1 X50.000000 Y20.280000 E29300.000000
G1 X50.000000 Y20.400000 E29350.000000
G1 X0.000000 Y20.400000 E29350.000000
G1 X0.000000 Y20.520000 E29400.000000
G1 X50.000000 Y20.520000 E29400.000000
G1 X50.000000 Y20.640000 E29450.000000
G1 X0.000000 Y20.640000 E29450.000000
G1 X0.000000 Y20.760000 E29500.000000
G1 X50.000000 Y20.760000 E29500.000000
G1 X50.000000 Y20.880000 E29550.000000
G1 X0.000000 Y20.880000 E29550.000000
G1 X0.000000 Y21.000000 E29600.000000
G1 X50.000000 Y21.000000 E29600.000000
G1 X50.000000 Y21.120000 E29650.000000
G1 X0.000000 Y21.120000 E29650.000000
G1 X0.000000 Y21.240000 E29700.000000
G1 X50.000000 Y21.240000 E29700.000000
G1 X50.000000 Y21.360000 E29750.000000
G1 X0.000000 Y21.360000 E29750.000000
G1 X0.000000 Y21.480000 E29800.000000
G1 X50.000000 Y21.480000 E29800.000000
G1 X50.000000 Y21.600000 E29850.000000
G1 X0.000000 Y21.600000 E29850.000000
G1 X0.000000 Y21.720000 E29900.000000
G1 X50.000000 Y21.720000 E29900.000000
G1 X50.000000 Y21.840000 E29950.000000
G1 X0.000000 Y21.840000 E29950.000000
G1 X0.000000 Y21.960000 E30000.000000
G1 X50.000000 Y21.960000 E30000.000000
G1 X50.000000 Y22.080000 E30050.000000
G1 X0.000000 Y22.080000 E30050.000000
G1 X0.000000 Y22.200000 E30100.000000
G1 X50.000000 Y22.200000 E30100.000000
G1 X50.000000 Y22.320000 E30150.000000
G1 X0.000000 Y22.320000 E30150.000000
G1 X0.000000 Y22.440000 E30200.000000
G1 X50.000000 Y22.440000 E30200.000000
G1 X50.000000 Y22.560000 E30250.000000
G1 X0.000000 Y22.560000 E30250.000000
G1 X0.000000 Y22.680000 E30300.000000
G1 X50.000000 Y22.680000 E30300.000000
G1 X50.000000 Y22.800000 E30350.000000
G1 X0.000000 Y22.800000 E30350.000000
G1 X0.000000 Y22.920000 E30400.000000
G1 X50.000000 Y22.920000 E30400.000000
G1 X50.000000 Y23.040000 E30450.000000
G1 X0.000000 Y23.040000 E30450.000000
G1 X0.000000 Y23.160000 E30500.000000
G1 X50.000000 Y23.160000 E30500.000000
G1 X50.000000 Y23.280000 E30550.000000
G1 X0.000000 Y23.280000 E30550.000000
G1 X0.000000 Y23.400000 E30600.000000
G1 X50.000000 Y23.400000 E30600.000000
G1 X50.000000 Y23.520000 E30650.000000
G1 X0.000000 Y23.520000 E30650.000000
G1 X0.000000 Y23.640000 E30700.000000
G1 X50.000000 Y23.640000 E30700.000000
G1 X50.000000 Y23.760000 E30750.000000
G1 X0.000000 Y23.760000 E30750.000000
G1 X0.000000 Y23.880000 E30800.000000
G1 X50.000000 Y23.880000 E30800.000000
G1 X50.000000 Y24.000000 E30850.000000
G1 X0.000000 Y24.000000 E30850.000000
G1 X0.000000 Y24.120000 E30900.000000
G1 X50.000000 Y24.120000 E30900.000000
G1 X50.000000 Y24.240000 E30950.000000
G1 X0.000000 Y24.240000 E30950.000000
G1 X0.000000 Y24.360000 E31000.000000
G1 X50.000000 Y24.360000 E31000.000000
G1 X50.000000 Y24.480000 E31050.000000
G1 X0.000000 Y24.480000 E31050.000000
G1 X0.000000 Y24.600000 E31100.000000
G1 X50.000000 Y24.600000 E31100.000000
G1 X50.000000 Y24.720000 E31150.000000
G1 X0.000000 Y24.720000 E31150.000000
G1 X0.000000 Y24.840000 E31200.000000
G1 X50.000000 Y24.840000 E31200.000000
G1 X50.000000 Y24.960000 E31250.000000
G1 X0.000000 Y24.960000 E31250.000000
G1 X0.000000 Y25.080000 E31300.000000
G1 X50.000000 Y25.080000 E31300.000000
G1 X50.000000 Y25.200000 E31350.000000
G1 X0.000000 Y25.200000 E31350.000000
G1 X0.000000 Y25.320000 E31400.000000
G1 X50.000000 Y25.320000 E31400.000000
G1 X50.000000 Y25.440000 E31450.000000
G1 X0.000000 Y25.440000 E31450.000000
G1 X0.000000 Y25.560000 E31500.000000
G1 X50.000000 Y25.560000 E31500.000000
G1 X50.000000 Y25.680000 E31550.000000
G1 X0.000000 Y25.680000 E31550.000000
G1 X0.000000 Y25.800000 E31600.000000
G1 X50.000000 Y25.800000 E31600.000000
G1 X50.000000 Y25.920000 E31650.000000
G1 X0.000000 Y25.920000 E31650.000000
G1 X0.000000 Y26.040000 E31700.000000
G1 X50.000000 Y26.040000 E31700.000000
G1 X50.000000 Y26.160000 E31750.000000
G1 X0.000000 Y26.160000 E31750.000000
G1 X0.000000 Y26.280000 E31800.000000
G1 X50.000000 Y26.280000 E31800.000000
G1 X50.000000 Y26.400000 E31850.000000
G1 X0.000000 Y26.400000 E31850.000000
G1 X0.000000 Y26.520000 E31900.000000
G1 X50.000000 Y26.520000 E31900.000000
G1 X50.000000 Y26.640000 E31950.000000
G1 X0.000000 Y26.640000 E31950.000000
G1 X0.000000 Y26.760000 E32000.000000
G1 X50.000000 Y26.760000 E32000.000000
G1 X50.000000 Y26.880000 E32050.000000
G1 X0.000000 Y26.880000 E32050.000000
G1 X0.000000 Y27.000000 E32100.000000
G1 X50.000000 Y27.000000 E32100.000000
G1 X50.000000 Y27.120000 E32150.000000
G1 X0.000000 Y27.120000 E32150.000000
G1 X0.000000 Y27.240000 E32200.000000
G1 X50.000000 Y27.240000 E32200.000000
G1 X50.000000 Y27.360000 E32250.000000
G1 X0.000000 Y27.360000 E32250.000000
G1 X0.000000 Y27.480000 E32300.000000
G1 X50.000000 Y27.480000 E32300.000000
G1 X50.000000 Y27.600000 E32350.000000
G1 X0.000000 Y27.600000 E32350.000000
G1 X0.000000 Y27.720000 E32400.000000
G1 X50.000000 Y27.720000 E32400.000000
G1 X50.000000 Y27.840000 E32450.000000
G1 X0.000000 Y27.840000 E32450.000000
G1 X0.000000 Y27.960000 E32500.000000
G1 X50.000000 Y27.960000 E32500.000000
G1 X50.000000 Y28.080000 E32550.000000
G1 X0.000000 Y28.080000 E32550.000000
G1 X0.000000 Y28.200000 E32600.000000
G1 X50.000000 Y28.200000 E32600.000000
G1 X50.000000 Y28.320000 E32650.000000
G1 X0.000000 Y28.320000 E32650.000000
G1 X0.000000 Y28.440000 E32700.000000
G1 X50.000000 Y28.440000 E32700.000000
G1 X50.000000 Y28.560000 E32750.000000
G1 X0.000000 Y28.560000 E32750.000000
G1 X0.000000 Y28.680000 E32800.000000
G1 X50.000000 Y28.680000 E32800.000000
G1 X50.000000 Y28.800000 E32850.000000
G1 X0.000000 Y28.800000 E32850.000000
G1 X0.000000 Y28.920000 E32900.000000
G1 X50.000000 Y28.920000 E32900.000000
G1 X50.000000 Y29.040000 E32950.000000
G1 X0.000000 Y29.040000 E32950.000000
G1 X0.000000 Y29.160000 E33000.000000
G1 X50.000000 Y29.160000 E33000.000000
G1 X50.000000 Y29.280000 E33050.000000
G1 X0.000000 Y29.280000 E33050.000000
G1 X0.000000 Y29.400000 E33100.000000
G1 X50.000000 Y29.400000 E33100.000000
G1 X50.000000 Y29.520000 E33150.000000
G1 X0.000000 Y29.520000 E33150.000000
G1 X0.000000 Y29.640000 E33200.000000
G1 X50.000000 Y29.640000 E33200.000000
G1 X50.000000 Y29.760000 E33250.000000
G1 X0.000000 Y29.760000 E33250.000000
G1 X0.000000 Y29.880000 E33300.000000
G1 X50.000000 Y29.880000 E33300.000000
G1 X50.000000 Y30.000000 E33350.000000
G1 X0.000000 Y30.000000 E33350.000000
G1 X0.000000 Y30.120000 E33400.000000
G1 X50.000000 Y30.120000 E33400.000000
G1 X50.000000 Y30.240000 E33450.000000
G1 X0.000000 Y30.240000 E33450.000000
G1 X0.000000 Y30.360000 E33500.000000
G1 X50.000000 Y30.360000 E33500.000000
G1 X50.000000 Y30.480000 E33550.000000
G1 X0.000000 Y30.480000 E33550.000000
G1 X0.000000 Y30.600000 E33600.000000
G1 X50.000000 Y30.600000 E33600.000000
G1 X50.000000 Y30.720000 E33650.000000
G1 X0.000000 Y30.720000 E33650.000000
G1 X0.000000 Y30.840000 E33700.000000
G1 X50.000000 Y30.840000 E33700.000000
G1 X50.000000 Y30.960000 E33750.000000
G1 X0.000000 Y30.960000 E33750.000000
G1 X0.000000 Y31.080000 E33800.000000
G1 X50.000000 Y31.080000 E33800.000000
G1 X50.000000 Y31.200000 E33850.000000
G1 X0.000000 Y31.200000 E33850.000000
G1 X0.000000 Y31.320000 E33900.000000
G1 X50.000000 Y31.320000 E33900.000000
G1 X50.000000 Y31.440000 E33950.000000
G1 X0.000000 Y31.440000 E33950.000000
G1 X0.000000 Y31.560000 E34000.000000
G1 X50.000000 Y31.560000 E34000.000000
G1 X50.000000 Y31.680000 E34050.000000
G1 X0.000000 Y31.680000 E34050.000000
G1 X0.000000 Y31.800000 E34100.000000
G1 X50.000000 Y31.800000 E34100.000000
G1 X50.000000 Y31.920000 E34150.000000
G1 X0.000000 Y31.920000 E34150.000000
G1 X0.000000 Y32.040000 E34200.000000
G1 X50.000000 Y32.040000 E34200.000000
G1 X50.000000 Y32.160000 E34250.000000
G1 X0.000000 Y32.160000 E34250.000000
G1 X0.000000 Y32.280000 E34300.000000
G1 X50.000000 Y32.280000 E34300.000000
G1 X50.000000 Y32.400000 E34350.000000
G1 X0.000000 Y32.400000 E34350.000000
G1 X0.000000 Y32.520000 E34400.000000
G1 X50.000000 Y32.520000 E34400.000000
G1 X50.000000 Y32.640000 E34450.000000
G1 X0.000000 Y32.640000 E34450.000000
G1 X0.000000 Y32.760000 E34500.000000
G1 X50.000000 Y32.760000 E34500.000000
G1 X50.000000 Y32.880000 E34550.000000
G1 X0.000000 Y32.880000 E34550.000000
G1 X0.000000 Y33.000000 E34600.000000
G1 X50.000000 Y33.000000 E34600.000000
G1 X50.000000 Y33.120000 E34650.000000
G1 X0.000000 Y33.120000 E34650.000000
G1 X0.000000 Y33.240000 E34700.000000
G1 X50.000000 Y33.240000 E34700.000000
G1 X50.000000 Y33.360000 E34750.000000
G1 X0.000000 Y33.360000 E34750.000000
G1 X0.000000 Y33.480000 E34800.000000
G1 X50.000000 Y33.480000 E34800.000000
G1 X50.000000 Y33.600000 E34850.000000
G1 X0.000000 Y33.600000 E34850.000000
G1 X0.000000 Y33.720000 E34900.000000
G1 X50.000000 Y33.720000 E34900.000000
G1 X50.000000 Y33.840000 E34950.000000
G1 X0.000000 Y33.840000 E34950.000000
G1 X0.000000 Y33.960000 E35000.000000
G1 X50.000000 Y33.960000 E35000.000000
G1 X50.000000 Y34.080000 E35050.000000
G1 X0.000000 Y34.080000 E35050.000000
G1 X0.000000 Y34.200000 E35100.000000
G1 X50.000000 Y34.200000 E35100.000000
G1 X50.000000 Y34.320000 E35150.000000
G1 X0.000000 Y34.320000 E35150.000000
G1 X0.000000 Y34.440000 E35200.000000
G1 X50.000000 Y34.440000 E35200.000000
G1 X50.000000 Y34.560000 E35250.000000
G1 X0.000000 Y34.560000 E35250.000000
G1 X0.000000 Y34.680000 E35300.000000
G1 X50.000000 Y34.680000 E35300.000000
G1 X50.000000 Y34.800000 E35350.000000
G1 X0.000000 Y34.800000 E35350.000000
G1 X0.000000 Y34.920000 E35400.000000
G1 X50.000000 Y34.920000 E35400.000000
G1 X50.000000 Y35.040000 E35450.000000
G1 X0.000000 Y35.040000 E35450.000000
G1 X0.000000 Y35.160000 E35500.000000
G1 X50.000000 Y35.160000 E35500.000000
G1 X50.000000 Y35.280000 E35550.000000
G1 X0.000000 Y35.280000 E35550.000000
G1 X0.000000 Y35.400000 E35600.000000
G1 X50.000000 Y35.400000 E35600.000000
G1 X50.000000 Y35.520000 E35650.000000
G1 X0.000000 Y35.520000 E35650.000000
G1 X0.000000 Y35.640000 E35700.000000
G1 X50.000000 Y35.640000 E35700.000000
G1 X50.000000 Y35.760000 E35750.000000
G1 X0.000000 Y35.760000 E35750.000000
G1 X0.000000 Y35.880000 E35800.000000
G1 X50.000000 Y35.880000 E35800.000000
G1 X50.000000 Y36.000000 E35850.000000
G1 X0.000000 Y36.000000 E35850.000000
G1 X0.000000 Y36.120000 E35900.000000
G1 X50.000000 Y36.120000 E35900.000000
G1 X50.000000 Y36.240000 E35950.000000
G1 X0.000000 Y36.240000 E35950.000000
G1 X0.000000 Y36.360000 E36000.000000
G1 X50.000000 Y36.360000 E36000.000000
G1 X50.000000 Y36.480000 E36050.000000
G1 X0.000000 Y36.480000 E36050.000000
G1 X0.000000 Y36.600000 E36100.000000
G1 X50.000000 Y36.600000 E36100.000000
G1 X50.000000 Y36.720000 E36150.000000
G1 X0.000000 Y36.720000 E36150.000000
G1 X0.000000 Y36.840000 E36200.000000
G1 X50.000000 Y36.840000 E36200.000000
G1 X50.000000 Y36.960000 E36250.000000
G1 X0.000000 Y36.960000 E36250.000000
G1 X0.000000 Y37.080000 E36300.000000
G1 X50.000000 Y37.080000 E36300.000000
G1 X50.000000 Y37.200000 E36350.000000
G1 X0.000000 Y37.200000 E36350.000000
G1 X0.000000 Y37.320000 E36400.000000
G1 X50.000000 Y37.320000 E36400.000000
G1 X50.000000 Y37.440000 E36450.000000
G1 X0.000000 Y37.440000 E36450.000000
G1 X0.000000 Y37.560000 E36500.000000
G1 X50.000000 Y37.560000 E36500.000000
G1 X50.000000 Y37.680000 E36550.000000
G1 X0.000000 Y37.680000 E36550.000000
G1 X0.000000 Y37.800000 E36600.000000
G1 X50.000000 Y37.800000 E36600.000000
G1 X50.000000 Y37.920000 E36650.000000
G1 X0.000000 Y37.920000 E36650.000000
G1 X0.000000 Y38.040000 E36700.000000
G1 X50.000000 Y38.040000 E36700.000000
G1 X50.000000 Y38.160000 E36750.000000
G1 X0.000000 Y38.160000 E36750.000000
G1 X0.000000 Y38.280000 E36800.000000
G1 X50.000000 Y38.280000 E36800.000000
G1 X50.000000 Y38.400000 E36850.000000
G1 X0.000000 Y38.400000 E36850.000000
G1 X0.000000 Y38.520000 E36900.000000
G1 X50.000000 Y38.520000 E36900.000000
G1 X50.000000 Y38.640000 E36950.000000
G1 X0.000000 Y38.640000 E36950.000000
G1 X0.000000 Y38.760000 E37000.000000
G1 X50.000000 Y38.760000 E37000.000000
G1 X50.000000 Y38.880000 E37050.000000
G1 X0.000000 Y38.880000 E37050.000000
G1 X0.000000 Y39.000000 E37100.000000
G1 X50.000000 Y39.000000 E37100.000000
G1 X50.000000 Y39.120000 E37150.000000
G1 X0.000000 Y39.120000 E37150.000000
G1 X0.000000 Y39.240000 E37200.000000
G1 X50.000000 Y39.240000 E37200.000000
G1 X50.000000 Y39.360000 E37250.000000
G1 X0.000000 Y39.360000 E37250.000000
G1 X0.000000 Y39.480000 E37300.000000
G1 X50.000000 Y39.480000 E37300.000000
G1 X50.000000 Y39.600000 E37350.000000
G1 X0.000000 Y39.600000 E37350.000000
G1 X0.000000 Y39.720000 E37400.000000
G1 X50.000000 Y39.720000 E37400.000000
G1 X50.000000 Y39.840000 E37450.000000
G1 X0.000000 Y39.840000 E37450.000000
G1 X0.000000 Y39.960000 E37500.000000
G1 X50.000000 Y39.960000 E37500.000000
G1 X50.000000 Y40.080000 E37550.000000
G1 X0.000000 Y40.080000 E37550.000000
G1 X0.000000 Y40.200000 E37600.000000
G1 X50.000000 Y40.200000 E37600.000000
G1 X50.000000 Y40.320000 E37650.000000
G1 X0.000000 Y40.320000 E37650.000000
G1 X0.000000 Y40.440000 E37700.000000
G1 X50.000000 Y40.440000 E37700.000000
G1 X50.000000 Y40.560000 E37750.000000
G1 X0.000000 Y40.560000 E37750.000000
G1 X0.000000 Y40.680000 E37800.000000
G1 X50.000000 Y40.680000 E37800.000000
G1 X50.000000 Y40.800000 E37850.000000
G1 X0.000000 Y40.800000 E37850.000000
G1 X0.000000 Y40.920000 E37900.000000
G1 X50.000000 Y40.920000 E37900.000000
G1 X50.000000 Y41.040000 E37950.000000
G1 X0.000000 Y41.040000 E37950.000000
G1 X0.000000 Y41.160000 E38000.000000
G1 X50.000000 Y41.160000 E38000.000000
G1 X50.000000 Y41.280000 E38050.000000
G1 X0.000000 Y41.280000 E38050.000000
G1 X0.000000 Y41.400000 E38100.000000
G1 X50.000000 Y41.400000 E38100.000000
G1 X50.000000 Y41.520000 E38150.000000
G1 X0.000000 Y41.520000 E38150.000000
G1 X0.000000 Y41.640000 E38200.000000
G1 X50.000000 Y41.640000 E38200.000000
G1 X50.000000 Y41.760000 E38250.000000
G1 X0.000000 Y41.760000 E38250.000000
G1 X0.000000 Y41.880000 E38300.000000
G1 X50.000000 Y41.880000 E38300.000000
G1 X50.000000 Y42.000000 E38350.000000
G1 X0.000000 Y42.000000 E38350.000000
G1 X0.000000 Y42.120000 E38400.000000
G1 X50.000000 Y42.120000 E38400.000000
G1 X50.000000 Y42.240000 E38450.000000
G1 X0.000000 Y42.240000 E38450.000000
G1 X0.000000 Y42.360000 E38500.000000
G1 X50.000000 Y42.360000 E38500.000000
G1 X50.000000 Y42.480000 E38550.000000
G1 X0.000000 Y42.480000 E38550.000000
G1 X0.000000 Y42.600000 E38600.000000
G1 X50.000000 Y42.600000 E38600.000000
G1 X50.000000 Y42.720000 E38650.000000
G1 X0.000000 Y42.720000 E38650.000000
G1 X0.000000 Y42.840000 E38700.000000
G1 X50.000000 Y42.840000 E38700.000000
G1 X50.000000 Y42.960000 E38750.000000
G1 X0.000000 Y42.960000 E38750.000000
G1 X0.000000 Y43.080000 E38800.000000
G1 X50.000000 Y43.080000 E38800.000000
G1 X50.000000 Y43.200000 E38850.000000
G1 X0.000000 Y43.200000 E38850.000000
G1 X0.000000 Y43.320000 E38900.000000
G1 X50.000000 Y43.320000 E38900.000000
G1 X50.000000 Y43.440000 E38950.000000
G1 X0.000000 Y43.440000 E38950.000000
G1 X0.000000 Y43.560000 E39000.000000
G1 X50.000000 Y43.560000 E39000.000000
G1 X50.000000 Y43.680000 E39050.000000
G1 X0.000000 Y43.680000 E39050.000000
G1 X0.000000 Y43.800000 E39100.000000
G1 X50.000000 Y43.800000 E39100.000000
G1 X50.000000 Y43.920000 E39150.000000
G1 X0.000000 Y43.920000 E39150.000000
G1 X0.000000 Y44.040000 E39200.000000
G1 X50.000000 Y44.040000 E39200.000000
G1 X50.000000 Y44.160000 E39250.000000
G1 X0.000000 Y44.160000 E39250.000000
G1 X0.000000 Y44.280000 E39300.000000
G1 X50.000000 Y44.280000 E39300.000000
G1 X50.000000 Y44.400000 E39350.000000
G1 X0.000000 Y44.400000 E39350.000000
G1 X0.000000 Y44.520000 E39400.000000
G1 X50.000000 Y44.520000 E39400.000000
G1 X50.000000 Y44.640000 E39450.000000
G1 X0.000000 Y44.640000 E39450.000000
G1 X0.000000 Y44.760000 E39500.000000
G1 X50.000000 Y44.760000 E39500.000000
G1 X50.000000 Y44.880000 E39550.000000
G1 X0.000000 Y44.880000 E39550.000000
G1 X0.000000 Y45.000000 E39600.000000
G1 X50.000000 Y45.000000 E39600.000000
G1 X50.000000 Y45.120000 E39650.000000
G1 X0.000000 Y45.120000 E39650.000000
G1 X0.000000 Y45.240000 E39700.000000
G1 X50.000000 Y45.240000 E39700.000000
G1 X50.000000 Y45.360000 E39750.000000
G1 X0.000000 Y45.360000 E39750.000000
G1 X0.000000 Y45.480000 E39800.000000
G1 X50.000000 Y45.480000 E39800.000000
G1 X50.000000 Y45.600000 E39850.000000
G1 X0.000000 Y45.600000 E39850.000000
G1 X0.000000 Y45.720000 E39900.000000
G1 X50.000000 Y45.720000 E39900.000000
G1 X50.000000 Y45.840000 E39950.000000
G1 X0.000000 Y45.840000 E39950.000000
G1 X0.000000 Y45.960000 E40000.000000
G1 X50.000000 Y45.960000 E40000.000000
G1 X50.000000 Y46.080000 E40050.000000
G1 X0.000000 Y46.080000 E40050.000000
G1 X0.000000 Y46.200000 E40100.000000
G1 X50.000000 Y46.200000 E40100.000000
G1 X50.000000 Y46.320000 E40150.000000
G1 X0.000000 Y46.320000 E40150.000000
G1 X0.000000 Y46.440000 E40200.000000
G1 X50.000000 Y46.440000 E40200.000000
G1 X50.000000 Y46.560000 E40250.000000
G1 X0.000000 Y46.560000 E40250.000000
G1 X0.000000 Y46.680000 E40300.000000
G1 X50.000000 Y46.680000 E40300.000000
G1 X50.000000 Y46.800000 E40350.000000
G1 X0.000000 Y46.800000 E40350.000000
G1 X0.000000 Y46.920000 E40400.000000
G1 X50.000000 Y46.920000 E40400.000000
G1 X50.000000 Y47.040000 E40450.000000
G1 X0.000000 Y47.040000 E40450.000000
G1 X0.000000 Y47.160000 E40500.000000
G1 X50.000000 Y47.160000 E40500.000000
G1 X50.000000 Y47.280000 E40550.000000
G1 X0.000000 Y47.280000 E40550.000000
G1 X0.000000 Y47.400000 E40600.000000
G1 X50.000000 Y47.400000 E40600.000000
G1 X50.000000 Y47.520000 E40650.000000
G1 X0.000000 Y47.520000 E40650.000000
G1 X0.000000 Y47.640000 E40700.000000
G1 X50.000000 Y47.640000 E40700.000000
G1 X50.000000 Y47.760000 E40750.000000
G1 X0.000000 Y47.760000 E40750.000000
G1 X0.000000 Y47.880000 E40800.000000
G1 X50.000000 Y47.880000 E40800.000000
G1 X50.000000 Y48.000000 E40850.000000
G1 X0.000000 Y48.000000 E40850.000000
G1 X0.000000 Y48.120000 E40900.000000
G1 X50.000000 Y48.120000 E40900.000000
G1 X50.000000 Y48.240000 E40950.000000
G1 X0.000000 Y48.240000 E40950.000000
G1 X0.000000 Y48.360000 E41000.000000
G1 X50.000000 Y48.360000 E41000.000000
G1 X50.000000 Y48.480000 E41050.000000
G1 X0.000000 Y48.480000 E41050.000000
G1 X0.000000 Y48.600000 E41100.000000
G1 X50.000000 Y48.600000 E41100.000000
G1 X50.000000 Y48.720000 E41150.000000
G1 X0.000000 Y48.720000 E41150.000000
G1 X0.000000 Y48.840000 E41200.000000
G1 X50.000000 Y48.840000 E41200.000000
G1 X50.000000 Y48.960000 E41250.000000
G1 X0.000000 Y48.960000 E41250.000000
G1 X0.000000 Y49.080000 E41300.000000
G1 X50.000000 Y49.080000 E41300.000000
G1 X50.000000 Y49.200000 E41350.000000
G1 X0.000000 Y49.200000 E41350.000000
G1 X0.000000 Y49.320000 E41400.000000
G1 X50.000000 Y49.320000 E41400.000000
G1 X50.000000 Y49.440000 E41450.000000
G1 X0.000000 Y49.440000 E41450.000000
G1 X0.000000 Y49.560000 E41500.000000
G1 X50.000000 Y49.560000 E41500.000000
G1 X50.000000 Y49.680000 E41550.000000
G1 X0.000000 Y49.680000 E41550.000000
G1 X0.000000 Y49.800000 E41600.000000
G1 X50.000000 Y49.800000 E41600.000000
G1 X50.000000 Y49.920000 E41650.000000
G1 X0.000000 Y49.920000 E41650.000000
G1 X0.000000 Y0.000000 E41700.000000
G1 X50.000000 Y0.000000 E41700.000000
G1 X50.000000 Y0.120000 E41750.000000
G1 X0.000000 Y0.120000 E41750.000000
G1 X0.000000 Y0.240000 E41800.000000
G1 X50.000000 Y0.240000 E41800.000000
G1 X50.000000 Y0.360000 E41850.000000
G1 X0.000000 Y0.360000 E41850.000000
G1 X0.000000 Y0.480000 E41900.000000
G1 X50.000000 Y0.480000 E41900.000000
G1 X50.000000 Y0.600000 E41950.000000
G1 X0.000000 Y0.600000 E41950.000000
G1 X0.000000 Y0.720000 E42000.000000
G1 X50.000000 Y0.720000 E42000.000000
G1 X50.000000 Y0.840000 E42050.000000
G1 X0.000000 Y0.840000 E42050.000000
G1 X0.000000 Y0.960000 E42100.000000
G1 X50.000000 Y0.960000 E42100.000000
G1 X50.000000 Y1.080000 E42150.000000
G1 X0.000000 Y1.080000 E42150.000000
G1 X0.000000 Y1.200000 E42200.000000
G1 X50.000000 Y1.200000 E42200.000000
G1 X50.000000 Y1.320000 E42250.000000
G1 X0.000000 Y1.320000 E42250.000000
G1 X0.000000 Y1.440000 E42300.000000
G1 X50.000000 Y1.440000 E42300.000000
G1 X50.000000 Y1.560000 E42350.000000
G1 X0.000000 Y1.560000 E42350.000000
G1 X0.000000 Y1.680000 E42400.000000
G1 X50.000000 Y1.680000 E42400.000000
G1 X50.000000 Y1.800000 E42450.000000
G1 X0.000000 Y1.800000 E42450.000000
G1 X0.000000 Y1.920000 E42500.000000
G1 X50.000000 Y1.920000 E42500.000000
G1 X50.000000 Y2.040000 E42550.000000
G1 X0.000000 Y2.040000 E42550.000000
G1 X0.000000 Y2.160000 E42600.000000
G1 X50.000000 Y2.160000 E42600.000000
G1 X50.000000 Y2.280000 E42650.000000
G1 X0.000000 Y2.280000 E42650.000000
G1 X0.000000 Y2.400000 E42700.000000
G1 X50.000000 Y2.400000 E42700.000000
G1 X50.000000 Y2.520000 E42750.000000
G1 X0.000000 Y2.520000 E42750.000000
G1 X0.000000 Y2.640000 E42800.000000
G1 X50.000000 Y2.640000 E42800.000000
G1 X50.000000 Y2.760000 E42850.000000
G1 X0.000000 Y2.760000 E42850.000000
G1 X0.000000 Y2.880000 E42900.000000
G1 X50.000000 Y2.880000 E42900.000000
G1 X50.000000 Y3.000000 E42950.000000
G1 X0.000000 Y3.000000 E42950.000000
G1 X0.000000 Y3.120000 E43000.000000
G1 X50.000000 Y3.120000 E43000.000000
G1 X50.000000 Y3.240000 E43050.000000
G1 X0.000000 Y3.240000 E43050.000000
G1 X0.000000 Y3.360000 E43100.000000
G1 X50.000000 Y3.360000 E43100.000000
G1 X50.000000 Y3.480000 E43150.000000
G1 X0.000000 Y3.480000 E43150.000000
G1 X0.000000 Y3.600000 E43200.000000
G1 X50.000000 Y3.600000 E43200.000000
G1 X50.000000 Y3.720000 E43250.000000
G1 X0.000000 Y3.720000 E43250.000000
G1 X0.000000 Y3.840000 E43300.000000
G1 X50.000000 Y3.840000 E43300.000000
G1 X50.000000 Y3.960000 E43350.000000
G1 X0.000000 Y3.960000 E43350.000000
G1 X0.000000 Y4.080000 E43400.000000
G1 X50.000000 Y4.080000 E43400.000000
G1 X50.000000 Y4.200000 E43450.000000
G1 X0.000000 Y4.200000 E43450.000000
G1 X0.000000 Y4.320000 E43500.000000
G1 X50.000000 Y4.320000 E43500.000000
G1 X50.000000 Y4.440000 E43550.000000
G1 X0.000000 Y4.440000 E43550.000000
G1 X0.000000 Y4.560000 E43600.000000
G1 X50.000000 Y4.560000 E43600.000000
G1 X50.000000 Y4.680000 E43650.000000
G1 X0.000000 Y4.680000 E43650.000000
G1 X0.000000 Y4.800000 E43700.000000
G1 X50.000000 Y4.800000 E43700.000000
G1 X50.000000 Y4.920000 E43750.000000
G1 X0.000000 Y4.920000 E43750.000000
G1 X0.000000 Y5.040000 E43800.000000
G1 X50.000000 Y5.040000 E43800.000000
G1 X50.000000 Y5.160000 E43850.000000
G1 X0.000000 Y5.160000 E43850.000000
G1 X0.000000 Y5.280000 E43900.000000
G1 X50.000000 Y5.280000 E43900.000000
G1 X50.000000 Y5.400000 E43950.000000
G1 X0.000000 Y5.400000 E43950.000000
G1 X0.000000 Y5.520000 E44000.000000
G1 X50.000000 Y5.520000 E44000.000000
G1 X50.000000 Y5.640000 E44050.000000
G1 X0.000000 Y5.640000 E44050.000000
G1 X0.000000 Y5.760000 E44100.000000
G1 X50.000000 Y5.760000 E44100.000000
G1 X50.000000 Y5.880000 E44150.000000
G1 X0.000000 Y5.880000 E44150.000000
G1 X0.000000 Y6.000000 E44200.000000
G1 X50.000000 Y6.000000 E44200.000000
G1 X50.000000 Y6.120000 E44250.000000
G1 X0.000000 Y6.120000 E44250.000000
G1 X0.000000 Y6.240000 E44300.000000
G1 X50.000000 Y6.240000 E44300.000000
G1 X50.000000 Y6.360000 E44350.000000
G1 X0.000000 Y6.360000 E44350.000000
G1 X0.000000 Y6.480000 E44400.000000
G1 X50.000000 Y6.480000 E44400.000000
G1 X50.000000 Y6.600000 E44450.000000
G1 X0.000000 Y6.600000 E44450.000000
G1 X0.000000 Y6.720000 E44500.000000
G1 X50.000000 Y6.720000 E44500.000000
G1 X50.000000 Y6.840000 E44550.000000
G1 X0.000000 Y6.840000 E44550.000000
G1 X0.000000 Y6.960000 E44600.000000
G1 X50.000000 Y6.960000 E44600.000000
G1 X50.000000 Y7.080000 E44650.000000
G1 X0.000000 Y7.080000 E44650.000000
G1 X0.000000 Y7.200000 E44700.000000
G1 X50.000000 Y7.200000 E44700.000000
G1 X50.000000 Y7.320000 E44750.000000
G1 X0.000000 Y7.320000 E44750.000000
G1 X0.000000 Y7.440000 E44800.000000
G1 X50.000000 Y7.440000 E44800.000000
G1 X50.000000 Y7.560000 E44850.000000
G1 X0.000000 Y7.560000 E44850.000000
G1 X0.000000 Y7.680000 E44900.000000
G1 X50.000000 Y7.680000 E44900.000000
G1 X50.000000 Y7.800000 E44950.000000
G1 X0.000000 Y7.800000 E44950.000000
G1 X0.000000 Y7.920000 E45000.000000
G1 X50.000000 Y7.920000 E45000.000000
G1 X50.000000 Y8.040000 E45050.000000
G1 X0.000000 Y8.040000 E45050.000000
G1 X0.000000 Y8.160000 E45100.000000
G1 X50.000000 Y8.160000 E45100.000000
G1 X50.000000 Y8.280000 E45150.000000
G1 X0.000000 Y8.280000 E45150.000000
G1 X0.000000 Y8.400000 E45200.000000
G1 X50.000000 Y8.400000 E45200.000000
G1 X50.000000 Y8.520000 E45250.000000
G1 X0.000000 Y8.520000 E45250.000000
G1 X0.000000 Y8.640000 E45300.000000
G1 X50.000000 Y8.640000 E45300.000000
G1 X50.000000 Y8.760000 E45350.000000
G1 X0.000000 Y8.760000 E45350.000000
G1 X0.000000 Y8.880000 E45400.000000
G1 X50.000000 Y8.880000 E45400.000000
G1 X50.000000 Y9.000000 E45450.000000
G1 X0.000000 Y9.000000 E45450.000000
G1 X0.000000 Y9.120000 E45500.000000
G1 X50.000000 Y9.120000 E45500.000000
G1 X50.000000 Y9.240000 E45550.000000
G1 X0.000000 Y9.240000 E45550.000000
G1 X0.000000 Y9.360000 E45600.000000
G1 X50.000000 Y9.360000 E45600.000000
G1 X50.000000 Y9.480000 E45650.000000
G1 X0.000000 Y9.480000 E45650.000000
G1 X0.000000 Y9.600000 E45700.000000
G1 X50.000000 Y9.600000 E45700.000000
G1 X50.000000 Y9.720000 E45750.000000
G1 X0.000000 Y9.720000 E45750.000000
G1 X0.000000 Y9.840000 E45800.000000
G1 X50.000000 Y9.840000 E45800.000000
G1 X50.000000 Y9.960000 E45850.000000
G1 X0.000000 Y9.960000 E45850.000000
G1 X0.000000 Y10.080000 E45900.000000
G1 X50.000000 Y10.080000 E45900.000000
G1 X50.000000 Y10.200000 E45950.000000
G1 X0.000000 Y10.200000 E45950.000000
G1 X0.000000 Y10.320000 E46000.000000
G1 X50.000000 Y10.320000 E46000.000000
G1 X50.000000 Y10.440000 E46050.000000
G1 X0.000000 Y10.440000 E46050.000000
G1 X0.000000 Y10.560000 E46100.000000
G1 X50.000000 Y10.560000 E46100.000000
G1 X50.000000 Y10.680000 E46150.000000
G1 X0.000000 Y10.680000 E46150.000000
G1 X0.000000 Y10.800000 E46200.000000
G1 X50.000000 Y10.800000 E46200.000000
G1 X50.000000 Y10.920000 E46250.000000
G1 X0.000000 Y10.920000 E46250.000000
G1 X0.000000 Y11.040000 E46300.000000
G1 X50.000000 Y11.040000 E46300.000000
G1 X50.000000 Y11.160000 E46350.000000
G1 X0.000000 Y11.160000 E46350.000000
G1 X0.000000 Y11.280000 E46400.000000
G1 X50.000000 Y11.280000 E46400.000000
G1 X50.000000 Y11.400000 E46450.000000
G1 X0.000000 Y11.400000 E46450.000000
G1 X0.000000 Y11.520000 E46500.000000
G1 X50.000000 Y11.520000 E46500.000000
G1 X50.000000 Y11.640000 E46550.000000
G1 X0.000000 Y11.640000 E46550.000000
G1 X0.000000 Y11.760000 E46600.000000
G1 X50.000000 Y11.760000 E46600.000000
G1 X50.000000 Y11.880000 E46650.000000
G1 X0.000000 Y11.880000 E46650.000000
G1 X0.000000 Y12.000000 E46700.000000
G1 X50.000000 Y12.000000 E46700.000000
G1 X50.000000 Y12.120000 E46750.000000
G1 X0.000000 Y12.120000 E46750.000000
G1 X0.000000 Y12.240000 E46800.000000
G1 X50.000000 Y12.240000 E46800.000000
G1 X50.000000 Y12.360000 E46850.000000
G1 X0.000000 Y12.360000 E46850.000000
G1 X0.000000 Y12.480000 E46900.000000
G1 X50.000000 Y12.480000 E46900.000000
G1 X50.000000 Y12.600000 E46950.000000
G1 X0.000000 Y12.600000 E46950.000000
G1 X0.000000 Y12.720000 E47000.000000
G1 X50.000000 Y12.720000 E47000.000000
G1 X50.000000 Y12.840000 E47050.000000
G1 X0.000000 Y12.840000 E47050.000000
G1 X0.000000 Y12.960000 E47100.000000
G1 X50.000000 Y12.960000 E47100.000000
G1 X50.000000 Y13.080000 E47150.000000
G1 X0.000000 Y13.080000 E47150.000000
G1 X0.000000 Y13.200000 E47200.000000
G1 X50.000000 Y13.200000 E47200.000000
G1 X50.000000 Y13.320000 E47250.000000
G1 X0.000000 Y13.320000 E47250.000000
G1 X0.000000 Y13.440000 E47300.000000
G1 X50.000000 Y13.440000 E47300.000000
G1 X50.000000 Y13.560000 E47350.000000
G1 X0.000000 Y13.560000 E47350.000000
G1 X0.000000 Y13.680000 E47400.000000
G1 X50.000000 Y13.680000 E47400.000000
G1 X50.000000 Y13.800000 E47450.000000
G1 X0.000000 Y13.800000 E47450.000000
G1 X0.000000 Y13.920000 E47500.000000
G1 X50.000000 Y13.920000 E47500.000000
G1 X50.000000 Y14.040000 E47550.000000
G1 X0.000000 Y14.040000 E47550.000000
G1 X0.000000 Y14.160000 E47600.000000
G1 X50.000000 Y14.160000 E47600.000000
G1 X50.000000 Y14.280000 E47650.000000
G1 X0.000000 Y14.280000 E47650.000000
G1 X0.000000 Y14.400000 E47700.000000
G1 X50.000000 Y14.400000 E47700.000000
G1 X50.000000 Y14.520000 E47750.000000
G1 X0.000000 Y14.520000 E47750.000000
G1 X0.000000 Y14.640000 E47800.000000
G1 X50.000000 Y14.640000 E47800.000000
G1 X50.000000 Y14.760000 E47850.000000
G1 X0.000000 Y14.760000 E47850.000000
G1 X0.000000 Y14.880000 E47900.000000
G1 X50.000000 Y14.880000 E47900.000000
G1 X50.000000 Y15.000000 E47950.000000
G1 X0.000000 Y15.000000 E47950.000000
G1 X0.000000 Y15.120000 E48000.000000
G1 X50.000000 Y15.120000 E48000.000000
G1 X50.000000 Y15.240000 E48050.000000
G1 X0.000000 Y15.240000 E48050.000000
G1 X0.000000 Y15.360000 E48100.000000
G1 X50.000000 Y15.360000 E48100.000000
G1 X50.000000 Y15.480000 E48150.000000
G1 X0.000000 Y15.480000 E48150.000000
G1 X0.000000 Y15.600000 E48200.000000
G1 X50.000000 Y15.600000 E48200.000000
G1 X50.000000 Y15.720000 E48250.000000
G1 X0.000000 Y15.720000 E48250.000000
G1 X0.000000 Y15.840000 E48300.000000
G1 X50.000000 Y15.840000 E48300.000000
G1 X50.000000 Y15.960000 E48350.000000
G1 X0.000000 Y15.960000 E48350.000000
G1 X0.000000 Y16.080000 E48400.000000
G1 X50.000000 Y16.080000 E48400.000000
G1 X50.000000 Y16.200000 E48450.000000
G1 X0.000000 Y16.200000 E48450.000000
G1 X0.000000 Y16.320000 E48500.000000
G1 X50.000000 Y16.320000 E48500.000000
G1 X50.000000 Y16.440000 E48550.000000
G1 X0.000000 Y16.440000 E48550.000000
G1 X0.000000 Y16.560000 E48600.000000
G1 X50.000000 Y16.560000 E48600.000000
G1 X50.000000 Y16.680000 E48650.000000
G1 X0.000000 Y16.680000 E48650.000000
G1 X0.000000 Y16.800000 E48700.000000
G1 X50.000000 Y16.800000 E48700.000000
G1 X50.000000 Y16.920000 E48750.000000
G1 X0.000000 Y16.920000 E48750.000000
G1 X0.000000 Y17.040000 E48800.000000
G1 X50.000000 Y17.040000 E48800.000000
G1 X50.000000 Y17.160000 E48850.000000
G1 X0.000000 Y17.160000 E48850.000000
G1 X0.000000 Y17.280000 E48900.000000
G1 X50.000000 Y17.280000 E48900.000000
G1 X50.000000 Y17.400000 E48950.000000
G1 X0.000000 Y17.400000 E48950.000000
G1 X0.000000 Y17.520000 E49000.000000
G1 X50.000000 Y17.520000 E49000.000000
G1 X50.000000 Y17.640000 E49050.000000
G1 X0.000000 Y17.640000 E49050.000000
G1 X0.000000 Y17.760000 E49100.000000
G1 X50.000000 Y17.760000 E49100.000000
G1 X50.000000 Y17.880000 E49150.000000
G1 X0.000000 Y17.880000 E49150.000000
G1 X0.000000 Y18.000000 E49200.000000
G1 X50.000000 Y18.000000 E49200.000000
G1 X50.000000 Y18.120000 E49250.000000
G1 X0.000000 Y18.120000 E49250.000000
G1 X0.000000 Y18.240000 E49300.000000
G1 X50.000000 Y18.240000 E49300.000000
G1 X50.000000 Y18.360000 E49350.000000
G1 X0.000000 Y18.360000 E49350.000000
G1 X0.000000 Y18.480000 E49400.000000
G1 X50.000000 Y18.480000 E49400.000000
G1 X50.000000 Y18.600000 E49450.000000
G1 X0.000000 Y18.600000 E49450.000000
G1 X0.000000 Y18.720000 E49500.000000
G1 X50.000000 Y18.720000 E49500.000000
G1 X50.000000 Y18.840000 E49550.000000
G1 X0.000000 Y18.840000 E49550.000000
G1 X0.000000 Y18.960000 E49600.000000
G1 X50.000000 Y18.960000 E49600.000000
G1 X50.000000 Y19.080000 E49650.000000
G1 X0.000000 Y19.080000 E49650.000000
G1 X0.000000 Y19.200000 E49700.000000
G1 X50.000000 Y19.200000 E49700.000000
G1 X50.000000 Y19.320000 E49750.000000
G1 X0.000000 Y19.320000 E49750.000000
G1 X0.000000 Y19.440000 E49800.000000
G1 X50.000000 Y19.440000 E49800.000000
G1 X50.000000 Y19.560000 E49850.000000
G1 X0.000000 Y19.560000 E49850.000000
G1 X0.000000 Y19.680000 E49900.000000
G1 X50.000000 Y19.680000 E49900.000000
G1 X50.000000 Y19.800000 E49950.000000
G1 X0.000000 Y19.800000 E49950.000000
G1 X0.000000 Y19.920000 E50000.000000
G1 X50.000000 Y19.920000 E50000.000000
G1 X50.000000 Y20.040000 E50050.000000
G1 X0.000000 Y20.040000 E50050.000000
G1 X0.000000 Y20.160000 E50100.000000
G1 X50.000000 Y20.160000 E50100.000000
G1 X50.000000 Y20.280000 E50150.000000
G1 X0.000000 Y20.280000 E50150.000000
G1 X0.000000 Y20.400000 E50200.000000
G1 X50.000000 Y20.400000 E50200.000000
G1 X50.000000 Y20.520000 E50250.000000
G1 X0.000000 Y20.520000 E50250.000000
G1 X0.000000 Y20.640000 E50300.000000
G1 X50.000000 Y20.640000 E50300.000000
G1 X50.000000 Y20.760000 E50350.000000
G1 X0.000000 Y20.760000 E50350.000000
G1 X0.000000 Y20.880000 E50400.000000
G1 X50.000000 Y20.880000 E50400.000000
G1 X50.000000 Y21.000000 E50450.000000
G1 X0.000000 Y21.000000 E50450.000000
G1 X0.000000 Y21.120000 E50500.000000
G1 X50.000000 Y21.120000 E50500.000000
G1 X50.000000 Y21.240000 E50550.000000
G1 X0.000000 Y21.240000 E50550.000000
G1 X0.000000 Y21.360000 E50600.000000
G1 X50.000000 Y21.360000 E50600.000000
G1 X50.000000 Y21.480000 E50650.000000
G1 X0.000000 Y21.480000 E50650.000000
G1 X0.000000 Y21.600000 E50700.000000
G1 X50.000000 Y21.600000 E50700.000000
G1 X50.000000 Y21.720000 E50750.000000
G1 X0.000000 Y21.720000 E50750.000000
G1 X0.000000 Y21.840000 E50800.000000
G1 X50.000000 Y21.840000 E50800.000000
G1 X50.000000 Y21.960000 E50850.000000
G1 X0.000000 Y21.960000 E50850.000000
G1 X0.000000 Y22.080000 E50900.000000
G1 X50.000000 Y22.080000 E50900.000000
G1 X50.000000 Y22.200000 E50950.000000
G1 X0.000000 Y22.200000 E50950.000000
G1 X0.000000 Y22.320000 E51000.000000
G1 X50.000000 Y22.320000 E51000.000000
G1 X50.000000 Y22.440000 E51050.000000
G1 X0.000000 Y22.440000 E51050.000000
G1 X0.000000 Y22.560000 E51100.000000
G1 X50.000000 Y22.560000 E51100.000000
G1 X50.000000 Y22.680000 E51150.000000
G1 X0.000000 Y22.680000 E51150.000000
G1 X0.000000 Y22.800000 E51200.000000
G1 X50.000000 Y22.800000 E51200.000000
G1 X50.000000 Y22.920000 E51250.000000
G1 X0.000000 Y22.920000 E51250.000000
G1 X0.000000 Y23.040000 E51300.000000
G1 X50.000000 Y23.040000 E51300.000000
G1 X50.000000 Y23.160000 E51350.000000
G1 X0.000000 Y23.160000 E51350.000000
G1 X0.000000 Y23.280000 E51400.000000
G1 X50.000000 Y23.280000 E51400.000000
G1 X50.000000 Y23.400000 E51450.000000
G1 X0.000000 Y23.400000 E51450.000000
G1 X0.000000 Y23.520000 E51500.000000
G1 X50.000000 Y23.520000 E51500.000000
G1 X50.000000 Y23.640000 E51550.000000
G1 X0.000000 Y23.640000 E51550.000000
G1 X0.000000 Y23.760000 E51600.000000
G1 X50.000000 Y23.760000 E51600.000000
G1 X50.000000 Y23.880000 E51650.000000
G1 X0.000000 Y23.880000 E51650.000000
G1 X0.000000 Y24.000000 E51700.000000
G1 X50.000000 Y24.000000 E51700.000000
G1 X50.000000 Y24.120000 E51750.000000
G1 X0.000000 Y24.120000 E51750.000000
G1 X0.000000 Y24.240000 E51800.000000
G1 X50.000000 Y24.240000 E51800.000000
G1 X50.000000 Y24.360000 E51850.000000
G1 X0.000000 Y24.360000 E51850.000000
G1 X0.000000 Y24.480000 E51900.000000
G1 X50.000000 Y24.480000 E51900.000000
G1 X50.000000 Y24.600000 E51950.000000
G1 X0.000000 Y24.600000 E51950.000000
G1 X0.000000 Y24.720000 E52000.000000
G1 X50.000000 Y24.720000 E52000.000000
G1 X50.000000 Y24.840000 E52050.000000
G1 X0.000000 Y24.840000 E52050.000000
G1 X0.000000 Y24.960000 E52100.000000
G1 X50.000000 Y24.960000 E52100.000000
G1 X50.000000 Y25.080000 E52150.000000
G1 X0.000000 Y25.080000 E52150.000000
G1 X0.000000 Y25.200000 E52200.000000
G1 X50.000000 Y25.200000 E52200.000000
G1 X50.000000 Y25.320000 E52250.000000
G1 X0.000000 Y25.320000 E52250.000000
G1 X0.000000 Y25.440000 E52300.000000
G1 X50.000000 Y25.440000 E52300.000000
G1 X50.000000 Y25.560000 E52350.000000
G1 X0.000000 Y25.560000 E52350.000000
G1 X0.000000 Y25.680000 E52400.000000
G1 X50.000000 Y25.680000 E52400.000000
G1 X50.000000 Y25.800000 E52450.000000
G1 X0.000000 Y25.800000 E52450.000000
G1 X0.000000 Y25.920000 E52500.000000
G1 X50.000000 Y25.920000 E52500.000000
G1 X50.000000 Y26.040000 E52550.000000
G1 X0.000000 Y26.040000 E52550.000000
G1 X0.000000 Y26.160000 E52600.000000
G1 X50.000000 Y26.160000 E52600.000000
G1 X50.000000 Y26.280000 E52650.000000
G1 X0.000000 Y26.280000 E52650.000000
G1 X0.000000 Y26.400000 E52700.000000
G1 X50.000000 Y26.400000 E52700.000000
G1 X50.000000 Y26.520000 E52750.000000
G1 X0.000000 Y26.520000 E52750.000000
G1 X0.000000 Y26.640000 E52800.000000
G1 X50.000000 Y26.640000 E52800.000000
G1 X50.000000 Y26.760000 E52850.000000
G1 X0.000000 Y26.760000 E52850.000000
G1 X0.000000 Y26.880000 E52900.000000
G1 X50.000000 Y26.880000 E52900.000000
G1 X50.000000 Y27.000000 E52950.000000
G1 X0.000000 Y27.000000 E52950.000000
G1 X0.000000 Y27.120000 E53000.000000
G1 X50.000000 Y27.120000 E53000.000000
G1 X50.000000 Y27.240000 E53050.000000
G1 X0.000000 Y27.240000 E53050.000000
G1 X0.000000 Y27.360000 E53100.000000
G1 X50.000000 Y27.360000 E53100.000000
G1 X50.000000 Y27.480000 E53150.000000
G1 X0.000000 Y27.480000 E53150.000000
G1 X0.000000 Y27.600000 E53200.000000
G1 X50.000000 Y27.600000 E53200.000000
G1 X50.000000 Y27.720000 E53250.000000
G1 X0.000000 Y27.720000 E53250.000000
G1 X0.000000 Y27.840000 E53300.000000
G1 X50.000000 Y27.840000 E53300.000000
G1 X50.000000 Y27.960000 E53350.000000
G1 X0.000000 Y27.960000 E53350.000000
G1 X0.000000 Y28.080000 E53400.000000
G1 X50.000000 Y28.080000 E53400.000000
G1 X50.000000 Y28.200000 E53450.000000
G1 X0.000000 Y28.200000 E53450.000000
G1 X0.000000 Y28.320000 E53500.000000
G1 X50.000000 Y28.320000 E53500.000000
G1 X50.000000 Y28.440000 E53550.000000
G1 X0.000000 Y28.440000 E53550.000000
G1 X0.000000 Y28.560000 E53600.000000
G1 X50.000000 Y28.560000 E53600.000000
G1 X50.000000 Y28.680000 E53650.000000
G1 X0.000000 Y28.680000 E53650.000000
G1 X0.000000 Y28.800000 E53700.000000
G1 X50.000000 Y28.800000 E53700.000000
G1 X50.000000 Y28.920000 E53750.000000
G1 X0.000000 Y28.920000 E53750.000000
G1 X0.000000 Y29.040000 E53800.000000
G1 X50.000000 Y29.040000 E53800.000000
G1 X50.000000 Y29.160000 E53850.000000
G1 X0.000000 Y29.160000 E53850.000000
G1 X0.000000 Y29.280000 E53900.000000
G1 X50.000000 Y29.280000 E53900.000000
G1 X50.000000 Y29.400000 E53950.000000
G1 X0.000000 Y29.400000 E53950.000000
G1 X0.000000 Y29.520000 E54000.000000
G1 X50.000000 Y29.520000 E54000.000000
G1 X50.000000 Y29.640000 E54050.000000
G1 X0.000000 Y29.640000 E54050.000000
G1 X0.000000 Y29.760000 E54100.000000
G1 X50.000000 Y29.760000 E54100.000000
G1 X50.000000 Y29.880000 E54150.000000
G1 X0.000000 Y29.880000 E54150.000000
G1 X0.000000 Y30.000000 E54200.000000
G1 X50.000000 Y30.000000 E54200.000000
G1 X50.000000 Y30.120000 E54250.000000
G1 X0.000000 Y30.120000 E54250.000000
G1 X0.000000 Y30.240000 E54300.000000
G1 X50.000000 Y30.240000 E54300.000000
G1 X50.000000 Y30.360000 E54350.000000
G1 X0.000000 Y30.360000 E54350.000000
G1 X0.000000 Y30.480000 E54400.000000
G1 X50.000000 Y30.480000 E54400.000000
G1 X50.000000 Y30.600000 E54450.000000
G1 X0.000000 Y30.600000 E54450.000000
G1 X0.000000 Y30.720000 E54500.000000
G1 X50.000000 Y30.720000 E54500.000000
G1 X50.000000 Y30.840000 E54550.000000
G1 X0.000000 Y30.840000 E54550.000000
G1 X0.000000 Y30.960000 E54600.000000
G1 X50.000000 Y30.960000 E54600.000000
G1 X50.000000 Y31.080000 E54650.000000
G1 X0.000000 Y31.080000 E54650.000000
G1 X0.000000 Y31.200000 E54700.000000
G1 X50.000000 Y31.200000 E54700.000000
G1 X50.000000 Y31.320000 E54750.000000
G1 X0.000000 Y31.320000 E54750.000000
G1 X0.000000 Y31.440000 E54800.000000
G1 X50.000000 Y31.440000 E54800.000000
G1 X50.000000 Y31.560000 E54850.000000
G1 X0.000000 Y31.560000 E54850.000000
G1 X0.000000 Y31.680000 E54900.000000
G1 X50.000000 Y31.680000 E54900.000000
G1 X50.000000 Y31.800000 E54950.000000
G1 X0.000000 Y31.800000 E54950.000000
G1 X0.000000 Y31.920000 E55000.000000
G1 X50.000000 Y31.920000 E55000.000000
G1 X50.000000 Y32.040000 E55050.000000
G1 X0.000000 Y32.040000 E55050.000000
G1 X0.000000 Y32.160000 E55100.000000
G1 X50.000000 Y32.160000 E55100.000000
G1 X50.000000 Y32.280000 E55150.000000
G1 X0.000000 Y32.280000 E55150.000000
G1 X0.000000 Y32.400000 E55200.000000
G1 X50.000000 Y32.400000 E55200.000000
G1 X50.000000 Y32.520000 E55250.000000
G1 X0.000000 Y32.520000 E55250.000000
G1 X0.000000 Y32.640000 E55300.000000
G1 X50.000000 Y32.640000 E55300.000000
G1 X50.000000 Y32.760000 E55350.000000
G1 X0.000000 Y32.760000 E55350.000000
G1 X0.000000 Y32.880000 E55400.000000
G1 X50.000000 Y32.880000 E55400.000000
G1 X50.000000 Y33.000000 E55450.000000
G1 X0.000000 Y33.000000 E55450.000000
G1 X0.000000 Y33.120000 E55500.000000
G1 X50.000000 Y33.120000 E55500.000000
G1 X50.000000 Y33.240000 E55550.000000
G1 X0.000000 Y33.240000 E55550.000000
G1 X0.000000 Y33.360000 E55600.000000
G1 X50.000000 Y33.360000 E55600.000000
G1 X50.000000 Y33.480000 E55650.000000
G1 X0.000000 Y33.480000 E55650.000000
G1 X0.000000 Y33.600000 E55700.000000
G1 X50.000000 Y33.600000 E55700.000000
G1 X50.000000 Y33.720000 E55750.000000
G1 X0.000000 Y33.720000 E55750.000000
G1 X0.000000 Y33.840000 E55800.000000
G1 X50.000000 Y33.840000 E55800.000000
G1 X50.000000 Y33.960000 E55850.000000
G1 X0.000000 Y33.960000 E55850.000000
G1 X0.000000 Y34.080000 E55900.000000
G1 X50.000000 Y34.080000 E55900.000000
G1 X50.000000 Y34.200000 E55950.000000
G1 X0.000000 Y34.200000 E55950.000000
G1 X0.000000 Y34.320000 E56000.000000
G1 X50.000000 Y34.320000 E56000.000000
G1 X50.000000 Y34.440000 E56050.000000
G1 X0.000000 Y34.440000 E56050.000000
G1 X0.000000 Y34.560000 E56100.000000
G1 X50.000000 Y34.560000 E56100.000000
G1 X50.000000 Y34.680000 E56150.000000
G1 X0.000000 Y34.680000 E56150.000000
G1 X0.000000 Y34.800000 E56200.000000
G1 X50.000000 Y34.800000 E56200.000000
G1 X50.000000 Y34.920000 E56250.000000
G1 X0.000000 Y34.920000 E56250.000000
G1 X0.000000 Y35.040000 E56300.000000
G1 X50.000000 Y35.040000 E56300.000000
G1 X50.000000 Y35.160000 E56350.000000
G1 X0.000000 Y35.160000 E56350.000000
G1 X0.000000 Y35.280000 E56400.000000
G1 X50.000000 Y35.280000 E56400.000000
G1 X50.000000 Y35.400000 E56450.000000
G1 X0.000000 Y35.400000 E56450.000000
G1 X0.000000 Y35.520000 E56500.000000
G1 X50.000000 Y35.520000 E56500.000000
G1 X50.000000 Y35.640000 E56550.000000
G1 X0.000000 Y35.640000 E56550.000000
G1 X0.000000 Y35.760000 E56600.000000
G1 X50.000000 Y35.760000 E56600.000000
G1 X50.000000 Y35.880000 E56650.000000
G1 X0.000000 Y35.880000 E56650.000000
G1 X0.000000 Y36.000000 E56700.000000
G1 X50.000000 Y36.000000 E56700.000000
G1 X50.000000 Y36.120000 E56750.000000
G1 X0.000000 Y36.120000 E56750.000000
G1 X0.000000 Y36.240000 E56800.000000
G1 X50.000000 Y36.240000 E56800.000000
G1 X50.000000 Y36.360000 E56850.000000
G1 X0.000000 Y36.360000 E56850.000000
G1 X0.000000 Y36.480000 E56900.000000
G1 X50.000000 Y36.480000 E56900.000000
G1 X50.000000 Y36.600000 E56950.000000
G1 X0.000000 Y36.600000 E56950.000000
G1 X0.000000 Y36.720000 E57000.000000
G1 X50.000000 Y36.720000 E57000.000000
G1 X50.000000 Y36.840000 E57050.000000
G1 X0.000000 Y36.840000 E57050.000000
G1 X0.000000 Y36.960000 E57100.000000
G1 X50.000000 Y36.960000 E57100.000000
G1 X50.000000 Y37.080000 E57150.000000
G1 X0.000000 Y37.080000 E57150.000000
G1 X0.000000 Y37.200000 E57200.000000
G1 X50.000000 Y37.200000 E57200.000000
G1 X50.000000 Y37.320000 E57250.000000
G1 X0.000000 Y37.320000 E57250.000000
G1 X0.000000 Y37.440000 E57300.000000
G1 X50.000000 Y37.440000 E57300.000000
G1 X50.000000 Y37.560000 E57350.000000
G1 X0.000000 Y37.560000 E57350.000000
G1 X0.000000 Y37.680000 E57400.000000
G1 X50.000000 Y37.680000 E57400.000000
G1 X50.000000 Y37.800000 E57450.000000
G1 X0.000000 Y37.800000 E57450.000000
G1 X0.000000 Y37.920000 E57500.000000
G1 X50.000000 Y37.920000 E57500.000000
G1 X50.000000 Y38.040000 E57550.000000
G1 X0.000000 Y38.040000 E57550.000000
G1 X0.000000 Y38.160000 E57600.000000
G1 X50.000000 Y38.160000 E57600.000000
G1 X50.000000 Y38.280000 E57650.000000
G1 X0.000000 Y38.280000 E57650.000000
G1 X0.000000 Y38.400000 E57700.000000
G1 X50.000000 Y38.400000 E57700.000000
G1 X50.000000 Y38.520000 E57750.000000
G1 X0.000000 Y38.520000 E57750.000000
G1 X0.000000 Y38.640000 E57800.000000
G1 X50.000000 Y38.640000 E57800.000000
G1 X50.000000 Y38.760000 E57850.000000
G1 X0.000000 Y38.760000 E57850.000000
G1 X0.000000 Y38.880000 E57900.000000
G1 X50.000000 Y38.880000 E57900.000000
G1 X50.000000 Y39.000000 E57950.000000
G1 X0.000000 Y39.000000 E57950.000000
G1 X0.000000 Y39.120000 E58000.000000
G1 X50.000000 Y39.120000 E58000.000000
G1 X50.000000 Y39.240000 E58050.000000
G1 X0.000000 Y39.240000 E58050.000000
G1 X0.000000 Y39.360000 E58100.000000
G1 X50.000000 Y39.360000 E58100.000000
G1 X50.000000 Y39.480000 E58150.000000
G1 X0.000000 Y39.480000 E58150.000000
G1 X0.000000 Y39.600000 E58200.000000
G1 X50.000000 Y39.600000 E58200.000000
G1 X50.000000 Y39.720000 E58250.000000
G1 X0.000000 Y39.720000 E58250.000000
G1 X0.000000 Y39.840000 E58300.000000
G1 X50.000000 Y39.840000 E58300.000000
G1 X50.000000 Y39.960000 E58350.000000
G1 X0.000000 Y39.960000 E58350.000000
G1 X0.000000 Y40.080000 E58400.000000
G1 X50.000000 Y40.080000 E58400.000000
G1 X50.000000 Y40.200000 E58450.000000
G1 X0.000000 Y40.200000 E58450.000000
G1 X0.000000 Y40.320000 E58500.000000
G1 X50.000000 Y40.320000 E58500.000000
G1 X50.000000 Y40.440000 E58550.000000
G1 X0.000000 Y40.440000 E58550.000000
G1 X0.000000 Y40.560000 E58600.000000
G1 X50.000000 Y40.560000 E58600.000000
G1 X50.000000 Y40.680000 E58650.000000
G1 X0.000000 Y40.680000 E58650.000000
G1 X0.000000 Y40.800000 E58700.000000
G1 X50.000000 Y40.800000 E58700.000000
G1 X50.000000 Y40.920000 E58750.000000
G1 X0.000000 Y40.920000 E58750.000000
G1 X0.000000 Y41.040000 E58800.000000
G1 X50.000000 Y41.040000 E58800.000000
G1 X50.000000 Y41.160000 E58850.000000
G1 X0.000000 Y41.160000 E58850.000000
G1 X0.000000 Y41.280000 E58900.000000
G1 X50.000000 Y41.280000 E58900.000000
G1 X50.000000 Y41.400000 E58950.000000
G1 X0.000000 Y41.400000 E58950.000000
G1 X0.000000 Y41.520000 E59000.000000
G1 X50.000000 Y41.520000 E59000.000000
G1 X50.000000 Y41.640000 E59050.000000
G1 X0.000000 Y41.640000 E59050.000000
G1 X0.000000 Y41.760000 E59100.000000
G1 X50.000000 Y41.760000 E59100.000000
G1 X50.000000 Y41.880000 E59150.000000
G1 X0.000000 Y41.880000 E59150.000000
G1 X0.000000 Y42.000000 E59200.000000
G1 X50.000000 Y42.000000 E59200.000000
G1 X50.000000 Y42.120000 E59250.000000
G1 X0.000000 Y42.120000 E59250.000000
G1 X0.000000 Y42.240000 E59300.000000
G1 X50.000000 Y42.240000 E59300.000000
G1 X50.000000 Y42.360000 E59350.000000
G1 X0.000000 Y42.360000 E59350.000000
G1 X0.000000 Y42.480000 E59400.000000
G1 X50.000000 Y42.480000 E59400.000000
G1 X50.000000 Y42.600000 E59450.000000
G1 X0.000000 Y42.600000 E59450.000000
G1 X0.000000 Y42.720000 E59500.000000
G1 X50.000000 Y42.720000 E59500.000000
G1 X50.000000 Y42.840000 E59550.000000
G1 X0.000000 Y42.840000 E59550.000000
G1 X0.000000 Y42.960000 E59600.000000
G1 X50.000000 Y42.960000 E59600.000000
G1 X50.000000 Y43.080000 E59650.000000
G1 X0.000000 Y43.080000 E59650.000000
G1 X0.000000 Y43.200000 E59700.000000
G1 X50.000000 Y43.200000 E59700.000000
G1 X50.000000 Y43.320000 E59750.000000
G1 X0.000000 Y43.320000 E59750.000000
G1 X0.000000 Y43.440000 E59800.000000
G1 X50.000000 Y43.440000 E59800.000000
G1 X50.000000 Y43.560000 E59850.000000
G1 X0.000000 Y43.560000 E59850.000000
G1 X0.000000 Y43.680000 E59900.000000
G1 X50.000000 Y43.680000 E59900.000000
G1 X50.000000 Y43.800000 E59950.000000
G1 X0.000000 Y43.800000 E59950.000000
G1 X0.000000 Y43.920000 E60000.000000
G1 X50.000000 Y43.920000 E60000.000000
G1 X50.000000 Y44.040000 E60050.000000
G1 X0.000000 Y44.040000 E60050.000000
G1 X0.000000 Y44.160000 E60100.000000
G1 X50.000000 Y44.160000 E60100.000000
G1 X50.000000 Y44.280000 E60150.000000
G1 X0.000000 Y44.280000 E60150.000000
G1 X0.000000 Y44.400000 E60200.000000
G1 X50.000000 Y44.400000 E60200.000000
G1 X50.000000 Y44.520000 E60250.000000
G1 X0.000000 Y44.520000 E60250.000000
G1 X0.000000 Y44.640000 E60300.000000
G1 X50.000000 Y44.640000 E60300.000000
G1 X50.000000 Y44.760000 E60350.000000
G1 X0.000000 Y44.760000 E60350.000000
G1 X0.000000 Y44.880000 E60400.000000
G1 X50.000000 Y44.880000 E60400.000000
G1 X50.000000 Y45.000000 E60450.000000
G1 X0.000000 Y45.000000 E60450.000000
G1 X0.000000 Y45.120000 E60500.000000
G1 X50.000000 Y45.120000 E60500.000000
G1 X50.000000 Y45.240000 E60550.000000
G1 X0.000000 Y45.240000 E60550.000000
G1 X0.000000 Y45.360000 E60600.000000
G1 X50.000000 Y45.360000 E60600.000000
G1 X50.000000 Y45.480000 E60650.000000
G1 X0.000000 Y45.480000 E60650.000000
G1 X0.000000 Y45.600000 E60700.000000
G1 X50.000000 Y45.600000 E60700.000000
G1 X50.000000 Y45.720000 E60750.000000
G1 X0.000000 Y45.720000 E60750.000000
G1 X0.000000 Y45.840000 E60800.000000
G1 X50.000000 Y45.840000 E60800.000000
G1 X50.000000 Y45.960000 E60850.000000
G1 X0.000000 Y45.960000 E60850.000000
G1 X0.000000 Y46.080000 E60900.000000
G1 X50.000000 Y46.080000 E60900.000000
G1 X50.000000 Y46.200000 E60950.000000
G1 X0.000000 Y46.200000 E60950.000000
G1 X0.000000 Y46.320000 E61000.000000
G1 X50.000000 Y46.320000 E61000.000000
G1 X50.000000 Y46.440000 E61050.000000
G1 X0.000000 Y46.440000 E61050.000000
G1 X0.000000 Y46.560000 E61100.000000
G1 X50.000000 Y46.560000 E61100.000000
G1 X50.000000 Y46.680000 E61150.000000
G1 X0.000000 Y46.680000 E61150.000000
G1 X0.000000 Y46.800000 E61200.000000
G1 X50.000000 Y46.800000 E61200.000000
G1 X50.000000 Y46.920000 E61250.000000
G1 X0.000000 Y46.920000 E61250.000000
G1 X0.000000 Y47.040000 E61300.000000
G1 X50.000000 Y47.040000 E61300.000000
G1 X50.000000 Y47.160000 E61350.000000
G1 X0.000000 Y47.160000 E61350.000000
G1 X0.000000 Y47.280000 E61400.000000
G1 X50.000000 Y47.280000 E61400.000000
G1 X50.000000 Y47.400000 E61450.000000
G1 X0.000000 Y47.400000 E61450.000000
G1 X0.000000 Y47.520000 E61500.000000
G1 X50.000000 Y47.520000 E61500.000000
G1 X50.000000 Y47.640000 E61550.000000
G1 X0.000000 Y47.640000 E61550.000000
G1 X0.000000 Y47.760000 E61600.000000
G1 X50.000000 Y47.760000 E61600.000000
G1 X50.000000 Y47.880000 E61650.000000
G1 X0.000000 Y47.880000 E61650.000000
G1 X0.000000 Y48.000000 E61700.000000
G1 X50.000000 Y48.000000 E61700.000000
G1 X50.000000 Y48.120000 E61750.000000
G1 X0.000000 Y48.120000 E61750.000000
G1 X0.000000 Y48.240000 E61800.000000
G1 X50.000000 Y48.240000 E61800.000000
G1 X50.000000 Y48.360000 E61850.000000
G1 X0.000000 Y48.360000 E61850.000000
G1 X0.000000 Y48.480000 E61900.000000
G1 X50.000000 Y48.480000 E61900.000000
G1 X50.000000 Y48.600000 E61950.000000
G1 X0.000000 Y48.600000 E61950.000000
G1 X0.000000 Y48.720000 E62000.000000
G1 X50.000000 Y48.720000 E62000.000000
G1 X50.000000 Y48.840000 E62050.000000
G1 X0.000000 Y48.840000 E62050.000000
G1 X0.000000 Y48.960000 E62100.000000
G1 X50.000000 Y48.960000 E62100.000000
G1 X50.000000 Y49.080000 E62150.000000
G1 X0.000000 Y49.080000 E62150.000000
G1 X0.000000 Y49.200000 E62200.000000
G1 X50.000000 Y49.200000 E62200.000000
G1 X50.000000 Y49.320000 E62250.000000
G1 X0.000000 Y49.320000 E62250.000000
G1 X0.000000 Y49.440000 E62300.000000
G1 X50.000000 Y49.440000 E62300.000000
G1 X50.000000 Y49.560000 E62350.000000
G1 X0.000000 Y49.560000 E62350.000000
G1 X0.000000 Y49.680000 E62400.000000
G1 X50.000000 Y49.680000 E62400.000000
G1 X50.000000 Y49.800000 E62450.000000
G1 X0.000000 Y49.800000 E62450.000000
G1 X0.000000 Y49.920000 E62500.000000
G1 X50.000000 Y49.920000 E62500.000000
G1 X50.000000 Y0.000000 E62550.000000
G1 X0.000000 Y0.000000 E62550.000000
G1 X0.000000 Y0.120000 E62600.000000
G1 X50.000000 Y0.120000 E62600.000000
G1 X50.000000 Y0.240000 E62650.000000
G1 X0.000000 Y0.240000 E62650.000000
G1 X0.000000 Y0.360000 E62700.000000
G1 X50.000000 Y0.360000 E62700.000000
G1 X50.000000 Y0.480000 E62750.000000
G1 X0.000000 Y0.480000 E62750.000000
G1 X0.000000 Y0.600000 E62800.000000
G1 X50.000000 Y0.600000 E62800.000000
G1 X50.000000 Y0.720000 E62850.000000
G1 X0.000000 Y0.720000 E62850.000000
G1 X0.000000 Y0.840000 E62900.000000
G1 X50.000000 Y0.840000 E62900.000000
G1 X50.000000 Y0.960000 E62950.000000
G1 X0.000000 Y0.960000 E62950.000000
G1 X0.000000 Y1.080000 E63000.000000
G1 X50.000000 Y1.080000 E63000.000000
G1 X50.000000 Y1.200000 E63050.000000
G1 X0.000000 Y1.200000 E63050.000000
G1 X0.000000 Y1.320000 E63100.000000
G1 X50.000000 Y1.320000 E63100.000000
G1 X50.000000 Y1.440000 E63150.000000
G1 X0.000000 Y1.440000 E63150.000000
G1 X0.000000 Y1.560000 E63200.000000
G1 X50.000000 Y1.560000 E63200.000000
G1 X50.000000 Y1.680000 E63250.000000
G1 X0.000000 Y1.680000 E63250.000000
G1 X0.000000 Y1.800000 E63300.000000
G1 X50.000000 Y1.800000 E63300.000000
G1 X50.000000 Y1.920000 E63350.000000
G1 X0.000000 Y1.920000 E63350.000000
G1 X0.000000 Y2.040000 E63400.000000
G1 X50.000000 Y2.040000 E63400.000000
G1 X50.000000 Y2.160000 E63450.000000
G1 X0.000000 Y2.160000 E63450.000000
G1 X0.000000 Y2.280000 E63500.000000
G1 X50.000000 Y2.280000 E63500.000000
G1 X50.000000 Y2.400000 E63550.000000
G1 X0.000000 Y2.400000 E63550.000000
G1 X0.000000 Y2.520000 E63600.000000
G1 X50.000000 Y2.520000 E63600.000000
G1 X50.000000 Y2.640000 E63650.000000
G1 X0.000000 Y2.640000 E63650.000000
G1 X0.000000 Y2.760000 E63700.000000
G1 X50.000000 Y2.760000 E63700.000000
G1 X50.000000 Y2.880000 E63750.000000
G1 X0.000000 Y2.880000 E63750.000000
G1 X0.000000 Y3.000000 E63800.000000
G1 X50.000000 Y3.000000 E63800.000000
G1 X50.000000 Y3.120000 E63850.000000
G1 X0.000000 Y3.120000 E63850.000000
G1 X0.000000 Y3.240000 E63900.000000
G1 X50.000000 Y3.240000 E63900.000000
G1 X50.000000 Y3.360000 E63950.000000
G1 X0.000000 Y3.360000 E63950.000000
G1 X0.000000 Y3.480000 E64000.000000
G1 X50.000000 Y3.480000 E64000.000000
G1 X50.000000 Y3.600000 E64050.000000
G1 X0.000000 Y3.600000 E64050.000000
G1 X0.000000 Y3.720000 E64100.000000
G1 X50.000000 Y3.720000 E64100.000000
G1 X50.000000 Y3.840000 E64150.000000
G1 X0.000000 Y3.840000 E64150.000000
G1 X0.000000 Y3.960000 E64200.000000
G1 X50.000000 Y3.960000 E64200.000000
G1 X50.000000 Y4.080000 E64250.000000
G1 X0.000000 Y4.080000 E64250.000000
G1 X0.000000 Y4.200000 E64300.000000
G1 X50.000000 Y4.200000 E64300.000000
G1 X50.000000 Y4.320000 E64350.000000
G1 X0.000000 Y4.320000 E64350.000000
G1 X0.000000 Y4.440000 E64400.000000
G1 X50.000000 Y4.440000 E64400.000000
G1 X50.000000 Y4.560000 E64450.000000
G1 X0.000000 Y4.560000 E64450.000000
G1 X0.000000 Y4.680000 E64500.000000
G1 X50.000000 Y4.680000 E64500.000000
G1 X50.000000 Y4.800000 E64550.000000
G1 X0.000000 Y4.800000 E64550.000000
G1 X0.000000 Y4.920000 E64600.000000
G1 X50.000000 Y4.920000 E64600.000000
G1 X50.000000 Y5.040000 E64650.000000
G1 X0.000000 Y5.040000 E64650.000000
G1 X0.000000 Y5.160000 E64700.000000
G1 X50.000000 Y5.160000 E64700.000000
G1 X50.000000 Y5.280000 E64750.000000
G1 X0.000000 Y5.280000 E64750.000000
G1 X0.000000 Y5.400000 E64800.000000
G1 X50.000000 Y5.400000 E64800.000000
G1 X50.000000 Y5.520000 E64850.000000
G1 X0.000000 Y5.520000 E64850.000000
G1 X0.000000 Y5.640000 E64900.000000
G1 X50.000000 Y5.640000 E64900.000000
G1 X50.000000 Y5.760000 E64950.000000
G1 X0.000000 Y5.760000 E64950.000000
G1 X0.000000 Y5.880000 E65000.000000
G1 X50.000000 Y5.880000 E65000.000000
G1 X50.000000 Y6.000000 E65050.000000
G1 X0.000000 Y6.000000 E65050.000000
G1 X0.000000 Y6.120000 E65100.000000
G1 X50.000000 Y6.120000 E65100.000000
G1 X50.000000 Y6.240000 E65150.000000
G1 X0.000000 Y6.240000 E65150.000000
G1 X0.000000 Y6.360000 E65200.000000
G1 X50.000000 Y6.360000 E65200.000000
G1 X50.000000 Y6.480000 E65250.000000
G1 X0.000000 Y6.480000 E65250.000000
G1 X0.000000 Y6.600000 E65300.000000
G1 X50.000000 Y6.600000 E65300.000000
G1 X50.000000 Y6.720000 E65350.000000
G1 X0.000000 Y6.720000 E65350.000000
