;FLAVOR:Marlin
;TIME:52150
;Filament used: 1.04025m
;Layer height: 0.12
;MINX:2.699
;MINY:12.696
;MINZ:0.12
;MAXX:52.3
;MAXY:62.304
;MAXZ:2.04
;Generated with Cura_SteamEngine 5.3.1
M105
M109 S0
M82 ;absolute extrusion mode

G92 E0
G92 E0
G1 F2700 E-5
;LAYER_COUNT:1
;LAYER:0
M107
;MESH:film_square_1mm.STL

G1 F120.000000 E0
G1 X0.000000 Y0.000000 E0.000000
G1 X30.000000 Y0.000000 E0.000000
G1 X30.000000 Y0.120000 E30.000000
G1 X0.000000 Y0.120000 E30.000000
G1 X0.000000 Y0.240000 E60.000000
G1 X30.000000 Y0.240000 E60.000000
G1 X30.000000 Y0.360000 E90.000000
G1 X0.000000 Y0.360000 E90.000000
G1 X0.000000 Y0.480000 E120.000000
G1 X30.000000 Y0.480000 E120.000000
G1 X30.000000 Y0.600000 E150.000000
G1 X0.000000 Y0.600000 E150.000000
G1 X0.000000 Y0.720000 E180.000000
G1 X30.000000 Y0.720000 E180.000000
G1 X30.000000 Y0.840000 E210.000000
G1 X0.000000 Y0.840000 E210.000000
G1 X0.000000 Y0.960000 E240.000000
G1 X30.000000 Y0.960000 E240.000000
G1 X30.000000 Y1.080000 E270.000000
G1 X0.000000 Y1.080000 E270.000000
G1 X0.000000 Y1.200000 E300.000000
G1 X30.000000 Y1.200000 E300.000000
G1 X30.000000 Y1.320000 E330.000000
G1 X0.000000 Y1.320000 E330.000000
G1 X0.000000 Y1.440000 E360.000000
G1 X30.000000 Y1.440000 E360.000000
G1 X30.000000 Y1.560000 E390.000000
G1 X0.000000 Y1.560000 E390.000000
G1 X0.000000 Y1.680000 E420.000000
G1 X30.000000 Y1.680000 E420.000000
G1 X30.000000 Y1.800000 E450.000000
G1 X0.000000 Y1.800000 E450.000000
G1 X0.000000 Y1.920000 E480.000000
G1 X30.000000 Y1.920000 E480.000000
G1 X30.000000 Y2.040000 E510.000000
G1 X0.000000 Y2.040000 E510.000000
G1 X0.000000 Y2.160000 E540.000000
G1 X30.000000 Y2.160000 E540.000000
G1 X30.000000 Y2.280000 E570.000000
G1 X0.000000 Y2.280000 E570.000000
G1 X0.000000 Y2.400000 E600.000000
G1 X30.000000 Y2.400000 E600.000000
G1 X30.000000 Y2.520000 E630.000000
G1 X0.000000 Y2.520000 E630.000000
G1 X0.000000 Y2.640000 E660.000000
G1 X30.000000 Y2.640000 E660.000000
G1 X30.000000 Y2.760000 E690.000000
G1 X0.000000 Y2.760000 E690.000000
G1 X0.000000 Y2.880000 E720.000000
G1 X30.000000 Y2.880000 E720.000000
G1 X30.000000 Y3.000000 E750.000000
G1 X0.000000 Y3.000000 E750.000000
G1 X0.000000 Y3.120000 E780.000000
G1 X30.000000 Y3.120000 E780.000000
G1 X30.000000 Y3.240000 E810.000000
G1 X0.000000 Y3.240000 E810.000000
G1 X0.000000 Y3.360000 E840.000000
G1 X30.000000 Y3.360000 E840.000000
G1 X30.000000 Y3.480000 E870.000000
G1 X0.000000 Y3.480000 E870.000000
G1 X0.000000 Y3.600000 E900.000000
G1 X30.000000 Y3.600000 E900.000000
G1 X30.000000 Y3.720000 E930.000000
G1 X0.000000 Y3.720000 E930.000000
G1 X0.000000 Y3.840000 E960.000000
G1 X30.000000 Y3.840000 E960.000000
G1 X30.000000 Y3.960000 E990.000000
G1 X0.000000 Y3.960000 E990.000000
G1 X0.000000 Y4.080000 E1020.000000
G1 X30.000000 Y4.080000 E1020.000000
G1 X30.000000 Y4.200000 E1050.000000
G1 X0.000000 Y4.200000 E1050.000000
G1 X0.000000 Y4.320000 E1080.000000
G1 X30.000000 Y4.320000 E1080.000000
G1 X30.000000 Y4.440000 E1110.000000
G1 X0.000000 Y4.440000 E1110.000000
G1 X0.000000 Y4.560000 E1140.000000
G1 X30.000000 Y4.560000 E1140.000000
G1 X30.000000 Y4.680000 E1170.000000
G1 X0.000000 Y4.680000 E1170.000000
G1 X0.000000 Y4.800000 E1200.000000
G1 X30.000000 Y4.800000 E1200.000000
G1 X30.000000 Y4.920000 E1230.000000
G1 X0.000000 Y4.920000 E1230.000000
G1 X0.000000 Y5.040000 E1260.000000
G1 X30.000000 Y5.040000 E1260.000000
G1 X30.000000 Y5.160000 E1290.000000
G1 X0.000000 Y5.160000 E1290.000000
G1 X0.000000 Y5.280000 E1320.000000
G1 X30.000000 Y5.280000 E1320.000000
G1 X30.000000 Y5.400000 E1350.000000
G1 X0.000000 Y5.400000 E1350.000000
G1 X0.000000 Y5.520000 E1380.000000
G1 X30.000000 Y5.520000 E1380.000000
G1 X30.000000 Y5.640000 E1410.000000
G1 X0.000000 Y5.640000 E1410.000000
G1 X0.000000 Y5.760000 E1440.000000
G1 X30.000000 Y5.760000 E1440.000000
G1 X30.000000 Y5.880000 E1470.000000
G1 X0.000000 Y5.880000 E1470.000000
G1 X0.000000 Y6.000000 E1500.000000
G1 X30.000000 Y6.000000 E1500.000000
G1 X30.000000 Y6.120000 E1530.000000
G1 X0.000000 Y6.120000 E1530.000000
G1 X0.000000 Y6.240000 E1560.000000
G1 X30.000000 Y6.240000 E1560.000000
G1 X30.000000 Y6.360000 E1590.000000
G1 X0.000000 Y6.360000 E1590.000000
G1 X0.000000 Y6.480000 E1620.000000
G1 X30.000000 Y6.480000 E1620.000000
G1 X30.000000 Y6.600000 E1650.000000
G1 X0.000000 Y6.600000 E1650.000000
G1 X0.000000 Y6.720000 E1680.000000
G1 X30.000000 Y6.720000 E1680.000000
G1 X30.000000 Y6.840000 E1710.000000
G1 X0.000000 Y6.840000 E1710.000000
G1 X0.000000 Y6.960000 E1740.000000
G1 X30.000000 Y6.960000 E1740.000000
G1 X30.000000 Y7.080000 E1770.000000
G1 X0.000000 Y7.080000 E1770.000000
G1 X0.000000 Y7.200000 E1800.000000
G1 X30.000000 Y7.200000 E1800.000000
G1 X30.000000 Y7.320000 E1830.000000
G1 X0.000000 Y7.320000 E1830.000000
G1 X0.000000 Y7.440000 E1860.000000
G1 X30.000000 Y7.440000 E1860.000000
G1 X30.000000 Y7.560000 E1890.000000
G1 X0.000000 Y7.560000 E1890.000000
G1 X0.000000 Y7.680000 E1920.000000
G1 X30.000000 Y7.680000 E1920.000000
G1 X30.000000 Y7.800000 E1950.000000
G1 X0.000000 Y7.800000 E1950.000000
G1 X0.000000 Y7.920000 E1980.000000
G1 X30.000000 Y7.920000 E1980.000000
G1 X30.000000 Y8.040000 E2010.000000
G1 X0.000000 Y8.040000 E2010.000000
G1 X0.000000 Y8.160000 E2040.000000
G1 X30.000000 Y8.160000 E2040.000000
G1 X30.000000 Y8.280000 E2070.000000
G1 X0.000000 Y8.280000 E2070.000000
G1 X0.000000 Y8.400000 E2100.000000
G1 X30.000000 Y8.400000 E2100.000000
G1 X30.000000 Y8.520000 E2130.000000
G1 X0.000000 Y8.520000 E2130.000000
G1 X0.000000 Y8.640000 E2160.000000
G1 X30.000000 Y8.640000 E2160.000000
G1 X30.000000 Y8.760000 E2190.000000
G1 X0.000000 Y8.760000 E2190.000000
G1 X0.000000 Y8.880000 E2220.000000
G1 X30.000000 Y8.880000 E2220.000000
G1 X30.000000 Y9.000000 E2250.000000
G1 X0.000000 Y9.000000 E2250.000000
G1 X0.000000 Y9.120000 E2280.000000
G1 X30.000000 Y9.120000 E2280.000000
G1 X30.000000 Y9.240000 E2310.000000
G1 X0.000000 Y9.240000 E2310.000000
G1 X0.000000 Y9.360000 E2340.000000
G1 X30.000000 Y9.360000 E2340.000000
G1 X30.000000 Y9.480000 E2370.000000
G1 X0.000000 Y9.480000 E2370.000000
G1 X0.000000 Y9.600000 E2400.000000
G1 X30.000000 Y9.600000 E2400.000000
G1 X30.000000 Y9.720000 E2430.000000
G1 X0.000000 Y9.720000 E2430.000000
G1 X0.000000 Y9.840000 E2460.000000
G1 X30.000000 Y9.840000 E2460.000000
G1 X30.000000 Y9.960000 E2490.000000
G1 X0.000000 Y9.960000 E2490.000000
G1 X0.000000 Y10.080000 E2520.000000
G1 X30.000000 Y10.080000 E2520.000000
G1 X30.000000 Y10.200000 E2550.000000
G1 X0.000000 Y10.200000 E2550.000000
G1 X0.000000 Y10.320000 E2580.000000
G1 X30.000000 Y10.320000 E2580.000000
G1 X30.000000 Y10.440000 E2610.000000
G1 X0.000000 Y10.440000 E2610.000000
G1 X0.000000 Y10.560000 E2640.000000
G1 X30.000000 Y10.560000 E2640.000000
G1 X30.000000 Y10.680000 E2670.000000
G1 X0.000000 Y10.680000 E2670.000000
G1 X0.000000 Y10.800000 E2700.000000
G1 X30.000000 Y10.800000 E2700.000000
G1 X30.000000 Y10.920000 E2730.000000
G1 X0.000000 Y10.920000 E2730.000000
G1 X0.000000 Y11.040000 E2760.000000
G1 X30.000000 Y11.040000 E2760.000000
G1 X30.000000 Y11.160000 E2790.000000
G1 X0.000000 Y11.160000 E2790.000000
G1 X0.000000 Y11.280000 E2820.000000
G1 X30.000000 Y11.280000 E2820.000000
G1 X30.000000 Y11.400000 E2850.000000
G1 X0.000000 Y11.400000 E2850.000000
G1 X0.000000 Y11.520000 E2880.000000
G1 X30.000000 Y11.520000 E2880.000000
G1 X30.000000 Y11.640000 E2910.000000
G1 X0.000000 Y11.640000 E2910.000000
G1 X0.000000 Y11.760000 E2940.000000
G1 X30.000000 Y11.760000 E2940.000000
G1 X30.000000 Y11.880000 E2970.000000
G1 X0.000000 Y11.880000 E2970.000000
G1 X0.000000 Y12.000000 E3000.000000
G1 X30.000000 Y12.000000 E3000.000000
G1 X30.000000 Y12.120000 E3030.000000
G1 X0.000000 Y12.120000 E3030.000000
G1 X0.000000 Y12.240000 E3060.000000
G1 X30.000000 Y12.240000 E3060.000000
G1 X30.000000 Y12.360000 E3090.000000
G1 X0.000000 Y12.360000 E3090.000000
G1 X0.000000 Y12.480000 E3120.000000
G1 X30.000000 Y12.480000 E3120.000000
G1 X30.000000 Y12.600000 E3150.000000
G1 X0.000000 Y12.600000 E3150.000000
G1 X0.000000 Y12.720000 E3180.000000
G1 X30.000000 Y12.720000 E3180.000000
G1 X30.000000 Y12.840000 E3210.000000
G1 X0.000000 Y12.840000 E3210.000000
G1 X0.000000 Y12.960000 E3240.000000
G1 X30.000000 Y12.960000 E3240.000000
G1 X30.000000 Y13.080000 E3270.000000
G1 X0.000000 Y13.080000 E3270.000000
G1 X0.000000 Y13.200000 E3300.000000
G1 X30.000000 Y13.200000 E3300.000000
G1 X30.000000 Y13.320000 E3330.000000
G1 X0.000000 Y13.320000 E3330.000000
G1 X0.000000 Y13.440000 E3360.000000
G1 X30.000000 Y13.440000 E3360.000000
G1 X30.000000 Y13.560000 E3390.000000
G1 X0.000000 Y13.560000 E3390.000000
G1 X0.000000 Y13.680000 E3420.000000
G1 X30.000000 Y13.680000 E3420.000000
G1 X30.000000 Y13.800000 E3450.000000
G1 X0.000000 Y13.800000 E3450.000000
G1 X0.000000 Y13.920000 E3480.000000
G1 X30.000000 Y13.920000 E3480.000000
G1 X30.000000 Y14.040000 E3510.000000
G1 X0.000000 Y14.040000 E3510.000000
G1 X0.000000 Y14.160000 E3540.000000
G1 X30.000000 Y14.160000 E3540.000000
G1 X30.000000 Y14.280000 E3570.000000
G1 X0.000000 Y14.280000 E3570.000000
G1 X0.000000 Y14.400000 E3600.000000
G1 X30.000000 Y14.400000 E3600.000000
G1 X30.000000 Y14.520000 E3630.000000
G1 X0.000000 Y14.520000 E3630.000000
G1 X0.000000 Y14.640000 E3660.000000
G1 X30.000000 Y14.640000 E3660.000000
G1 X30.000000 Y14.760000 E3690.000000
G1 X0.000000 Y14.760000 E3690.000000
G1 X0.000000 Y14.880000 E3720.000000
G1 X30.000000 Y14.880000 E3720.000000
G1 X30.000000 Y15.000000 E3750.000000
G1 X0.000000 Y15.000000 E3750.000000
G1 X0.000000 Y15.120000 E3780.000000
G1 X30.000000 Y15.120000 E3780.000000
G1 X30.000000 Y15.240000 E3810.000000
G1 X0.000000 Y15.240000 E3810.000000
G1 X0.000000 Y15.360000 E3840.000000
G1 X30.000000 Y15.360000 E3840.000000
G1 X30.000000 Y15.480000 E3870.000000
G1 X0.000000 Y15.480000 E3870.000000
G1 X0.000000 Y15.600000 E3900.000000
G1 X30.000000 Y15.600000 E3900.000000
G1 X30.000000 Y15.720000 E3930.000000
G1 X0.000000 Y15.720000 E3930.000000
G1 X0.000000 Y15.840000 E3960.000000
G1 X30.000000 Y15.840000 E3960.000000
G1 X30.000000 Y15.960000 E3990.000000
G1 X0.000000 Y15.960000 E3990.000000
G1 X0.000000 Y16.080000 E4020.000000
G1 X30.000000 Y16.080000 E4020.000000
G1 X30.000000 Y16.200000 E4050.000000
G1 X0.000000 Y16.200000 E4050.000000
G1 X0.000000 Y16.320000 E4080.000000
G1 X30.000000 Y16.320000 E4080.000000
G1 X30.000000 Y16.440000 E4110.000000
G1 X0.000000 Y16.440000 E4110.000000
G1 X0.000000 Y16.560000 E4140.000000
G1 X30.000000 Y16.560000 E4140.000000
G1 X30.000000 Y16.680000 E4170.000000
G1 X0.000000 Y16.680000 E4170.000000
G1 X0.000000 Y16.800000 E4200.000000
G1 X30.000000 Y16.800000 E4200.000000
G1 X30.000000 Y16.920000 E4230.000000
G1 X0.000000 Y16.920000 E4230.000000
G1 X0.000000 Y17.040000 E4260.000000
G1 X30.000000 Y17.040000 E4260.000000
G1 X30.000000 Y17.160000 E4290.000000
G1 X0.000000 Y17.160000 E4290.000000
G1 X0.000000 Y17.280000 E4320.000000
G1 X30.000000 Y17.280000 E4320.000000
G1 X30.000000 Y17.400000 E4350.000000
G1 X0.000000 Y17.400000 E4350.000000
G1 X0.000000 Y17.520000 E4380.000000
G1 X30.000000 Y17.520000 E4380.000000
G1 X30.000000 Y17.640000 E4410.000000
G1 X0.000000 Y17.640000 E4410.000000
G1 X0.000000 Y17.760000 E4440.000000
G1 X30.000000 Y17.760000 E4440.000000
G1 X30.000000 Y17.880000 E4470.000000
G1 X0.000000 Y17.880000 E4470.000000
G1 X0.000000 Y18.000000 E4500.000000
G1 X30.000000 Y18.000000 E4500.000000
G1 X30.000000 Y18.120000 E4530.000000
G1 X0.000000 Y18.120000 E4530.000000
G1 X0.000000 Y18.240000 E4560.000000
G1 X30.000000 Y18.240000 E4560.000000
G1 X30.000000 Y18.360000 E4590.000000
G1 X0.000000 Y18.360000 E4590.000000
G1 X0.000000 Y18.480000 E4620.000000
G1 X30.000000 Y18.480000 E4620.000000
G1 X30.000000 Y18.600000 E4650.000000
G1 X0.000000 Y18.600000 E4650.000000
G1 X0.000000 Y18.720000 E4680.000000
G1 X30.000000 Y18.720000 E4680.000000
G1 X30.000000 Y18.840000 E4710.000000
G1 X0.000000 Y18.840000 E4710.000000
G1 X0.000000 Y18.960000 E4740.000000
G1 X30.000000 Y18.960000 E4740.000000
G1 X30.000000 Y19.080000 E4770.000000
G1 X0.000000 Y19.080000 E4770.000000
G1 X0.000000 Y19.200000 E4800.000000
G1 X30.000000 Y19.200000 E4800.000000
G1 X30.000000 Y19.320000 E4830.000000
G1 X0.000000 Y19.320000 E4830.000000
G1 X0.000000 Y19.440000 E4860.000000
G1 X30.000000 Y19.440000 E4860.000000
G1 X30.000000 Y19.560000 E4890.000000
G1 X0.000000 Y19.560000 E4890.000000
G1 X0.000000 Y19.680000 E4920.000000
G1 X30.000000 Y19.680000 E4920.000000
G1 X30.000000 Y19.800000 E4950.000000
G1 X0.000000 Y19.800000 E4950.000000
G1 X0.000000 Y19.920000 E4980.000000
G1 X30.000000 Y19.920000 E4980.000000
G1 X30.000000 Y20.040000 E5010.000000
G1 X0.000000 Y20.040000 E5010.000000
G1 X0.000000 Y20.160000 E5040.000000
G1 X30.000000 Y20.160000 E5040.000000
G1 X30.000000 Y20.280000 E5070.000000
G1 X0.000000 Y20.280000 E5070.000000
G1 X0.000000 Y20.400000 E5100.000000
G1 X30.000000 Y20.400000 E5100.000000
G1 X30.000000 Y20.520000 E5130.000000
G1 X0.000000 Y20.520000 E5130.000000
G1 X0.000000 Y20.640000 E5160.000000
G1 X30.000000 Y20.640000 E5160.000000
G1 X30.000000 Y20.760000 E5190.000000
G1 X0.000000 Y20.760000 E5190.000000
G1 X0.000000 Y20.880000 E5220.000000
G1 X30.000000 Y20.880000 E5220.000000
G1 X30.000000 Y21.000000 E5250.000000
G1 X0.000000 Y21.000000 E5250.000000
G1 X0.000000 Y21.120000 E5280.000000
G1 X30.000000 Y21.120000 E5280.000000
G1 X30.000000 Y21.240000 E5310.000000
G1 X0.000000 Y21.240000 E5310.000000
G1 X0.000000 Y21.360000 E5340.000000
G1 X30.000000 Y21.360000 E5340.000000
G1 X30.000000 Y21.480000 E5370.000000
G1 X0.000000 Y21.480000 E5370.000000
G1 X0.000000 Y21.600000 E5400.000000
G1 X30.000000 Y21.600000 E5400.000000
G1 X30.000000 Y21.720000 E5430.000000
G1 X0.000000 Y21.720000 E5430.000000
G1 X0.000000 Y21.840000 E5460.000000
G1 X30.000000 Y21.840000 E5460.000000
G1 X30.000000 Y21.960000 E5490.000000
G1 X0.000000 Y21.960000 E5490.000000
G1 X0.000000 Y22.080000 E5520.000000
G1 X30.000000 Y22.080000 E5520.000000
G1 X30.000000 Y22.200000 E5550.000000
G1 X0.000000 Y22.200000 E5550.000000
G1 X0.000000 Y22.320000 E5580.000000
G1 X30.000000 Y22.320000 E5580.000000
G1 X30.000000 Y22.440000 E5610.000000
G1 X0.000000 Y22.440000 E5610.000000
G1 X0.000000 Y22.560000 E5640.000000
G1 X30.000000 Y22.560000 E5640.000000
G1 X30.000000 Y22.680000 E5670.000000
G1 X0.000000 Y22.680000 E5670.000000
G1 X0.000000 Y22.800000 E5700.000000
G1 X30.000000 Y22.800000 E5700.000000
G1 X30.000000 Y22.920000 E5730.000000
G1 X0.000000 Y22.920000 E5730.000000
G1 X0.000000 Y23.040000 E5760.000000
G1 X30.000000 Y23.040000 E5760.000000
G1 X30.000000 Y23.160000 E5790.000000
G1 X0.000000 Y23.160000 E5790.000000
G1 X0.000000 Y23.280000 E5820.000000
G1 X30.000000 Y23.280000 E5820.000000
G1 X30.000000 Y23.400000 E5850.000000
G1 X0.000000 Y23.400000 E5850.000000
G1 X0.000000 Y23.520000 E5880.000000
G1 X30.000000 Y23.520000 E5880.000000
G1 X30.000000 Y23.640000 E5910.000000
G1 X0.000000 Y23.640000 E5910.000000
G1 X0.000000 Y23.760000 E5940.000000
G1 X30.000000 Y23.760000 E5940.000000
G1 X30.000000 Y23.880000 E5970.000000
G1 X0.000000 Y23.880000 E5970.000000
G1 X0.000000 Y24.000000 E6000.000000
G1 X30.000000 Y24.000000 E6000.000000
G1 X30.000000 Y24.120000 E6030.000000
G1 X0.000000 Y24.120000 E6030.000000
G1 X0.000000 Y24.240000 E6060.000000
G1 X30.000000 Y24.240000 E6060.000000
G1 X30.000000 Y24.360000 E6090.000000
G1 X0.000000 Y24.360000 E6090.000000
G1 X0.000000 Y24.480000 E6120.000000
G1 X30.000000 Y24.480000 E6120.000000
G1 X30.000000 Y24.600000 E6150.000000
G1 X0.000000 Y24.600000 E6150.000000
