;FLAVOR:Marlin
;TIME:52150
;Filament used: 1.04025m
;Layer height: 0.12
;MINX:2.699
;MINY:12.696
;MINZ:0.12
;MAXX:52.3
;MAXY:62.304
;MAXZ:2.04
;Generated with Cura_SteamEngine 5.3.1
M105
M109 S0
M82 ;absolute extrusion mode

G92 E0
G92 E0
G1 F2700 E-5
;LAYER_COUNT:1
;LAYER:0
M107
;MESH:film_square_1mm.STL

G1 F50.000000 E0
G1 X0.000000 Y0.000000 E0.000000
G1 X30.000000 Y0.000000 E0.000000
G1 X30.000000 Y5.000000 E30.000000
G1 X0.000000 Y5.000000 E30.000000
G1 X0.000000 Y10.000000 E60.000000
G1 X30.000000 Y10.000000 E60.000000
G1 X30.000000 Y15.000000 E90.000000
G1 X0.000000 Y15.000000 E90.000000
G1 X0.000000 Y20.000000 E120.000000
G1 X30.000000 Y20.000000 E120.000000
G1 X30.000000 Y25.000000 E150.000000
G1 X0.000000 Y25.000000 E150.000000
G1 X0.000000 Y0.240000 E180.000000
G1 X30.000000 Y0.240000 E180.000000
G1 X30.000000 Y5.240000 E210.000000
G1 X0.000000 Y5.240000 E210.000000
G1 X0.000000 Y10.240000 E240.000000
G1 X30.000000 Y10.240000 E240.000000
G1 X30.000000 Y15.240000 E270.000000
G1 X0.000000 Y15.240000 E270.000000
G1 X0.000000 Y20.240000 E300.000000
G1 X30.000000 Y20.240000 E300.000000
G1 X30.000000 Y25.240000 E330.000000
G1 X0.000000 Y25.240000 E330.000000
G1 X0.000000 Y0.480000 E360.000000
G1 X30.000000 Y0.480000 E360.000000
G1 X30.000000 Y5.480000 E390.000000
G1 X0.000000 Y5.480000 E390.000000
G1 X0.000000 Y10.480000 E420.000000
G1 X30.000000 Y10.480000 E420.000000
G1 X30.000000 Y15.480000 E450.000000
G1 X0.000000 Y15.480000 E450.000000
G1 X0.000000 Y20.480000 E480.000000
G1 X30.000000 Y20.480000 E480.000000
G1 X30.000000 Y25.480000 E510.000000
G1 X0.000000 Y25.480000 E510.000000
G1 X0.000000 Y0.720000 E540.000000
G1 X30.000000 Y0.720000 E540.000000
G1 X30.000000 Y5.720000 E570.000000
G1 X0.000000 Y5.720000 E570.000000
G1 X0.000000 Y10.720000 E600.000000
G1 X30.000000 Y10.720000 E600.000000
G1 X30.000000 Y15.720000 E630.000000
G1 X0.000000 Y15.720000 E630.000000
G1 X0.000000 Y20.720000 E660.000000
G1 X30.000000 Y20.720000 E660.000000
G1 X30.000000 Y25.720000 E690.000000
G1 X0.000000 Y25.720000 E690.000000
G1 X0.000000 Y0.960000 E720.000000
G1 X30.000000 Y0.960000 E720.000000
G1 X30.000000 Y5.960000 E750.000000
G1 X0.000000 Y5.960000 E750.000000
G1 X0.000000 Y10.960000 E780.000000
G1 X30.000000 Y10.960000 E780.000000
G1 X30.000000 Y15.960000 E810.000000
G1 X0.000000 Y15.960000 E810.000000
G1 X0.000000 Y20.960000 E840.000000
G1 X30.000000 Y20.960000 E840.000000
G1 X30.000000 Y25.960000 E870.000000
G1 X0.000000 Y25.960000 E870.000000
G1 X0.000000 Y1.200000 E900.000000
G1 X30.000000 Y1.200000 E900.000000
G1 X30.000000 Y6.200000 E930.000000
G1 X0.000000 Y6.200000 E930.000000
G1 X0.000000 Y11.200000 E960.000000
G1 X30.000000 Y11.200000 E960.000000
G1 X30.000000 Y16.200000 E990.000000
G1 X0.000000 Y16.200000 E990.000000
G1 X0.000000 Y21.200000 E1020.000000
G1 X30.000000 Y21.200000 E1020.000000
G1 X30.000000 Y26.200000 E1050.000000
G1 X0.000000 Y26.200000 E1050.000000
G1 X0.000000 Y1.440000 E1080.000000
G1 X30.000000 Y1.440000 E1080.000000
G1 X30.000000 Y6.440000 E1110.000000
G1 X0.000000 Y6.440000 E1110.000000
G1 X0.000000 Y11.440000 E1140.000000
G1 X30.000000 Y11.440000 E1140.000000
G1 X30.000000 Y16.440000 E1170.000000
G1 X0.000000 Y16.440000 E1170.000000
G1 X0.000000 Y21.440000 E1200.000000
G1 X30.000000 Y21.440000 E1200.000000
G1 X30.000000 Y26.440000 E1230.000000
G1 X0.000000 Y26.440000 E1230.000000
G1 X0.000000 Y1.680000 E1260.000000
G1 X30.000000 Y1.680000 E1260.000000
G1 X30.000000 Y6.680000 E1290.000000
G1 X0.000000 Y6.680000 E1290.000000
G1 X0.000000 Y11.680000 E1320.000000
G1 X30.000000 Y11.680000 E1320.000000
G1 X30.000000 Y16.680000 E1350.000000
G1 X0.000000 Y16.680000 E1350.000000
G1 X0.000000 Y21.680000 E1380.000000
G1 X30.000000 Y21.680000 E1380.000000
G1 X30.000000 Y26.680000 E1410.000000
G1 X0.000000 Y26.680000 E1410.000000
G1 X0.000000 Y1.920000 E1440.000000
G1 X30.000000 Y1.920000 E1440.000000
G1 X30.000000 Y6.920000 E1470.000000
G1 X0.000000 Y6.920000 E1470.000000
G1 X0.000000 Y11.920000 E1500.000000
G1 X30.000000 Y11.920000 E1500.000000
G1 X30.000000 Y16.920000 E1530.000000
G1 X0.000000 Y16.920000 E1530.000000
G1 X0.000000 Y21.920000 E1560.000000
G1 X30.000000 Y21.920000 E1560.000000
G1 X30.000000 Y26.920000 E1590.000000
G1 X0.000000 Y26.920000 E1590.000000
G1 X0.000000 Y2.160000 E1620.000000
G1 X30.000000 Y2.160000 E1620.000000
G1 X30.000000 Y7.160000 E1650.000000
G1 X0.000000 Y7.160000 E1650.000000
G1 X0.000000 Y12.160000 E1680.000000
G1 X30.000000 Y12.160000 E1680.000000
G1 X30.000000 Y17.160000 E1710.000000
G1 X0.000000 Y17.160000 E1710.000000
G1 X0.000000 Y22.160000 E1740.000000
G1 X30.000000 Y22.160000 E1740.000000
G1 X30.000000 Y27.160000 E1770.000000
G1 X0.000000 Y27.160000 E1770.000000
G1 X0.000000 Y2.400000 E1800.000000
G1 X30.000000 Y2.400000 E1800.000000
G1 X30.000000 Y7.400000 E1830.000000
G1 X0.000000 Y7.400000 E1830.000000
G1 X0.000000 Y12.400000 E1860.000000
G1 X30.000000 Y12.400000 E1860.000000
G1 X30.000000 Y17.400000 E1890.000000
G1 X0.000000 Y17.400000 E1890.000000
G1 X0.000000 Y22.400000 E1920.000000
G1 X30.000000 Y22.400000 E1920.000000
G1 X30.000000 Y27.400000 E1950.000000
G1 X0.000000 Y27.400000 E1950.000000
G1 X0.000000 Y2.640000 E1980.000000
G1 X30.000000 Y2.640000 E1980.000000
G1 X30.000000 Y7.640000 E2010.000000
G1 X0.000000 Y7.640000 E2010.000000
G1 X0.000000 Y12.640000 E2040.000000
G1 X30.000000 Y12.640000 E2040.000000
G1 X30.000000 Y17.640000 E2070.000000
G1 X0.000000 Y17.640000 E2070.000000
G1 X0.000000 Y22.640000 E2100.000000
G1 X30.000000 Y22.640000 E2100.000000
G1 X30.000000 Y27.640000 E2130.000000
G1 X0.000000 Y27.640000 E2130.000000
G1 X0.000000 Y2.880000 E2160.000000
G1 X30.000000 Y2.880000 E2160.000000
G1 X30.000000 Y7.880000 E2190.000000
G1 X0.000000 Y7.880000 E2190.000000
G1 X0.000000 Y12.880000 E2220.000000
G1 X30.000000 Y12.880000 E2220.000000
G1 X30.000000 Y17.880000 E2250.000000
G1 X0.000000 Y17.880000 E2250.000000
G1 X0.000000 Y22.880000 E2280.000000
G1 X30.000000 Y22.880000 E2280.000000
G1 X30.000000 Y27.880000 E2310.000000
G1 X0.000000 Y27.880000 E2310.000000
G1 X0.000000 Y3.120000 E2340.000000
G1 X30.000000 Y3.120000 E2340.000000
G1 X30.000000 Y8.120000 E2370.000000
G1 X0.000000 Y8.120000 E2370.000000
G1 X0.000000 Y13.120000 E2400.000000
G1 X30.000000 Y13.120000 E2400.000000
G1 X30.000000 Y18.120000 E2430.000000
G1 X0.000000 Y18.120000 E2430.000000
G1 X0.000000 Y23.120000 E2460.000000
G1 X30.000000 Y23.120000 E2460.000000
G1 X30.000000 Y28.120000 E2490.000000
G1 X0.000000 Y28.120000 E2490.000000
G1 X0.000000 Y3.360000 E2520.000000
G1 X30.000000 Y3.360000 E2520.000000
G1 X30.000000 Y8.360000 E2550.000000
G1 X0.000000 Y8.360000 E2550.000000
G1 X0.000000 Y13.360000 E2580.000000
G1 X30.000000 Y13.360000 E2580.000000
G1 X30.000000 Y18.360000 E2610.000000
G1 X0.000000 Y18.360000 E2610.000000
G1 X0.000000 Y23.360000 E2640.000000
G1 X30.000000 Y23.360000 E2640.000000
G1 X30.000000 Y28.360000 E2670.000000
G1 X0.000000 Y28.360000 E2670.000000
G1 X0.000000 Y3.600000 E2700.000000
G1 X30.000000 Y3.600000 E2700.000000
G1 X30.000000 Y8.600000 E2730.000000
G1 X0.000000 Y8.600000 E2730.000000
G1 X0.000000 Y13.600000 E2760.000000
G1 X30.000000 Y13.600000 E2760.000000
G1 X30.000000 Y18.600000 E2790.000000
G1 X0.000000 Y18.600000 E2790.000000
G1 X0.000000 Y23.600000 E2820.000000
G1 X30.000000 Y23.600000 E2820.000000
G1 X30.000000 Y28.600000 E2850.000000
G1 X0.000000 Y28.600000 E2850.000000
G1 X0.000000 Y3.840000 E2880.000000
G1 X30.000000 Y3.840000 E2880.000000
G1 X30.000000 Y8.840000 E2910.000000
G1 X0.000000 Y8.840000 E2910.000000
G1 X0.000000 Y13.840000 E2940.000000
G1 X30.000000 Y13.840000 E2940.000000
G1 X30.000000 Y18.840000 E2970.000000
G1 X0.000000 Y18.840000 E2970.000000
G1 X0.000000 Y23.840000 E3000.000000
G1 X30.000000 Y23.840000 E3000.000000
G1 X30.000000 Y28.840000 E3030.000000
G1 X0.000000 Y28.840000 E3030.000000
G1 X0.000000 Y4.080000 E3060.000000
G1 X30.000000 Y4.080000 E3060.000000
G1 X30.000000 Y9.080000 E3090.000000
G1 X0.000000 Y9.080000 E3090.000000
G1 X0.000000 Y14.080000 E3120.000000
G1 X30.000000 Y14.080000 E3120.000000
G1 X30.000000 Y19.080000 E3150.000000
G1 X0.000000 Y19.080000 E3150.000000
G1 X0.000000 Y24.080000 E3180.000000
G1 X30.000000 Y24.080000 E3180.000000
G1 X30.000000 Y29.080000 E3210.000000
G1 X0.000000 Y29.080000 E3210.000000
G1 X0.000000 Y4.320000 E3240.000000
G1 X30.000000 Y4.320000 E3240.000000
G1 X30.000000 Y9.320000 E3270.000000
G1 X0.000000 Y9.320000 E3270.000000
G1 X0.000000 Y14.320000 E3300.000000
G1 X30.000000 Y14.320000 E3300.000000
G1 X30.000000 Y19.320000 E3330.000000
G1 X0.000000 Y19.320000 E3330.000000
G1 X0.000000 Y24.320000 E3360.000000
G1 X30.000000 Y24.320000 E3360.000000
G1 X30.000000 Y29.320000 E3390.000000
G1 X0.000000 Y29.320000 E3390.000000
G1 X0.000000 Y4.560000 E3420.000000
G1 X30.000000 Y4.560000 E3420.000000
G1 X30.000000 Y9.560000 E3450.000000
G1 X0.000000 Y9.560000 E3450.000000
G1 X0.000000 Y14.560000 E3480.000000
G1 X30.000000 Y14.560000 E3480.000000
G1 X30.000000 Y19.560000 E3510.000000
G1 X0.000000 Y19.560000 E3510.000000
G1 X0.000000 Y24.560000 E3540.000000
G1 X30.000000 Y24.560000 E3540.000000
G1 X30.000000 Y29.560000 E3570.000000
G1 X0.000000 Y29.560000 E3570.000000
G1 X0.000000 Y4.800000 E3600.000000
G1 X30.000000 Y4.800000 E3600.000000
G1 X30.000000 Y9.800000 E3630.000000
G1 X0.000000 Y9.800000 E3630.000000
G1 X0.000000 Y14.800000 E3660.000000
G1 X30.000000 Y14.800000 E3660.000000
G1 X30.000000 Y19.800000 E3690.000000
G1 X0.000000 Y19.800000 E3690.000000
G1 X0.000000 Y24.800000 E3720.000000
G1 X30.000000 Y24.800000 E3720.000000
G1 X30.000000 Y29.800000 E3750.000000
G1 X0.000000 Y29.800000 E3750.000000
M300 S440 P200
G4 P200
M300 S440 P200
G4 P200
M300 S440 P200
G4 P200
M300 S440 P200
G4 P200
;End of filament print
M300 S440 P200
G4 P200
M300 S440 P200
G4 P200
M300 S440 P200
G4 P200
M300 S440 P200
G4 P200
G1 Z30
