;FLAVOR:Marlin
;TIME:52150
;Filament used: 1.04025m
;Layer height: 0.12
;MINX:2.699
;MINY:12.696
;MINZ:0.12
;MAXX:52.3
;MAXY:62.304
;MAXZ:2.04
;Generated with Cura_SteamEngine 5.3.1
M105
M109 S0
M82 ;absolute extrusion mode

G92 E0
G92 E0
G1 F2700 E-5
;LAYER_COUNT:1
;LAYER:0
M107
;MESH:film_square_1mm.STL

G1 F60.000000 E0
G1 X0.000000 Y0.000000 E0.000000
G1 X20.000000 Y0.000000 E0.000000
G1 X20.000000 Y0.240000 E20.000000
G1 X0.000000 Y0.240000 E20.000000
G1 X0.000000 Y0.480000 E40.000000
G1 X20.000000 Y0.480000 E40.000000
G1 X20.000000 Y0.720000 E60.000000
G1 X0.000000 Y0.720000 E60.000000
G1 X0.000000 Y0.960000 E80.000000
G1 X20.000000 Y0.960000 E80.000000
G1 X20.000000 Y1.200000 E100.000000
G1 X0.000000 Y1.200000 E100.000000
G1 X0.000000 Y1.440000 E120.000000
G1 X20.000000 Y1.440000 E120.000000
G1 X20.000000 Y1.680000 E140.000000
G1 X0.000000 Y1.680000 E140.000000
G1 X0.000000 Y1.920000 E160.000000
G1 X20.000000 Y1.920000 E160.000000
G1 X20.000000 Y2.160000 E180.000000
G1 X0.000000 Y2.160000 E180.000000
G1 X0.000000 Y2.400000 E200.000000
G1 X20.000000 Y2.400000 E200.000000
G1 X20.000000 Y2.640000 E220.000000
G1 X0.000000 Y2.640000 E220.000000
G1 X0.000000 Y2.880000 E240.000000
G1 X20.000000 Y2.880000 E240.000000
G1 X20.000000 Y3.120000 E260.000000
G1 X0.000000 Y3.120000 E260.000000
G1 X0.000000 Y3.360000 E280.000000
G1 X20.000000 Y3.360000 E280.000000
G1 X20.000000 Y3.600000 E300.000000
G1 X0.000000 Y3.600000 E300.000000
G1 X0.000000 Y3.840000 E320.000000
G1 X20.000000 Y3.840000 E320.000000
G1 X20.000000 Y4.080000 E340.000000
G1 X0.000000 Y4.080000 E340.000000
G1 X0.000000 Y4.320000 E360.000000
G1 X20.000000 Y4.320000 E360.000000
G1 X20.000000 Y4.560000 E380.000000
G1 X0.000000 Y4.560000 E380.000000
G1 X0.000000 Y4.800000 E400.000000
G1 X20.000000 Y4.800000 E400.000000
G1 X20.000000 Y5.040000 E420.000000
G1 X0.000000 Y5.040000 E420.000000
G1 X0.000000 Y5.280000 E440.000000
G1 X20.000000 Y5.280000 E440.000000
G1 X20.000000 Y5.520000 E460.000000
G1 X0.000000 Y5.520000 E460.000000
G1 X0.000000 Y5.760000 E480.000000
G1 X20.000000 Y5.760000 E480.000000
G1 X20.000000 Y6.000000 E500.000000
G1 X0.000000 Y6.000000 E500.000000
G1 X0.000000 Y6.240000 E520.000000
G1 X20.000000 Y6.240000 E520.000000
G1 X20.000000 Y6.480000 E540.000000
G1 X0.000000 Y6.480000 E540.000000
G1 X0.000000 Y6.720000 E560.000000
G1 X20.000000 Y6.720000 E560.000000
G1 X20.000000 Y6.960000 E580.000000
G1 X0.000000 Y6.960000 E580.000000
G1 X0.000000 Y7.200000 E600.000000
G1 X20.000000 Y7.200000 E600.000000
G1 X20.000000 Y7.440000 E620.000000
G1 X0.000000 Y7.440000 E620.000000
G1 X0.000000 Y7.680000 E640.000000
G1 X20.000000 Y7.680000 E640.000000
G1 X20.000000 Y7.920000 E660.000000
G1 X0.000000 Y7.920000 E660.000000
G1 X0.000000 Y8.160000 E680.000000
G1 X20.000000 Y8.160000 E680.000000
G1 X20.000000 Y8.400000 E700.000000
G1 X0.000000 Y8.400000 E700.000000
G1 X0.000000 Y8.640000 E720.000000
G1 X20.000000 Y8.640000 E720.000000
G1 X20.000000 Y8.880000 E740.000000
G1 X0.000000 Y8.880000 E740.000000
G1 X0.000000 Y9.120000 E760.000000
G1 X20.000000 Y9.120000 E760.000000
G1 X20.000000 Y9.360000 E780.000000
G1 X0.000000 Y9.360000 E780.000000
G1 X0.000000 Y9.600000 E800.000000
G1 X20.000000 Y9.600000 E800.000000
G1 X20.000000 Y9.840000 E820.000000
G1 X0.000000 Y9.840000 E820.000000
G1 X0.000000 Y10.080000 E840.000000
G1 X20.000000 Y10.080000 E840.000000
G1 X20.000000 Y10.320000 E860.000000
G1 X0.000000 Y10.320000 E860.000000
G1 X0.000000 Y10.560000 E880.000000
G1 X20.000000 Y10.560000 E880.000000
G1 X20.000000 Y10.800000 E900.000000
G1 X0.000000 Y10.800000 E900.000000
G1 X0.000000 Y11.040000 E920.000000
G1 X20.000000 Y11.040000 E920.000000
G1 X20.000000 Y11.280000 E940.000000
G1 X0.000000 Y11.280000 E940.000000
G1 X0.000000 Y11.520000 E960.000000
G1 X20.000000 Y11.520000 E960.000000
G1 X20.000000 Y11.760000 E980.000000
G1 X0.000000 Y11.760000 E980.000000
G1 X0.000000 Y12.000000 E1000.000000
G1 X20.000000 Y12.000000 E1000.000000
G1 X20.000000 Y12.240000 E1020.000000
G1 X0.000000 Y12.240000 E1020.000000
G1 X0.000000 Y12.480000 E1040.000000
G1 X20.000000 Y12.480000 E1040.000000
G1 X20.000000 Y12.720000 E1060.000000
G1 X0.000000 Y12.720000 E1060.000000
G1 X0.000000 Y12.960000 E1080.000000
G1 X20.000000 Y12.960000 E1080.000000
G1 X20.000000 Y13.200000 E1100.000000
G1 X0.000000 Y13.200000 E1100.000000
G1 X0.000000 Y13.440000 E1120.000000
G1 X20.000000 Y13.440000 E1120.000000
G1 X20.000000 Y13.680000 E1140.000000
G1 X0.000000 Y13.680000 E1140.000000
G1 X0.000000 Y13.920000 E1160.000000
G1 X20.000000 Y13.920000 E1160.000000
G1 X20.000000 Y14.160000 E1180.000000
G1 X0.000000 Y14.160000 E1180.000000
G1 X0.000000 Y14.400000 E1200.000000
G1 X20.000000 Y14.400000 E1200.000000
G1 X20.000000 Y14.640000 E1220.000000
G1 X0.000000 Y14.640000 E1220.000000
G1 X0.000000 Y14.880000 E1240.000000
G1 X20.000000 Y14.880000 E1240.000000
G1 X20.000000 Y15.120000 E1260.000000
G1 X0.000000 Y15.120000 E1260.000000
G1 X0.000000 Y15.360000 E1280.000000
G1 X20.000000 Y15.360000 E1280.000000
G1 X20.000000 Y15.600000 E1300.000000
G1 X0.000000 Y15.600000 E1300.000000
G1 X0.000000 Y15.840000 E1320.000000
G1 X20.000000 Y15.840000 E1320.000000
G1 X20.000000 Y16.080000 E1340.000000
G1 X0.000000 Y16.080000 E1340.000000
G1 X0.000000 Y16.320000 E1360.000000
G1 X20.000000 Y16.320000 E1360.000000
G1 X20.000000 Y16.560000 E1380.000000
G1 X0.000000 Y16.560000 E1380.000000
G1 X0.000000 Y16.800000 E1400.000000
G1 X20.000000 Y16.800000 E1400.000000
G1 X20.000000 Y17.040000 E1420.000000
G1 X0.000000 Y17.040000 E1420.000000
G1 X0.000000 Y17.280000 E1440.000000
G1 X20.000000 Y17.280000 E1440.000000
G1 X20.000000 Y17.520000 E1460.000000
G1 X0.000000 Y17.520000 E1460.000000
G1 X0.000000 Y17.760000 E1480.000000
G1 X20.000000 Y17.760000 E1480.000000
G1 X20.000000 Y18.000000 E1500.000000
G1 X0.000000 Y18.000000 E1500.000000
G1 X0.000000 Y18.240000 E1520.000000
G1 X20.000000 Y18.240000 E1520.000000
G1 X20.000000 Y18.480000 E1540.000000
G1 X0.000000 Y18.480000 E1540.000000
G1 X0.000000 Y18.720000 E1560.000000
G1 X20.000000 Y18.720000 E1560.000000
G1 X20.000000 Y18.960000 E1580.000000
G1 X0.000000 Y18.960000 E1580.000000
G1 X0.000000 Y19.200000 E1600.000000
G1 X20.000000 Y19.200000 E1600.000000
G1 X20.000000 Y19.440000 E1620.000000
G1 X0.000000 Y19.440000 E1620.000000
G1 X0.000000 Y19.680000 E1640.000000
G1 X20.000000 Y19.680000 E1640.000000
G1 X20.000000 Y19.920000 E1660.000000
G1 X0.000000 Y19.920000 E1660.000000
M300 S440 P200
G4 P200
M300 S440 P200
G4 P200
M300 S440 P200
G4 P200
M300 S440 P200
G4 P200
;End of filament print
M300 S440 P200
G4 P200
M300 S440 P200
G4 P200
M300 S440 P200
G4 P200
M300 S440 P200
G4 P200
G1 Z30
