;FLAVOR:Marlin
;TIME:52150
;Filament used: 1.04025m
;Layer height: 0.12
;MINX:2.699
;MINY:12.696
;MINZ:0.12
;MAXX:52.3
;MAXY:62.304
;MAXZ:2.04
;Generated with Cura_SteamEngine 5.3.1
M105
M109 S0
M82 ;absolute extrusion mode

G92 E0
G92 E0
G1 F2700 E-5
;LAYER_COUNT:1
;LAYER:0
M107
;MESH:film_square_1mm.STL

G1 F75.000000 E0
G1 X0.000000 Y0.000000 E0.000000
G1 X40.000000 Y0.000000 E0.000000
G1 X40.000000 Y5.000000 E40.000000
G1 X0.000000 Y5.000000 E40.000000
G1 X0.000000 Y10.000000 E80.000000
G1 X40.000000 Y10.000000 E80.000000
G1 X40.000000 Y15.000000 E120.000000
G1 X0.000000 Y15.000000 E120.000000
G1 X0.000000 Y20.000000 E160.000000
G1 X40.000000 Y20.000000 E160.000000
G1 X40.000000 Y25.000000 E200.000000
G1 X0.000000 Y25.000000 E200.000000
G1 X0.000000 Y30.000000 E240.000000
G1 X40.000000 Y30.000000 E240.000000
G1 X40.000000 Y35.000000 E280.000000
G1 X0.000000 Y35.000000 E280.000000
G1 X0.000000 Y0.000000 E320.000000
G1 X0.000000 Y40.000000 E320.000000
G1 X5.000000 Y40.000000 E360.000000
G1 X5.000000 Y0.000000 E360.000000
G1 X10.000000 Y0.000000 E400.000000
G1 X10.000000 Y40.000000 E400.000000
G1 X15.000000 Y40.000000 E440.000000
G1 X15.000000 Y0.000000 E440.000000
G1 X20.000000 Y0.000000 E480.000000
G1 X20.000000 Y40.000000 E480.000000
G1 X25.000000 Y40.000000 E520.000000
G1 X25.000000 Y0.000000 E520.000000
G1 X30.000000 Y0.000000 E560.000000
G1 X30.000000 Y40.000000 E560.000000
G1 X35.000000 Y40.000000 E600.000000
G1 X35.000000 Y0.000000 E600.000000
M300 S440 P200
G4 P200
M300 S440 P200
G4 P200
M300 S440 P200
G4 P200
M300 S440 P200
G4 P200
;End of filament print
M300 S440 P200
G4 P200
M300 S440 P200
G4 P200
M300 S440 P200
G4 P200
M300 S440 P200
G4 P200
G1 Z30
